; G-Code generated by Simplify3D(R) Version 2.2.2
; Apr 6, 2015 at 4:02:59 
; Settings Summary
;   processName,NEO
;   applyToModels,001 botonkill
;   profileLabel,Robotica.fff
;   printMaterial,PLA
;   printQuality,High
;   extruderName,Primary Extruder
;   extruderToolheadNumber,0
;   extruderDiameter,0.5
;   extruderAutoWidth,0
;   extruderWidth,0.5
;   extrusionMultiplier,1
;   extruderUseRetract,1
;   extruderRetractionDistance,5
;   extruderExtraRestartDistance,0
;   extruderRetractionZLift,0
;   extruderRetractionSpeed,4998
;   extruderUseCoasting,0
;   extruderCoastingDistance,0.2
;   extruderUseWipe,0
;   extruderWipeDistance,5
;   primaryExtruder,0
;   layerHeight,0.2
;   topSolidLayers,6
;   bottomSolidLayers,6
;   perimeterOutlines,2
;   printPerimetersInsideOut,1
;   startPointOption,2
;   startPointOriginX,0
;   startPointOriginY,0
;   startPointOriginZ,300
;   sequentialIslands,0
;   spiralVaseMode,0
;   firstLayerHeightPercentage,100
;   firstLayerWidthPercentage,100
;   firstLayerUnderspeed,0.5
;   useRaft,0
;   raftExtruder,0
;   raftLayers,3
;   raftOffset,3
;   raftSeparationDistance,0.1
;   raftInfill,85
;   disableRaftBaseLayers,0
;   useSkirt,1
;   skirtExtruder,0
;   skirtLayers,1
;   skirtOutlines,2
;   skirtOffset,5
;   infillExtruder,0
;   externalInfillPattern,Rectilinear
;   infillPercentage,15
;   outlineOverlapPercentage,15
;   infillExtrusionWidthPercentage,100
;   minInfillLength,3
;   infillLayerInterval,1
;   randomInfillStartPoint,0
;   infillAngles,45,-45
;   generateSupport,1
;   supportExtruder,0
;   supportInfill,20
;   supportExtraInflation,0
;   denseSupportLayers,0
;   denseSupportInfill,50
;   supportLayerInterval,1
;   supportHorizontalPartOffset,0.6
;   supportUpperSeparationLayers,1
;   supportLowerSeparationLayers,1
;   supportGridSpacing,1.5
;   maxOverhangAngle,45
;   supportAngles,45
;   temperatureName,Primary Extruder
;   temperatureNumber,0
;   temperatureSetpointCount,1
;   temperatureSetpointLayers,1
;   temperatureSetpointTemperatures,190
;   temperatureStabilizeAtStartup,1
;   temperatureHeatedBed,0
;   temperatureRelayBetweenLayers,0
;   temperatureRelayBetweenLoops,0
;   fanLayers,1,3
;   fanSpeeds,0,100
;   blipFanToFullPower,0
;   adjustSpeedForCooling,1
;   minSpeedLayerTime,15
;   minCoolingSpeedSlowdown,20
;   increaseFanForCooling,0
;   minFanLayerTime,45
;   maxCoolingFanSpeed,100
;   increaseFanForBridging,0
;   bridgingFanSpeed,100
;   use5D,1
;   relativeEdistances,0
;   allowEaxisZeroing,1
;   independentExtruderAxes,0
;   includeM10123,0
;   stickySupport,1
;   detectArcs,0
;   arcReplaceG2G3,0
;   arcRadialCompensation,1
;   gcodeXoffset,0
;   gcodeYoffset,0
;   gcodeZoffset,0
;   overrideMachineDefinition,1
;   machineTypeOverride,0
;   strokeXoverride,150
;   strokeYoverride,150
;   strokeZoverride,150
;   originOffsetXoverride,0
;   originOffsetYoverride,0
;   originOffsetZoverride,0
;   homeXdirOverride,-1
;   homeYdirOverride,-1
;   homeZdirOverride,-1
;   flipXoverride,1
;   flipYoverride,-1
;   flipZoverride,1
;   startingGcode,G28 ; home all axes
;   layerChangeGcode,
;   toolChangeGcode,
;   endingGcode,M104 S0 ; turn off extruder,G28 X0  ; home X axis,G28 Y0  ; home Y axis,M84 ; disable motors
;   createX3G,0
;   celebration,0
;   celebrationSong,Random Song
;   createMB5G,0
;   postProcessing,
;   defaultSpeed,1800
;   outlineUnderspeed,0.5
;   solidInfillUnderspeed,0.8
;   supportUnderspeed,1
;   rapidXYspeed,9000
;   rapidZspeed,1200
;   minBridgingArea,50
;   bridgingExtrusionMultiplier,1
;   bridgingSpeedMultiplier,1
;   filamentDiameter,1.75
;   filamentPricePerKg,34.6
;   useMinPrintHeight,0
;   minPrintHeight,0
;   useMaxPrintHeight,0
;   maxPrintHeight,0
;   useDiaphragm,0
;   diaphragmLayerInterval,20
;   robustSlicing,1
;   mergeAllIntoSolid,0
;   onlyRetractWhenCrossingOutline,1
;   retractBetweenLayers,1
;   useRetractionMinTravel,0
;   retractionMinTravel,3
;   useRetractionOozeRate,0
;   retractionOozeRate,100
;   onlyWipeOutlines,1
;   toolChangeRetractionDistance,12
;   toolChangeExtraRestartDistance,-0.5
;   toolChangeRetractionSpeed,600
;   allowThinWallGapFill,1
;   thinWallAllowedOverlapPercentage,10
;   horizontalSizeCompensation,0
G90
M82
M106 S0
M104 S190 T0
M109 S190 T0
G28 ; home all axes
G92 E0
G1 E-5 F4998
G1 Z0.2 F1200
; layer 1, Z = 0.2
T0
; tool H0.2 W0.5
G1 X68.045 Y65.598 F9000
G1 E0 F1499
G92 E0
G1 X68.505 Y65.159 E0.0265 F838
G1 X68.518 Y65.147 E0.0272
G1 X68.712 Y64.979 E0.0378
G1 X68.726 Y64.968 E0.0386
G1 X69.226 Y64.574 E0.0651
G1 X69.24 Y64.564 E0.0658
G1 X69.449 Y64.415 E0.0764
G1 X69.463 Y64.405 E0.0772
G1 X69.999 Y64.061 E0.1036
G1 X70.014 Y64.052 E0.1044
G1 X70.236 Y63.924 E0.115
G1 X70.251 Y63.915 E0.1158
G1 X70.817 Y63.623 E0.1422
G1 X70.833 Y63.616 E0.143
G1 X71.066 Y63.509 E0.1536
G1 X71.082 Y63.502 E0.1543
G1 X71.673 Y63.266 E0.1808
G1 X71.69 Y63.26 E0.1816
G1 X71.932 Y63.176 E0.1922
G1 X71.949 Y63.17 E0.1929
G1 X72.56 Y62.991 E0.2194
G1 X72.577 Y62.986 E0.2201
G1 X72.826 Y62.926 E0.2308
G1 X72.843 Y62.922 E0.2315
G1 X73.468 Y62.802 E0.258
G1 X73.486 Y62.799 E0.2587
G1 X73.739 Y62.763 E0.2694
G1 X73.757 Y62.76 E0.2701
G1 X74.39 Y62.7 E0.2966
G1 X74.408 Y62.699 E0.2973
G1 X74.664 Y62.686 E0.308
G1 X74.682 Y62.686 E0.3087
G1 X75.318 Y62.686 E0.3352
G1 X75.336 Y62.686 E0.3359
G1 X75.592 Y62.699 E0.3466
G1 X75.61 Y62.7 E0.3473
G1 X76.243 Y62.76 E0.3738
G1 X76.261 Y62.763 E0.3745
G1 X76.514 Y62.799 E0.3851
G1 X76.532 Y62.802 E0.3859
G1 X77.157 Y62.922 E0.4123
G1 X77.174 Y62.926 E0.4131
G1 X77.423 Y62.986 E0.4237
G1 X77.44 Y62.991 E0.4245
G1 X78.051 Y63.17 E0.4509
G1 X78.068 Y63.176 E0.4517
G1 X78.31 Y63.26 E0.4623
G1 X78.327 Y63.266 E0.4631
G1 X78.918 Y63.502 E0.4895
G1 X78.934 Y63.509 E0.4903
G1 X79.167 Y63.616 E0.5009
G1 X79.183 Y63.623 E0.5016
G1 X79.748 Y63.915 E0.5281
G1 X79.764 Y63.924 E0.5288
G1 X79.986 Y64.052 E0.5395
G1 X80.001 Y64.061 E0.5402
G1 X80.537 Y64.405 E0.5667
G1 X80.551 Y64.415 E0.5674
G1 X80.76 Y64.564 E0.5781
G1 X80.774 Y64.574 E0.5788
G1 X81.274 Y64.968 E0.6053
G1 X81.288 Y64.979 E0.606
G1 X81.481 Y65.147 E0.6167
G1 X81.495 Y65.159 E0.6174
G1 X81.955 Y65.598 E0.6439
G1 X81.968 Y65.61 E0.6446
G1 X82.145 Y65.796 E0.6552
G1 X82.157 Y65.809 E0.656
G1 X82.574 Y66.29 E0.6825
G1 X82.585 Y66.304 E0.6832
G1 X82.743 Y66.505 E0.6938
G1 X82.754 Y66.519 E0.6946
G1 X83.123 Y67.038 E0.7211
G1 X83.133 Y67.053 E0.7218
G1 X83.271 Y67.268 E0.7324
G1 X83.281 Y67.283 E0.7332
G1 X83.599 Y67.834 E0.7596
G1 X83.607 Y67.85 E0.7604
G1 X83.725 Y68.077 E0.771
G1 X83.733 Y68.093 E0.7717
G1 X83.997 Y68.672 E0.7982
G1 X84.004 Y68.689 E0.799
G1 X84.099 Y68.927 E0.8096
G1 X84.105 Y68.943 E0.8103
G1 X84.314 Y69.545 E0.8368
G1 X84.319 Y69.562 E0.8376
G1 X84.391 Y69.807 E0.8482
G1 X84.396 Y69.824 E0.8489
G1 X84.546 Y70.443 E0.8754
G1 X84.55 Y70.461 E0.8761
G1 X84.598 Y70.712 E0.8868
G1 X84.601 Y70.73 E0.8875
G1 X84.692 Y71.36 E0.914
G1 X84.694 Y71.377 E0.9147
G1 X84.718 Y71.632 E0.9254
G1 X84.719 Y71.65 E0.9261
G1 X84.747 Y72.222 E0.9499
G1 X84.747 Y72.231 E0.9503
G1 X84.75 Y72.359 E0.9556
G1 X84.75 Y72.367 E0.956
G1 X84.75 Y77.633 E1.1749
G1 X84.75 Y77.641 E1.1752
G1 X84.747 Y77.769 E1.1806
G1 X84.747 Y77.778 E1.1809
G1 X84.719 Y78.35 E1.2047
G1 X84.718 Y78.368 E1.2055
G1 X84.694 Y78.623 E1.2161
G1 X84.692 Y78.64 E1.2169
G1 X84.601 Y79.27 E1.2433
G1 X84.598 Y79.288 E1.2441
G1 X84.55 Y79.539 E1.2547
G1 X84.546 Y79.557 E1.2554
G1 X84.396 Y80.175 E1.2819
G1 X84.391 Y80.193 E1.2827
G1 X84.319 Y80.438 E1.2933
G1 X84.314 Y80.455 E1.294
G1 X84.105 Y81.057 E1.3205
G1 X84.099 Y81.073 E1.3212
G1 X84.004 Y81.311 E1.3319
G1 X83.997 Y81.328 E1.3326
G1 X83.732 Y81.907 E1.3591
G1 X83.725 Y81.923 E1.3598
G1 X83.607 Y82.15 E1.3705
G1 X83.599 Y82.166 E1.3712
G1 X83.281 Y82.717 E1.3977
G1 X83.271 Y82.732 E1.3984
G1 X83.133 Y82.947 E1.409
G1 X83.123 Y82.962 E1.4098
G1 X82.754 Y83.481 E1.4363
G1 X82.743 Y83.495 E1.437
G1 X82.585 Y83.696 E1.4476
G1 X82.574 Y83.71 E1.4484
G1 X82.157 Y84.191 E1.4749
G1 X82.145 Y84.204 E1.4756
G1 X81.968 Y84.389 E1.4862
G1 X81.955 Y84.402 E1.487
G1 X81.495 Y84.841 E1.5134
G1 X81.482 Y84.853 E1.5142
G1 X81.288 Y85.021 E1.5248
G1 X81.275 Y85.032 E1.5256
G1 X80.774 Y85.426 E1.552
G1 X80.76 Y85.436 E1.5528
G1 X80.551 Y85.585 E1.5634
G1 X80.537 Y85.595 E1.5641
G1 X80.001 Y85.939 E1.5906
G1 X79.986 Y85.948 E1.5914
G1 X79.764 Y86.076 E1.602
G1 X79.748 Y86.085 E1.6027
G1 X79.183 Y86.377 E1.6292
G1 X79.167 Y86.384 E1.6299
G1 X78.934 Y86.491 E1.6406
G1 X78.918 Y86.498 E1.6413
G1 X78.327 Y86.734 E1.6678
G1 X78.31 Y86.74 E1.6685
G1 X78.068 Y86.824 E1.6792
G1 X78.051 Y86.83 E1.6799
G1 X77.44 Y87.009 E1.7064
G1 X77.423 Y87.014 E1.7071
G1 X77.174 Y87.074 E1.7178
G1 X77.157 Y87.078 E1.7185
G1 X76.532 Y87.198 E1.745
G1 X76.514 Y87.201 E1.7457
G1 X76.261 Y87.237 E1.7563
G1 X76.243 Y87.24 E1.7571
G1 X75.61 Y87.3 E1.7835
G1 X75.592 Y87.301 E1.7843
G1 X75.336 Y87.314 E1.7949
G1 X75.318 Y87.314 E1.7957
G1 X74.682 Y87.314 E1.8221
G1 X74.664 Y87.314 E1.8229
G1 X74.408 Y87.301 E1.8335
G1 X74.39 Y87.3 E1.8343
G1 X73.757 Y87.24 E1.8607
G1 X73.739 Y87.237 E1.8615
G1 X73.486 Y87.201 E1.8721
G1 X73.468 Y87.198 E1.8729
G1 X72.843 Y87.078 E1.8993
G1 X72.826 Y87.074 E1.9001
G1 X72.577 Y87.014 E1.9107
G1 X72.56 Y87.009 E1.9114
G1 X71.949 Y86.83 E1.9379
G1 X71.932 Y86.824 E1.9386
G1 X71.69 Y86.74 E1.9493
G1 X71.673 Y86.734 E1.95
G1 X71.082 Y86.498 E1.9765
G1 X71.066 Y86.491 E1.9772
G1 X70.833 Y86.384 E1.9879
G1 X70.817 Y86.376 E1.9886
G1 X70.251 Y86.085 E2.0151
G1 X70.236 Y86.076 E2.0158
G1 X70.014 Y85.948 E2.0265
G1 X69.999 Y85.939 E2.0272
G1 X69.464 Y85.595 E2.0537
G1 X69.449 Y85.585 E2.0544
G1 X69.24 Y85.436 E2.065
G1 X69.226 Y85.426 E2.0658
G1 X68.726 Y85.032 E2.0923
G1 X68.712 Y85.021 E2.093
G1 X68.518 Y84.853 E2.1036
G1 X68.505 Y84.841 E2.1044
G1 X68.044 Y84.402 E2.1308
G1 X68.032 Y84.389 E2.1316
G1 X67.855 Y84.204 E2.1422
G1 X67.843 Y84.191 E2.143
G1 X67.426 Y83.71 E2.1694
G1 X67.415 Y83.696 E2.1702
G1 X67.257 Y83.495 E2.1808
G1 X67.246 Y83.481 E2.1815
G1 X66.877 Y82.962 E2.208
G1 X66.867 Y82.948 E2.2088
G1 X66.729 Y82.732 E2.2194
G1 X66.719 Y82.717 E2.2201
G1 X66.401 Y82.166 E2.2466
G1 X66.392 Y82.15 E2.2473
G1 X66.275 Y81.922 E2.258
G1 X66.267 Y81.906 E2.2587
G1 X66.003 Y81.327 E2.2852
G1 X65.996 Y81.311 E2.2859
G1 X65.901 Y81.074 E2.2966
G1 X65.895 Y81.057 E2.2973
G1 X65.686 Y80.455 E2.3238
G1 X65.681 Y80.438 E2.3245
G1 X65.609 Y80.192 E2.3352
G1 X65.604 Y80.175 E2.3359
G1 X65.454 Y79.557 E2.3624
G1 X65.45 Y79.539 E2.3631
G1 X65.402 Y79.288 E2.3738
G1 X65.399 Y79.27 E2.3745
G1 X65.308 Y78.64 E2.401
G1 X65.306 Y78.623 E2.4017
G1 X65.282 Y78.368 E2.4123
G1 X65.281 Y78.35 E2.4131
G1 X65.253 Y77.778 E2.4369
G1 X65.253 Y77.769 E2.4373
G1 X65.25 Y77.641 E2.4426
G1 X65.25 Y77.632 E2.4429
G1 X65.25 Y72.367 E2.6618
G1 X65.25 Y72.359 E2.6622
G1 X65.253 Y72.231 E2.6675
G1 X65.253 Y72.222 E2.6679
G1 X65.281 Y71.65 E2.6917
G1 X65.282 Y71.632 E2.6924
G1 X65.306 Y71.377 E2.7031
G1 X65.308 Y71.36 E2.7038
G1 X65.399 Y70.73 E2.7303
G1 X65.402 Y70.712 E2.731
G1 X65.45 Y70.461 E2.7417
G1 X65.454 Y70.443 E2.7424
G1 X65.604 Y69.825 E2.7689
G1 X65.609 Y69.807 E2.7696
G1 X65.681 Y69.562 E2.7803
G1 X65.686 Y69.545 E2.781
G1 X65.895 Y68.943 E2.8075
G1 X65.901 Y68.926 E2.8082
G1 X65.996 Y68.689 E2.8188
G1 X66.003 Y68.673 E2.8196
G1 X66.267 Y68.094 E2.8461
G1 X66.275 Y68.078 E2.8468
G1 X66.392 Y67.85 E2.8574
G1 X66.401 Y67.834 E2.8582
G1 X66.719 Y67.283 E2.8846
G1 X66.729 Y67.268 E2.8854
G1 X66.867 Y67.052 E2.896
G1 X66.877 Y67.038 E2.8968
G1 X67.246 Y66.519 E2.9232
G1 X67.257 Y66.505 E2.924
G1 X67.415 Y66.304 E2.9346
G1 X67.426 Y66.29 E2.9354
G1 X67.843 Y65.809 E2.9618
G1 X67.855 Y65.796 E2.9626
G1 X68.032 Y65.611 E2.9732
G1 X68.045 Y65.598 E2.9739
G1 X68.394 Y65.956 F9000
G92 E0
G1 X68.846 Y65.525 E0.026 F838
G1 X68.85 Y65.521 E0.0262
G1 X69.035 Y65.361 E0.0364
G1 X69.039 Y65.357 E0.0366
G1 X69.53 Y64.971 E0.0626
G1 X69.535 Y64.967 E0.0628
G1 X69.734 Y64.826 E0.073
G1 X69.739 Y64.823 E0.0732
G1 X70.264 Y64.485 E0.0992
G1 X70.269 Y64.482 E0.0994
G1 X70.481 Y64.36 E0.1096
G1 X70.486 Y64.357 E0.1098
G1 X71.041 Y64.071 E0.1358
G1 X71.046 Y64.068 E0.136
G1 X71.268 Y63.967 E0.1462
G1 X71.274 Y63.964 E0.1464
G1 X71.854 Y63.732 E0.1724
G1 X71.859 Y63.73 E0.1727
G1 X72.09 Y63.65 E0.1828
G1 X72.096 Y63.648 E0.183
G1 X72.695 Y63.472 E0.209
G1 X72.701 Y63.471 E0.2093
G1 X72.938 Y63.413 E0.2194
G1 X72.944 Y63.412 E0.2197
G1 X73.557 Y63.294 E0.2456
G1 X73.563 Y63.293 E0.2459
G1 X73.804 Y63.258 E0.256
G1 X73.81 Y63.258 E0.2563
G1 X74.432 Y63.198 E0.2822
G1 X74.438 Y63.198 E0.2825
G1 X74.682 Y63.186 E0.2926
G1 X74.688 Y63.186 E0.2929
G1 X75.312 Y63.186 E0.3188
G1 X75.318 Y63.186 E0.3191
G1 X75.562 Y63.198 E0.3292
G1 X75.568 Y63.198 E0.3295
G1 X76.19 Y63.258 E0.3555
G1 X76.196 Y63.258 E0.3557
G1 X76.437 Y63.293 E0.3658
G1 X76.443 Y63.294 E0.3661
G1 X77.056 Y63.412 E0.3921
G1 X77.062 Y63.413 E0.3923
G1 X77.299 Y63.471 E0.4024
G1 X77.305 Y63.472 E0.4027
G1 X77.904 Y63.648 E0.4287
G1 X77.91 Y63.65 E0.4289
G1 X78.141 Y63.73 E0.4391
G1 X78.146 Y63.732 E0.4393
G1 X78.726 Y63.964 E0.4653
G1 X78.732 Y63.967 E0.4655
G1 X78.953 Y64.068 E0.4757
G1 X78.959 Y64.071 E0.4759
G1 X79.514 Y64.357 E0.5019
G1 X79.519 Y64.36 E0.5021
G1 X79.731 Y64.482 E0.5123
G1 X79.736 Y64.485 E0.5125
G1 X80.261 Y64.823 E0.5385
G1 X80.266 Y64.826 E0.5387
G1 X80.465 Y64.967 E0.5489
G1 X80.47 Y64.971 E0.5491
G1 X80.961 Y65.357 E0.5751
G1 X80.965 Y65.361 E0.5754
G1 X81.15 Y65.521 E0.5855
G1 X81.154 Y65.525 E0.5857
G1 X81.606 Y65.956 E0.6117
G1 X81.61 Y65.96 E0.6119
G1 X81.779 Y66.136 E0.6221
G1 X81.783 Y66.141 E0.6223
G1 X82.192 Y66.613 E0.6483
G1 X82.196 Y66.618 E0.6486
G1 X82.346 Y66.809 E0.6587
G1 X82.35 Y66.814 E0.659
G1 X82.712 Y67.323 E0.6849
G1 X82.716 Y67.328 E0.6852
G1 X82.847 Y67.533 E0.6953
G1 X82.851 Y67.538 E0.6956
G1 X83.163 Y68.079 E0.7215
G1 X83.166 Y68.084 E0.7218
G1 X83.278 Y68.301 E0.7319
G1 X83.28 Y68.307 E0.7322
G1 X83.54 Y68.875 E0.7581
G1 X83.542 Y68.88 E0.7584
G1 X83.633 Y69.107 E0.7685
G1 X83.635 Y69.112 E0.7688
G1 X83.839 Y69.703 E0.7948
G1 X83.841 Y69.708 E0.795
G1 X83.91 Y69.942 E0.8051
G1 X83.911 Y69.948 E0.8054
G1 X84.058 Y70.555 E0.8314
G1 X84.06 Y70.561 E0.8316
G1 X84.106 Y70.801 E0.8418
G1 X84.107 Y70.807 E0.842
G1 X84.196 Y71.425 E0.868
G1 X84.197 Y71.431 E0.8682
G1 X84.22 Y71.674 E0.8784
G1 X84.22 Y71.68 E0.8786
G1 X84.247 Y72.242 E0.902
G1 X84.247 Y72.245 E0.9022
G1 X84.25 Y72.367 E0.9072
G1 X84.25 Y72.37 E0.9074
G1 X84.25 Y77.63 E1.126
G1 X84.25 Y77.633 E1.1261
G1 X84.247 Y77.755 E1.1312
G1 X84.247 Y77.758 E1.1313
G1 X84.22 Y78.32 E1.1548
G1 X84.22 Y78.326 E1.155
G1 X84.197 Y78.569 E1.1652
G1 X84.196 Y78.575 E1.1654
G1 X84.107 Y79.193 E1.1914
G1 X84.106 Y79.199 E1.1916
G1 X84.06 Y79.439 E1.2018
G1 X84.058 Y79.445 E1.202
G1 X83.911 Y80.052 E1.228
G1 X83.91 Y80.058 E1.2282
G1 X83.841 Y80.292 E1.2384
G1 X83.839 Y80.297 E1.2386
G1 X83.635 Y80.888 E1.2646
G1 X83.633 Y80.893 E1.2648
G1 X83.542 Y81.12 E1.275
G1 X83.54 Y81.125 E1.2752
G1 X83.28 Y81.693 E1.3012
G1 X83.278 Y81.699 E1.3015
G1 X83.166 Y81.916 E1.3116
G1 X83.163 Y81.921 E1.3118
G1 X82.851 Y82.462 E1.3378
G1 X82.848 Y82.467 E1.3381
G1 X82.716 Y82.672 E1.3482
G1 X82.712 Y82.677 E1.3484
G1 X82.35 Y83.186 E1.3744
G1 X82.346 Y83.191 E1.3747
G1 X82.196 Y83.382 E1.3848
G1 X82.192 Y83.387 E1.3851
G1 X81.783 Y83.859 E1.411
G1 X81.779 Y83.864 E1.4113
G1 X81.61 Y84.04 E1.4214
G1 X81.606 Y84.044 E1.4217
G1 X81.154 Y84.475 E1.4476
G1 X81.15 Y84.479 E1.4479
G1 X80.965 Y84.639 E1.458
G1 X80.961 Y84.643 E1.4583
G1 X80.47 Y85.029 E1.4842
G1 X80.465 Y85.033 E1.4845
G1 X80.266 Y85.174 E1.4946
G1 X80.261 Y85.177 E1.4949
G1 X79.736 Y85.515 E1.5209
G1 X79.731 Y85.518 E1.5211
G1 X79.519 Y85.64 E1.5312
G1 X79.514 Y85.643 E1.5315
G1 X78.959 Y85.929 E1.5575
G1 X78.954 Y85.932 E1.5577
G1 X78.732 Y86.033 E1.5678
G1 X78.726 Y86.036 E1.5681
G1 X78.146 Y86.268 E1.5941
G1 X78.141 Y86.27 E1.5943
G1 X77.91 Y86.35 E1.6045
G1 X77.904 Y86.352 E1.6047
G1 X77.305 Y86.528 E1.6307
G1 X77.299 Y86.529 E1.6309
G1 X77.062 Y86.587 E1.6411
G1 X77.056 Y86.588 E1.6413
G1 X76.443 Y86.706 E1.6673
G1 X76.437 Y86.707 E1.6675
