; G-Code generated by Simplify3D(R) Version 2.2.2
; Apr 6, 2015 at 4:03:15 
; Settings Summary
;   processName,NEO
;   applyToModels,002 carcasalcddel
;   profileLabel,Robotica.fff
;   printMaterial,PLA
;   printQuality,High
;   extruderName,Primary Extruder
;   extruderToolheadNumber,0
;   extruderDiameter,0.5
;   extruderAutoWidth,0
;   extruderWidth,0.5
;   extrusionMultiplier,1
;   extruderUseRetract,1
;   extruderRetractionDistance,5
;   extruderExtraRestartDistance,0
;   extruderRetractionZLift,0
;   extruderRetractionSpeed,4998
;   extruderUseCoasting,0
;   extruderCoastingDistance,0.2
;   extruderUseWipe,0
;   extruderWipeDistance,5
;   primaryExtruder,0
;   layerHeight,0.2
;   topSolidLayers,6
;   bottomSolidLayers,6
;   perimeterOutlines,2
;   printPerimetersInsideOut,1
;   startPointOption,2
;   startPointOriginX,0
;   startPointOriginY,0
;   startPointOriginZ,300
;   sequentialIslands,0
;   spiralVaseMode,0
;   firstLayerHeightPercentage,100
;   firstLayerWidthPercentage,100
;   firstLayerUnderspeed,0.5
;   useRaft,0
;   raftExtruder,0
;   raftLayers,3
;   raftOffset,3
;   raftSeparationDistance,0.1
;   raftInfill,85
;   disableRaftBaseLayers,0
;   useSkirt,1
;   skirtExtruder,0
;   skirtLayers,1
;   skirtOutlines,2
;   skirtOffset,5
;   infillExtruder,0
;   externalInfillPattern,Rectilinear
;   infillPercentage,15
;   outlineOverlapPercentage,15
;   infillExtrusionWidthPercentage,100
;   minInfillLength,3
;   infillLayerInterval,1
;   randomInfillStartPoint,0
;   infillAngles,45,-45
;   generateSupport,1
;   supportExtruder,0
;   supportInfill,20
;   supportExtraInflation,0
;   denseSupportLayers,0
;   denseSupportInfill,50
;   supportLayerInterval,1
;   supportHorizontalPartOffset,0.6
;   supportUpperSeparationLayers,1
;   supportLowerSeparationLayers,1
;   supportGridSpacing,1.5
;   maxOverhangAngle,45
;   supportAngles,45
;   temperatureName,Primary Extruder
;   temperatureNumber,0
;   temperatureSetpointCount,1
;   temperatureSetpointLayers,1
;   temperatureSetpointTemperatures,190
;   temperatureStabilizeAtStartup,1
;   temperatureHeatedBed,0
;   temperatureRelayBetweenLayers,0
;   temperatureRelayBetweenLoops,0
;   fanLayers,1,3
;   fanSpeeds,0,100
;   blipFanToFullPower,0
;   adjustSpeedForCooling,1
;   minSpeedLayerTime,15
;   minCoolingSpeedSlowdown,20
;   increaseFanForCooling,0
;   minFanLayerTime,45
;   maxCoolingFanSpeed,100
;   increaseFanForBridging,0
;   bridgingFanSpeed,100
;   use5D,1
;   relativeEdistances,0
;   allowEaxisZeroing,1
;   independentExtruderAxes,0
;   includeM10123,0
;   stickySupport,1
;   detectArcs,0
;   arcReplaceG2G3,0
;   arcRadialCompensation,1
;   gcodeXoffset,0
;   gcodeYoffset,0
;   gcodeZoffset,0
;   overrideMachineDefinition,1
;   machineTypeOverride,0
;   strokeXoverride,150
;   strokeYoverride,150
;   strokeZoverride,150
;   originOffsetXoverride,0
;   originOffsetYoverride,0
;   originOffsetZoverride,0
;   homeXdirOverride,-1
;   homeYdirOverride,-1
;   homeZdirOverride,-1
;   flipXoverride,1
;   flipYoverride,-1
;   flipZoverride,1
;   startingGcode,G28 ; home all axes
;   layerChangeGcode,
;   toolChangeGcode,
;   endingGcode,M104 S0 ; turn off extruder,G28 X0  ; home X axis,G28 Y0  ; home Y axis,M84 ; disable motors
;   createX3G,0
;   celebration,0
;   celebrationSong,Random Song
;   createMB5G,0
;   postProcessing,
;   defaultSpeed,1800
;   outlineUnderspeed,0.5
;   solidInfillUnderspeed,0.8
;   supportUnderspeed,1
;   rapidXYspeed,9000
;   rapidZspeed,1200
;   minBridgingArea,50
;   bridgingExtrusionMultiplier,1
;   bridgingSpeedMultiplier,1
;   filamentDiameter,1.75
;   filamentPricePerKg,34.6
;   useMinPrintHeight,0
;   minPrintHeight,0
;   useMaxPrintHeight,0
;   maxPrintHeight,0
;   useDiaphragm,0
;   diaphragmLayerInterval,20
;   robustSlicing,1
;   mergeAllIntoSolid,0
;   onlyRetractWhenCrossingOutline,1
;   retractBetweenLayers,1
;   useRetractionMinTravel,0
;   retractionMinTravel,3
;   useRetractionOozeRate,0
;   retractionOozeRate,100
;   onlyWipeOutlines,1
;   toolChangeRetractionDistance,12
;   toolChangeExtraRestartDistance,-0.5
;   toolChangeRetractionSpeed,600
;   allowThinWallGapFill,1
;   thinWallAllowedOverlapPercentage,10
;   horizontalSizeCompensation,0
G90
M82
M106 S0
M104 S190 T0
M109 S190 T0
G28 ; home all axes
G92 E0
G1 E-5 F4998
G1 Z0.2 F1200
; layer 1, Z = 0.2
T0
; tool H0.2 W0.5
G1 X20.952 Y25.939 F9000
G1 E0 F1499
G92 E0
G1 X20.987 Y25.914 E0.0017 F900
G1 X21.832 Y25.383 E0.0433
G1 X21.869 Y25.363 E0.045
G1 X22.413 Y25.101 E0.0701
G1 X22.451 Y25.085 E0.0719
G1 X23.394 Y24.755 E0.1134
G1 X23.434 Y24.744 E0.1151
G1 X24.023 Y24.609 E0.1402
G1 X24.064 Y24.602 E0.142
G1 X25.881 Y24.397 E0.2179
G1 X25.902 Y24.396 E0.2188
G1 X26.203 Y24.379 E0.2314
G1 X26.224 Y24.378 E0.2322
G1 X123.776 Y24.378 E4.288
G1 X123.797 Y24.379 E4.2889
G1 X124.098 Y24.396 E4.3014
G1 X124.119 Y24.397 E4.3023
G1 X125.936 Y24.602 E4.3783
G1 X125.977 Y24.609 E4.38
G1 X126.566 Y24.744 E4.4051
G1 X126.606 Y24.755 E4.4069
G1 X127.548 Y25.085 E4.4484
G1 X127.587 Y25.101 E4.4501
G1 X128.131 Y25.363 E4.4752
G1 X128.168 Y25.383 E4.477
G1 X129.013 Y25.914 E4.5185
G1 X129.048 Y25.939 E4.5202
G1 X129.52 Y26.315 E4.5453
G1 X129.551 Y26.343 E4.5471
G1 X130.257 Y27.049 E4.5886
G1 X130.285 Y27.08 E4.5903
G1 X130.661 Y27.552 E4.6154
G1 X130.686 Y27.587 E4.6172
G1 X131.217 Y28.432 E4.6587
G1 X131.237 Y28.469 E4.6604
G1 X131.499 Y29.013 E4.6855
G1 X131.515 Y29.051 E4.6873
G1 X131.845 Y29.994 E4.7288
G1 X131.856 Y30.034 E4.7305
G1 X131.991 Y30.623 E4.7556
G1 X131.998 Y30.664 E4.7574
G1 X132.111 Y31.67 E4.7995
G1 X132.113 Y31.691 E4.8003
G1 X132.13 Y31.992 E4.8129
G1 X132.13 Y32.013 E4.8137
G1 X132.13 Y117.987 E8.3881
G1 X132.13 Y118.008 E8.389
G1 X132.113 Y118.309 E8.4015
G1 X132.111 Y118.33 E8.4024
G1 X131.998 Y119.336 E8.4445
G1 X131.991 Y119.377 E8.4462
G1 X131.856 Y119.966 E8.4713
G1 X131.845 Y120.006 E8.4731
G1 X131.515 Y120.949 E8.5146
G1 X131.499 Y120.987 E8.5163
G1 X131.237 Y121.531 E8.5414
G1 X131.217 Y121.568 E8.5432
G1 X130.686 Y122.413 E8.5847
G1 X130.661 Y122.448 E8.5864
G1 X130.285 Y122.92 E8.6115
G1 X130.257 Y122.951 E8.6133
G1 X129.551 Y123.657 E8.6548
G1 X129.52 Y123.685 E8.6565
G1 X129.048 Y124.061 E8.6816
G1 X129.013 Y124.086 E8.6834
G1 X128.168 Y124.617 E8.7249
G1 X128.131 Y124.637 E8.7266
G1 X127.587 Y124.899 E8.7517
G1 X127.549 Y124.915 E8.7535
G1 X126.606 Y125.245 E8.795
G1 X126.566 Y125.256 E8.7967
G1 X125.977 Y125.391 E8.8218
G1 X125.936 Y125.398 E8.8236
G1 X124.93 Y125.511 E8.8657
G1 X124.909 Y125.513 E8.8665
G1 X124.608 Y125.53 E8.8791
G1 X124.587 Y125.53 E8.88
G1 X25.413 Y125.53 E13.0031
G1 X25.392 Y125.53 E13.004
G1 X25.091 Y125.513 E13.0165
G1 X25.07 Y125.511 E13.0174
G1 X24.064 Y125.398 E13.0595
G1 X24.023 Y125.391 E13.0612
G1 X23.434 Y125.256 E13.0863
G1 X23.394 Y125.245 E13.0881
G1 X22.451 Y124.915 E13.1296
G1 X22.413 Y124.899 E13.1313
G1 X21.869 Y124.637 E13.1564
G1 X21.832 Y124.617 E13.1582
G1 X20.987 Y124.086 E13.1997
G1 X20.952 Y124.061 E13.2014
G1 X20.48 Y123.685 E13.2265
G1 X20.449 Y123.657 E13.2283
G1 X19.743 Y122.951 E13.2698
G1 X19.715 Y122.92 E13.2715
G1 X19.339 Y122.448 E13.2966
G1 X19.314 Y122.413 E13.2984
G1 X18.783 Y121.568 E13.3399
G1 X18.763 Y121.531 E13.3416
G1 X18.501 Y120.987 E13.3667
G1 X18.485 Y120.948 E13.3685
G1 X18.155 Y120.006 E13.41
G1 X18.143 Y119.966 E13.4117
G1 X18.009 Y119.377 E13.4368
G1 X18.002 Y119.336 E13.4386
G1 X17.889 Y118.33 E13.4807
G1 X17.887 Y118.309 E13.4815
G1 X17.87 Y118.008 E13.4941
G1 X17.87 Y117.987 E13.4949
G1 X17.87 Y32.013 E17.0693
G1 X17.87 Y31.992 E17.0702
G1 X17.887 Y31.691 E17.0827
G1 X17.889 Y31.67 E17.0836
G1 X18.002 Y30.664 E17.1257
G1 X18.009 Y30.623 E17.1274
G1 X18.143 Y30.034 E17.1525
G1 X18.155 Y29.994 E17.1543
G1 X18.485 Y29.051 E17.1958
G1 X18.501 Y29.013 E17.1975
G1 X18.763 Y28.469 E17.2226
G1 X18.783 Y28.432 E17.2244
G1 X19.314 Y27.587 E17.2659
G1 X19.339 Y27.552 E17.2676
G1 X19.715 Y27.08 E17.2927
G1 X19.743 Y27.049 E17.2945
G1 X20.449 Y26.343 E17.336
G1 X20.48 Y26.315 E17.3377
G1 X20.952 Y25.939 E17.3628
G1 X21.253 Y26.338 F9000
G92 E0
G1 X21.265 Y26.33 E0.0006 F900
G1 X22.086 Y25.814 E0.0409
G1 X22.098 Y25.807 E0.0415
G1 X22.617 Y25.558 E0.0654
G1 X22.63 Y25.552 E0.066
G1 X23.546 Y25.232 E0.1064
G1 X23.559 Y25.228 E0.1069
G1 X24.12 Y25.1 E0.1309
G1 X24.134 Y25.097 E0.1315
G1 X25.93 Y24.895 E0.2066
G1 X25.937 Y24.895 E0.2069
G1 X26.224 Y24.878 E0.2188
G1 X26.231 Y24.878 E0.2191
G1 X123.769 Y24.878 E4.2743
G1 X123.776 Y24.878 E4.2746
G1 X124.063 Y24.895 E4.2865
G1 X124.07 Y24.895 E4.2868
G1 X125.866 Y25.097 E4.362
G1 X125.88 Y25.1 E4.3625
G1 X126.441 Y25.228 E4.3865
G1 X126.454 Y25.232 E4.387
G1 X127.37 Y25.552 E4.4274
G1 X127.383 Y25.558 E4.428
G1 X127.902 Y25.807 E4.4519
G1 X127.914 Y25.814 E4.4525
G1 X128.735 Y26.33 E4.4928
G1 X128.747 Y26.338 E4.4934
G1 X129.197 Y26.697 E4.5173
G1 X129.207 Y26.707 E4.5179
G1 X129.893 Y27.393 E4.5583
G1 X129.903 Y27.403 E4.5588
G1 X130.262 Y27.853 E4.5828
G1 X130.27 Y27.865 E4.5833
G1 X130.786 Y28.686 E4.6237
G1 X130.793 Y28.698 E4.6243
G1 X131.042 Y29.217 E4.6482
G1 X131.048 Y29.23 E4.6488
G1 X131.368 Y30.146 E4.6891
G1 X131.372 Y30.159 E4.6897
G1 X131.5 Y30.72 E4.7136
G1 X131.503 Y30.734 E4.7142
G1 X131.614 Y31.719 E4.7554
G1 X131.614 Y31.726 E4.7557
G1 X131.63 Y32.013 E4.7677
G1 X131.63 Y32.02 E4.768
G1 X131.63 Y117.98 E8.3417
G1 X131.63 Y117.987 E8.342
G1 X131.614 Y118.274 E8.354
G1 X131.614 Y118.281 E8.3543
G1 X131.503 Y119.266 E8.3955
G1 X131.5 Y119.28 E8.3961
G1 X131.372 Y119.841 E8.42
G1 X131.368 Y119.854 E8.4206
G1 X131.048 Y120.77 E8.4609
G1 X131.042 Y120.783 E8.4615
G1 X130.793 Y121.302 E8.4854
G1 X130.786 Y121.314 E8.486
G1 X130.27 Y122.135 E8.5264
G1 X130.262 Y122.147 E8.5269
G1 X129.903 Y122.597 E8.5509
G1 X129.893 Y122.607 E8.5515
G1 X129.207 Y123.293 E8.5918
G1 X129.197 Y123.303 E8.5924
G1 X128.747 Y123.662 E8.6163
G1 X128.735 Y123.67 E8.6169
G1 X127.914 Y124.186 E8.6572
G1 X127.902 Y124.193 E8.6578
G1 X127.383 Y124.442 E8.6817
G1 X127.37 Y124.448 E8.6823
G1 X126.454 Y124.768 E8.7227
G1 X126.441 Y124.772 E8.7232
G1 X125.88 Y124.9 E8.7472
G1 X125.866 Y124.903 E8.7478
G1 X124.881 Y125.014 E8.789
G1 X124.874 Y125.014 E8.7893
G1 X124.587 Y125.03 E8.8012
G1 X124.58 Y125.03 E8.8015
G1 X25.42 Y125.03 E12.9241
G1 X25.413 Y125.03 E12.9244
G1 X25.126 Y125.014 E12.9363
G1 X25.119 Y125.014 E12.9366
G1 X24.134 Y124.903 E12.9778
G1 X24.12 Y124.9 E12.9784
G1 X23.559 Y124.772 E13.0023
G1 X23.546 Y124.768 E13.0029
G1 X22.63 Y124.448 E13.0433
G1 X22.617 Y124.442 E13.0438
G1 X22.098 Y124.193 E13.0678
G1 X22.086 Y124.186 E13.0684
G1 X21.265 Y123.67 E13.1087
G1 X21.253 Y123.662 E13.1093
G1 X20.803 Y123.303 E13.1332
G1 X20.793 Y123.293 E13.1338
G1 X20.107 Y122.607 E13.1741
G1 X20.097 Y122.597 E13.1747
G1 X19.738 Y122.147 E13.1986
G1 X19.73 Y122.135 E13.1992
G1 X19.214 Y121.314 E13.2396
G1 X19.207 Y121.302 E13.2401
G1 X18.958 Y120.783 E13.2641
G1 X18.952 Y120.77 E13.2647
G1 X18.632 Y119.854 E13.305
G1 X18.628 Y119.841 E13.3056
G1 X18.5 Y119.28 E13.3295
G1 X18.497 Y119.266 E13.3301
G1 X18.386 Y118.281 E13.3713
G1 X18.386 Y118.274 E13.3716
G1 X18.37 Y117.987 E13.3836
G1 X18.37 Y117.98 E13.3838
G1 X18.37 Y32.02 E16.9576
G1 X18.37 Y32.013 E16.9579
G1 X18.386 Y31.726 E16.9699
G1 X18.386 Y31.719 E16.9702
G1 X18.497 Y30.734 E17.0114
G1 X18.5 Y30.72 E17.012
G1 X18.628 Y30.159 E17.0359
G1 X18.632 Y30.146 E17.0365
G1 X18.952 Y29.23 E17.0768
G1 X18.958 Y29.217 E17.0774
G1 X19.207 Y28.698 E17.1013
G1 X19.214 Y28.686 E17.1019
G1 X19.73 Y27.865 E17.1422
G1 X19.738 Y27.853 E17.1428
G1 X20.097 Y27.403 E17.1668
G1 X20.107 Y27.393 E17.1673
G1 X20.793 Y26.707 E17.2077
G1 X20.803 Y26.697 E17.2083
G1 X21.253 Y26.338 E17.2322
G92 E0
G1 E-5 F4998
G1 X24.772 Y31.212 F9000
G1 E0 F4998
G92 E0
G1 X24.963 Y31.093 E0.0094 F675
G1 X25.176 Y31.018 E0.0188
G1 X26.417 Y30.878 E0.0707
G1 X123.583 Y30.878 E4.1104
G1 X124.824 Y31.018 E4.1623
G1 X125.037 Y31.092 E4.1717
G1 X125.228 Y31.213 E4.1811
G1 X125.387 Y31.372 E4.1904
G1 X125.507 Y31.563 E4.1998
G1 X125.582 Y31.776 E4.2092
G1 X125.63 Y32.206 E4.2272
G1 X125.63 Y117.794 E7.7855
G1 X125.582 Y118.224 E7.8035
G1 X125.507 Y118.437 E7.8129
G1 X125.387 Y118.628 E7.8223
G1 X125.228 Y118.787 E7.8316
G1 X125.037 Y118.907 E7.841
G1 X124.824 Y118.982 E7.8504
G1 X124.394 Y119.03 E7.8684
G1 X25.606 Y119.03 E11.9755
G1 X25.176 Y118.982 E11.9935
G1 X24.963 Y118.907 E12.0029
G1 X24.772 Y118.787 E12.0123
G1 X24.612 Y118.628 E12.0217
G1 X24.492 Y118.437 E12.031
G1 X24.418 Y118.224 E12.0404
G1 X24.37 Y117.794 E12.0584
G1 X24.37 Y32.206 E15.6167
G1 X24.418 Y31.776 E15.6347
G1 X24.492 Y31.563 E15.6441
G1 X24.612 Y31.372 E15.6535
G1 X24.772 Y31.212 E15.6629
G1 X24.458 Y30.819 F9000
G92 E0
G1 X24.745 Y30.639 E0.0141 F450
G1 X25.064 Y30.527 E0.0281
G1 X26.389 Y30.378 E0.0835
G1 X123.611 Y30.378 E4.1256
G1 X124.936 Y30.527 E4.181
G1 X125.255 Y30.639 E4.1951
G1 X125.542 Y30.819 E4.2091
G1 X125.781 Y31.058 E4.2232
G1 X125.961 Y31.345 E4.2373
G1 X126.073 Y31.664 E4.2513
G1 X126.13 Y32.178 E4.2728
G1 X126.13 Y117.822 E7.8335
G1 X126.073 Y118.336 E7.855
G1 X125.961 Y118.655 E7.8691
G1 X125.781 Y118.942 E7.8831
G1 X125.542 Y119.181 E7.8972
G1 X125.255 Y119.361 E7.9113
G1 X124.936 Y119.473 E7.9253
G1 X124.422 Y119.53 E7.9468
G1 X25.578 Y119.53 E12.0563
G1 X25.064 Y119.473 E12.0778
G1 X24.745 Y119.361 E12.0919
G1 X24.458 Y119.181 E12.1059
G1 X24.219 Y118.942 E12.12
G1 X24.039 Y118.655 E12.134
G1 X23.927 Y118.336 E12.1481
G1 X23.87 Y117.822 E12.1696
G1 X23.87 Y32.178 E15.7303
G1 X23.927 Y31.664 E15.7518
G1 X24.039 Y31.345 E15.7658
G1 X24.219 Y31.058 E15.7799
G1 X24.458 Y30.819 E15.794
G1 X34.531 Y37.222 F9000
G92 E0
G1 X34.056 Y38.369 E0.0516 F675
G1 X33.894 Y39.6 E0.1032
G1 X34.056 Y40.831 E0.1549
G1 X34.531 Y41.978 E0.2065
G1 X35.287 Y42.963 E0.2581
G1 X36.272 Y43.719 E0.3097
G1 X37.419 Y44.194 E0.3614
G1 X38.65 Y44.356 E0.413
G1 X39.881 Y44.194 E0.4646
G1 X41.028 Y43.719 E0.5162
G1 X42.013 Y42.963 E0.5679
G1 X42.769 Y41.978 E0.6195
G1 X43.244 Y40.831 E0.6711
G1 X43.406 Y39.6 E0.7227
G1 X43.244 Y38.369 E0.7744
G1 X42.769 Y37.222 E0.826
G1 X42.013 Y36.237 E0.8776
G1 X41.028 Y35.481 E0.9292
G1 X39.881 Y35.006 E0.9808
G1 X38.65 Y34.844 E1.0325
G1 X37.419 Y35.006 E1.0841
G1 X36.272 Y35.481 E1.1357
G1 X35.287 Y36.237 E1.1873
G1 X34.531 Y37.222 E1.239
G1 X34.967 Y37.474 F9000
G92 E0
G1 X34.543 Y38.499 E0.0462 F450
G1 X34.398 Y39.6 E0.0923
G1 X34.543 Y40.701 E0.1385
G1 X34.968 Y41.726 E0.1846
G1 X35.643 Y42.607 E0.2307
G1 X36.524 Y43.282 E0.2769
G1 X37.549 Y43.707 E0.3231
G1 X38.65 Y43.852 E0.3692
G1 X39.751 Y43.707 E0.4153
G1 X40.776 Y43.282 E0.4615
G1 X41.657 Y42.607 E0.5076
G1 X42.332 Y41.726 E0.5538
G1 X42.757 Y40.701 E0.5999
G1 X42.902 Y39.6 E0.6461
G1 X42.757 Y38.499 E0.6922
G1 X42.332 Y37.474 E0.7384
G1 X41.657 Y36.593 E0.7845
G1 X40.776 Y35.918 E0.8307
G1 X39.751 Y35.493 E0.8768
G1 X38.65 Y35.348 E0.923
G1 X37.549 Y35.493 E0.9691
G1 X36.524 Y35.918 E1.0153
G1 X35.643 Y36.593 E1.0614
G1 X34.968 Y37.474 E1.1076
G92 E0
G1 E-5 F4998
G1 X52.048 Y39.088 F9000
G1 E0 F4998
G92 E0
G1 X51.873 Y39.512 E0.0191 F675
G1 X51.813 Y39.966 E0.0381
G1 X51.873 Y40.421 E0.0572
G1 X52.048 Y40.844 E0.0763
G1 X52.327 Y41.208 E0.0953
G1 X52.691 Y41.487 E0.1144
G1 X53.115 Y41.663 E0.1334
G1 X53.569 Y41.723 E0.1525
G1 X54.242 Y41.634 E0.1807
G1 X54.154 Y42.307 E0.2089
G1 X54.213 Y42.761 E0.228
G1 X54.389 Y43.185 E0.2471
G1 X54.668 Y43.549 E0.2661
G1 X55.032 Y43.828 E0.2852
G1 X55.455 Y44.003 E0.3042
G1 X55.91 Y44.063 E0.3233
G1 X56.365 Y44.003 E0.3424
G1 X56.788 Y43.828 E0.3614
G1 X57.152 Y43.549 E0.3805
G1 X57.431 Y43.185 E0.3996
G1 X57.607 Y42.761 E0.4186
G1 X57.666 Y42.307 E0.4377
G1 X57.578 Y41.634 E0.4659
G1 X58.251 Y41.723 E0.4941
G1 X58.705 Y41.663 E0.5132
G1 X59.129 Y41.487 E0.5322
G1 X59.493 Y41.208 E0.5513
G1 X59.772 Y40.844 E0.5704
G1 X59.947 Y40.421 E0.5894
G1 X60.007 Y39.966 E0.6085
G1 X59.947 Y39.512 E0.6275
G1 X59.772 Y39.088 E0.6466
G1 X59.493 Y38.724 E0.6657
G1 X59.129 Y38.445 E0.6847
G1 X58.705 Y38.27 E0.7038
G1 X58.251 Y38.21 E0.7229
G1 X57.578 Y38.298 E0.7511
G1 X57.666 Y37.626 E0.7793
G1 X57.607 Y37.171 E0.7983
G1 X57.431 Y36.747 E0.8174
