; G-Code generated by Simplify3D(R) Version 2.2.2
; Apr 6, 2015 at 4:03:33 
; Settings Summary
;   processName,NEO
;   applyToModels,003 carcasalcdtras
;   profileLabel,Robotica.fff
;   printMaterial,PLA
;   printQuality,High
;   extruderName,Primary Extruder
;   extruderToolheadNumber,0
;   extruderDiameter,0.5
;   extruderAutoWidth,0
;   extruderWidth,0.5
;   extrusionMultiplier,1
;   extruderUseRetract,1
;   extruderRetractionDistance,5
;   extruderExtraRestartDistance,0
;   extruderRetractionZLift,0
;   extruderRetractionSpeed,4998
;   extruderUseCoasting,0
;   extruderCoastingDistance,0.2
;   extruderUseWipe,0
;   extruderWipeDistance,5
;   primaryExtruder,0
;   layerHeight,0.2
;   topSolidLayers,6
;   bottomSolidLayers,6
;   perimeterOutlines,2
;   printPerimetersInsideOut,1
;   startPointOption,2
;   startPointOriginX,0
;   startPointOriginY,0
;   startPointOriginZ,300
;   sequentialIslands,0
;   spiralVaseMode,0
;   firstLayerHeightPercentage,100
;   firstLayerWidthPercentage,100
;   firstLayerUnderspeed,0.5
;   useRaft,0
;   raftExtruder,0
;   raftLayers,3
;   raftOffset,3
;   raftSeparationDistance,0.1
;   raftInfill,85
;   disableRaftBaseLayers,0
;   useSkirt,1
;   skirtExtruder,0
;   skirtLayers,1
;   skirtOutlines,2
;   skirtOffset,5
;   infillExtruder,0
;   externalInfillPattern,Rectilinear
;   infillPercentage,15
;   outlineOverlapPercentage,15
;   infillExtrusionWidthPercentage,100
;   minInfillLength,3
;   infillLayerInterval,1
;   randomInfillStartPoint,0
;   infillAngles,45,-45
;   generateSupport,1
;   supportExtruder,0
;   supportInfill,20
;   supportExtraInflation,0
;   denseSupportLayers,0
;   denseSupportInfill,50
;   supportLayerInterval,1
;   supportHorizontalPartOffset,0.6
;   supportUpperSeparationLayers,1
;   supportLowerSeparationLayers,1
;   supportGridSpacing,1.5
;   maxOverhangAngle,45
;   supportAngles,45
;   temperatureName,Primary Extruder
;   temperatureNumber,0
;   temperatureSetpointCount,1
;   temperatureSetpointLayers,1
;   temperatureSetpointTemperatures,190
;   temperatureStabilizeAtStartup,1
;   temperatureHeatedBed,0
;   temperatureRelayBetweenLayers,0
;   temperatureRelayBetweenLoops,0
;   fanLayers,1,3
;   fanSpeeds,0,100
;   blipFanToFullPower,0
;   adjustSpeedForCooling,1
;   minSpeedLayerTime,15
;   minCoolingSpeedSlowdown,20
;   increaseFanForCooling,0
;   minFanLayerTime,45
;   maxCoolingFanSpeed,100
;   increaseFanForBridging,0
;   bridgingFanSpeed,100
;   use5D,1
;   relativeEdistances,0
;   allowEaxisZeroing,1
;   independentExtruderAxes,0
;   includeM10123,0
;   stickySupport,1
;   detectArcs,0
;   arcReplaceG2G3,0
;   arcRadialCompensation,1
;   gcodeXoffset,0
;   gcodeYoffset,0
;   gcodeZoffset,0
;   overrideMachineDefinition,1
;   machineTypeOverride,0
;   strokeXoverride,150
;   strokeYoverride,150
;   strokeZoverride,150
;   originOffsetXoverride,0
;   originOffsetYoverride,0
;   originOffsetZoverride,0
;   homeXdirOverride,-1
;   homeYdirOverride,-1
;   homeZdirOverride,-1
;   flipXoverride,1
;   flipYoverride,-1
;   flipZoverride,1
;   startingGcode,G28 ; home all axes
;   layerChangeGcode,
;   toolChangeGcode,
;   endingGcode,M104 S0 ; turn off extruder,G28 X0  ; home X axis,G28 Y0  ; home Y axis,M84 ; disable motors
;   createX3G,0
;   celebration,0
;   celebrationSong,Random Song
;   createMB5G,0
;   postProcessing,
;   defaultSpeed,1800
;   outlineUnderspeed,0.5
;   solidInfillUnderspeed,0.8
;   supportUnderspeed,1
;   rapidXYspeed,9000
;   rapidZspeed,1200
;   minBridgingArea,50
;   bridgingExtrusionMultiplier,1
;   bridgingSpeedMultiplier,1
;   filamentDiameter,1.75
;   filamentPricePerKg,34.6
;   useMinPrintHeight,0
;   minPrintHeight,0
;   useMaxPrintHeight,0
;   maxPrintHeight,0
;   useDiaphragm,0
;   diaphragmLayerInterval,20
;   robustSlicing,1
;   mergeAllIntoSolid,0
;   onlyRetractWhenCrossingOutline,1
;   retractBetweenLayers,1
;   useRetractionMinTravel,0
;   retractionMinTravel,3
;   useRetractionOozeRate,0
;   retractionOozeRate,100
;   onlyWipeOutlines,1
;   toolChangeRetractionDistance,12
;   toolChangeExtraRestartDistance,-0.5
;   toolChangeRetractionSpeed,600
;   allowThinWallGapFill,1
;   thinWallAllowedOverlapPercentage,10
;   horizontalSizeCompensation,0
G90
M82
M106 S0
M104 S190 T0
M109 S190 T0
G28 ; home all axes
G92 E0
G1 E-5 F4998
G1 Z0.2 F1200
; layer 1, Z = 0.2
T0
; tool H0.2 W0.5
G1 X19.121 Y23.642 F9000
G1 E0 F1499
G92 E0
G1 X19.155 Y23.617 E0.0018 F900
G1 X20.557 Y22.736 E0.0706
G1 X20.594 Y22.716 E0.0724
G1 X21.138 Y22.454 E0.0975
G1 X21.177 Y22.438 E0.0992
G1 X22.74 Y21.891 E0.1681
G1 X22.78 Y21.879 E0.1698
G1 X23.369 Y21.745 E0.1949
G1 X23.41 Y21.738 E0.1967
G1 X24.906 Y21.569 E0.2592
G1 X24.927 Y21.567 E0.2601
G1 X25.228 Y21.551 E0.2726
G1 X25.249 Y21.55 E0.2735
G1 X124.751 Y21.55 E4.4103
G1 X124.772 Y21.551 E4.4112
G1 X125.073 Y21.567 E4.4237
G1 X125.094 Y21.569 E4.4246
G1 X126.59 Y21.738 E4.4872
G1 X126.631 Y21.745 E4.4889
G1 X127.22 Y21.879 E4.514
G1 X127.26 Y21.891 E4.5158
G1 X128.823 Y22.438 E4.5846
G1 X128.862 Y22.454 E4.5864
G1 X129.406 Y22.716 E4.6115
G1 X129.443 Y22.736 E4.6132
G1 X130.845 Y23.617 E4.6821
G1 X130.879 Y23.642 E4.6838
G1 X131.351 Y24.018 E4.7089
G1 X131.383 Y24.046 E4.7107
G1 X132.554 Y25.217 E4.7795
G1 X132.582 Y25.248 E4.7813
G1 X132.958 Y25.72 E4.8064
G1 X132.983 Y25.755 E4.8081
G1 X133.864 Y27.157 E4.877
G1 X133.884 Y27.194 E4.8787
G1 X134.146 Y27.738 E4.9038
G1 X134.162 Y27.777 E4.9056
G1 X134.709 Y29.34 E4.9744
G1 X134.721 Y29.38 E4.9762
G1 X134.855 Y29.969 E5.0013
G1 X134.862 Y30.01 E5.003
G1 X135.031 Y31.506 E5.0656
G1 X135.032 Y31.527 E5.0665
G1 X135.049 Y31.828 E5.079
G1 X135.05 Y31.849 E5.0799
G1 X135.05 Y118.151 E8.6679
G1 X135.049 Y118.172 E8.6688
G1 X135.032 Y118.473 E8.6813
G1 X135.031 Y118.494 E8.6822
G1 X134.862 Y119.99 E8.7448
G1 X134.855 Y120.031 E8.7465
G1 X134.721 Y120.62 E8.7716
G1 X134.709 Y120.66 E8.7734
G1 X134.162 Y122.223 E8.8422
G1 X134.146 Y122.262 E8.844
G1 X133.884 Y122.806 E8.8691
G1 X133.864 Y122.843 E8.8708
G1 X132.983 Y124.245 E8.9397
G1 X132.958 Y124.279 E8.9414
G1 X132.582 Y124.751 E8.9665
G1 X132.554 Y124.783 E8.9683
G1 X131.383 Y125.954 E9.0371
G1 X131.351 Y125.982 E9.0389
G1 X130.879 Y126.358 E9.064
G1 X130.845 Y126.383 E9.0657
G1 X129.443 Y127.264 E9.1346
G1 X129.406 Y127.284 E9.1363
G1 X128.862 Y127.546 E9.1614
G1 X128.823 Y127.562 E9.1632
G1 X127.26 Y128.109 E9.232
G1 X127.22 Y128.121 E9.2338
G1 X126.631 Y128.255 E9.2589
G1 X126.59 Y128.262 E9.2606
G1 X125.094 Y128.431 E9.3232
G1 X125.073 Y128.433 E9.3241
G1 X124.772 Y128.449 E9.3366
G1 X124.751 Y128.45 E9.3375
G1 X25.249 Y128.45 E13.4743
G1 X25.228 Y128.449 E13.4752
G1 X24.927 Y128.433 E13.4877
G1 X24.906 Y128.431 E13.4886
G1 X23.41 Y128.262 E13.5511
G1 X23.369 Y128.255 E13.5529
G1 X22.78 Y128.121 E13.578
G1 X22.74 Y128.109 E13.5797
G1 X21.177 Y127.562 E13.6486
G1 X21.138 Y127.546 E13.6503
G1 X20.594 Y127.284 E13.6754
G1 X20.557 Y127.264 E13.6772
G1 X19.155 Y126.383 E13.746
G1 X19.121 Y126.358 E13.7478
G1 X18.648 Y125.982 E13.7729
G1 X18.617 Y125.954 E13.7746
G1 X17.446 Y124.783 E13.8435
G1 X17.418 Y124.751 E13.8453
G1 X17.042 Y124.279 E13.8703
G1 X17.017 Y124.245 E13.8721
G1 X16.136 Y122.843 E13.941
G1 X16.116 Y122.806 E13.9427
G1 X15.854 Y122.262 E13.9678
G1 X15.838 Y122.223 E13.9695
G1 X15.291 Y120.66 E14.0384
G1 X15.279 Y120.62 E14.0402
G1 X15.145 Y120.031 E14.0653
G1 X15.138 Y119.99 E14.067
G1 X14.969 Y118.494 E14.1296
G1 X14.967 Y118.473 E14.1305
G1 X14.951 Y118.172 E14.143
G1 X14.95 Y118.151 E14.1439
G1 X14.95 Y92.68 E15.2028
G1 X15.064 Y92.404 E15.2152
G1 X16.55 Y90.918 E15.3026
G1 X16.55 Y74.082 E16.0026
G1 X15.064 Y72.596 E16.0899
G1 X14.95 Y72.32 E16.1023
G1 X14.95 Y31.849 E17.7849
G1 X14.951 Y31.828 E17.7858
G1 X14.967 Y31.527 E17.7983
G1 X14.969 Y31.506 E17.7992
G1 X15.138 Y30.01 E17.8618
G1 X15.145 Y29.969 E17.8635
G1 X15.279 Y29.38 E17.8886
G1 X15.291 Y29.34 E17.8904
G1 X15.838 Y27.777 E17.9592
G1 X15.854 Y27.738 E17.961
G1 X16.116 Y27.194 E17.9861
G1 X16.136 Y27.157 E17.9878
G1 X17.017 Y25.755 E18.0567
G1 X17.042 Y25.72 E18.0585
G1 X17.418 Y25.249 E18.0835
G1 X17.446 Y25.217 E18.0853
G1 X18.617 Y24.046 E18.1541
G1 X18.649 Y24.018 E18.1559
G1 X19.121 Y23.642 E18.181
G1 X19.421 Y24.041 F9000
G92 E0
G1 X19.433 Y24.033 E0.0006 F900
G1 X20.811 Y23.167 E0.0683
G1 X20.824 Y23.16 E0.0689
G1 X21.342 Y22.91 E0.0928
G1 X21.355 Y22.905 E0.0934
G1 X22.892 Y22.367 E0.1611
G1 X22.905 Y22.364 E0.1616
G1 X23.466 Y22.235 E0.1856
G1 X23.48 Y22.233 E0.1862
G1 X24.955 Y22.067 E0.2479
G1 X24.962 Y22.066 E0.2481
G1 X25.249 Y22.05 E0.2601
G1 X25.256 Y22.05 E0.2604
G1 X124.744 Y22.05 E4.3966
G1 X124.751 Y22.05 E4.3969
G1 X125.038 Y22.066 E4.4089
G1 X125.045 Y22.067 E4.4091
G1 X126.52 Y22.233 E4.4708
G1 X126.534 Y22.235 E4.4714
G1 X127.095 Y22.364 E4.4954
G1 X127.108 Y22.367 E4.4959
G1 X128.645 Y22.905 E4.5636
G1 X128.658 Y22.91 E4.5642
G1 X129.176 Y23.16 E4.5881
G1 X129.189 Y23.167 E4.5887
G1 X130.567 Y24.033 E4.6564
G1 X130.579 Y24.041 E4.657
G1 X131.029 Y24.4 E4.6809
G1 X131.039 Y24.41 E4.6815
G1 X132.19 Y25.561 E4.7492
G1 X132.2 Y25.571 E4.7498
G1 X132.559 Y26.021 E4.7737
G1 X132.567 Y26.033 E4.7743
G1 X133.433 Y27.411 E4.842
G1 X133.44 Y27.424 E4.8426
G1 X133.69 Y27.942 E4.8665
G1 X133.695 Y27.955 E4.8671
G1 X134.233 Y29.492 E4.9348
G1 X134.236 Y29.505 E4.9354
G1 X134.365 Y30.066 E4.9593
G1 X134.367 Y30.08 E4.9599
G1 X134.533 Y31.555 E5.0216
G1 X134.534 Y31.562 E5.0219
G1 X134.55 Y31.849 E5.0338
G1 X134.55 Y31.856 E5.0341
G1 X134.55 Y118.144 E8.6215
G1 X134.55 Y118.151 E8.6218
G1 X134.534 Y118.438 E8.6338
G1 X134.533 Y118.445 E8.6341
G1 X134.367 Y119.92 E8.6958
G1 X134.365 Y119.934 E8.6964
G1 X134.236 Y120.495 E8.7203
G1 X134.233 Y120.508 E8.7209
G1 X133.695 Y122.045 E8.7886
G1 X133.69 Y122.058 E8.7891
G1 X133.44 Y122.576 E8.8131
G1 X133.433 Y122.589 E8.8137
G1 X132.567 Y123.967 E8.8813
G1 X132.559 Y123.979 E8.8819
G1 X132.2 Y124.429 E8.9059
G1 X132.19 Y124.439 E8.9064
G1 X131.039 Y125.59 E8.9741
G1 X131.029 Y125.6 E8.9747
G1 X130.579 Y125.959 E8.9986
G1 X130.567 Y125.967 E8.9992
G1 X129.189 Y126.833 E9.0669
G1 X129.176 Y126.84 E9.0675
G1 X128.658 Y127.09 E9.0914
G1 X128.645 Y127.095 E9.092
G1 X127.108 Y127.633 E9.1597
G1 X127.095 Y127.636 E9.1603
G1 X126.534 Y127.765 E9.1842
G1 X126.52 Y127.767 E9.1848
G1 X125.045 Y127.933 E9.2465
G1 X125.038 Y127.934 E9.2468
G1 X124.751 Y127.95 E9.2587
G1 X124.744 Y127.95 E9.259
G1 X25.256 Y127.95 E13.3953
G1 X25.249 Y127.95 E13.3955
G1 X24.962 Y127.934 E13.4075
G1 X24.955 Y127.933 E13.4078
G1 X23.48 Y127.767 E13.4695
G1 X23.466 Y127.765 E13.4701
G1 X22.905 Y127.636 E13.494
G1 X22.892 Y127.633 E13.4946
G1 X21.355 Y127.095 E13.5623
G1 X21.342 Y127.09 E13.5629
G1 X20.824 Y126.84 E13.5868
G1 X20.811 Y126.833 E13.5874
G1 X19.433 Y125.967 E13.6551
G1 X19.421 Y125.959 E13.6556
G1 X18.971 Y125.6 E13.6796
G1 X18.961 Y125.59 E13.6802
G1 X17.81 Y124.439 E13.7479
G1 X17.8 Y124.429 E13.7484
G1 X17.441 Y123.979 E13.7724
G1 X17.433 Y123.967 E13.7729
G1 X16.567 Y122.589 E13.8406
G1 X16.56 Y122.576 E13.8412
G1 X16.31 Y122.058 E13.8652
G1 X16.305 Y122.045 E13.8657
G1 X15.767 Y120.508 E13.9334
G1 X15.763 Y120.495 E13.934
G1 X15.635 Y119.933 E13.9579
G1 X15.633 Y119.92 E13.9585
G1 X15.467 Y118.445 E14.0202
G1 X15.466 Y118.438 E14.0205
G1 X15.45 Y118.151 E14.0325
G1 X15.45 Y118.144 E14.0328
G1 X15.45 Y92.779 E15.0873
G1 X15.488 Y92.687 E15.0914
G1 X17.05 Y91.125 E15.1833
G1 X17.05 Y73.875 E15.9005
G1 X15.488 Y72.313 E15.9923
G1 X15.45 Y72.221 E15.9964
G1 X15.45 Y31.856 E17.6746
G1 X15.45 Y31.849 E17.6749
G1 X15.466 Y31.562 E17.6869
G1 X15.467 Y31.555 E17.6871
G1 X15.633 Y30.08 E17.7488
G1 X15.635 Y30.066 E17.7494
G1 X15.763 Y29.505 E17.7734
G1 X15.767 Y29.492 E17.7739
G1 X16.305 Y27.955 E17.8416
G1 X16.31 Y27.942 E17.8422
G1 X16.56 Y27.424 E17.8661
G1 X16.567 Y27.411 E17.8667
G1 X17.433 Y26.033 E17.9344
G1 X17.441 Y26.021 E17.935
G1 X17.8 Y25.571 E17.9589
G1 X17.81 Y25.561 E17.9595
G1 X18.961 Y24.41 E18.0272
G1 X18.971 Y24.4 E18.0278
G1 X19.421 Y24.041 E18.0517
G92 E0
G1 E-5 F4998
G1 X26.035 Y28.05 F9000
G1 E0 F4998
G92 E0
G1 X123.965 Y28.05 E4.0715 F675
G1 X123.99 Y28.424 E4.0871
G1 X123.654 Y28.468 E4.1012
G1 X122.772 Y28.833 E4.1409
G1 X122.014 Y29.414 E4.1805
G1 X121.433 Y30.172 E4.2202
G1 X121.068 Y31.054 E4.2599
G1 X120.944 Y32 E4.2996
G1 X121.068 Y32.946 E4.3393
G1 X121.433 Y33.828 E4.379
G1 X122.014 Y34.586 E4.4186
G1 X122.772 Y35.167 E4.4583
G1 X123.654 Y35.532 E4.498
G1 X124.6 Y35.656 E4.5377
G1 X125.546 Y35.532 E4.5774
G1 X126.428 Y35.167 E4.6171
G1 X127.186 Y34.586 E4.6568
G1 X127.767 Y33.828 E4.6964
G1 X128.132 Y32.946 E4.7361
G1 X128.176 Y32.61 E4.7502
G1 X128.55 Y32.635 E4.7658
G1 X128.55 Y117.403 E8.2901
G1 X128.181 Y117.432 E8.3055
G1 X128.11 Y116.975 E8.3247
G1 X127.729 Y116.108 E8.3641
G1 X127.138 Y115.368 E8.4034
G1 X126.378 Y114.805 E8.4428
G1 X125.498 Y114.456 E8.4821
G1 X124.559 Y114.344 E8.5215
G1 X123.622 Y114.477 E8.5608
G1 X122.75 Y114.846 E8.6002
G1 X121.955 Y115.464 E8.642
G1 X121.287 Y116.702 E8.7005
G1 X121.287 Y116.702 E8.7005
G1 X121.027 Y117.184 E8.7233
G1 X120.948 Y118.188 E8.7652
G1 X121.119 Y119.119 E8.8045
G1 X121.523 Y119.975 E8.8438
G1 X122.133 Y120.699 E8.8832
G1 X122.908 Y121.241 E8.9225
G1 X123.941 Y121.62 E8.9683
G1 X123.882 Y121.95 E8.9822
G1 X26.034 Y121.95 E13.0503
G1 X26.01 Y121.576 E13.0658
G1 X26.346 Y121.532 E13.0799
G1 X27.228 Y121.167 E13.1196
G1 X27.986 Y120.586 E13.1593
G1 X28.567 Y119.828 E13.199
G1 X28.932 Y118.946 E13.2387
G1 X29.056 Y118 E13.2784
G1 X28.932 Y117.054 E13.318
G1 X28.567 Y116.172 E13.3577
G1 X27.986 Y115.414 E13.3974
G1 X27.228 Y114.833 E13.4371
G1 X26.346 Y114.468 E13.4768
G1 X25.4 Y114.344 E13.5165
G1 X24.454 Y114.468 E13.5562
G1 X23.572 Y114.833 E13.5958
G1 X22.814 Y115.414 E13.6355
G1 X22.233 Y116.172 E13.6752
G1 X21.868 Y117.054 E13.7149
G1 X21.824 Y117.39 E13.729
G1 X21.45 Y117.365 E13.7446
G1 X21.45 Y95.65 E14.6474
G1 X23.05 Y95.65 E14.7139
G1 X23.05 Y69.35 E15.8073
G1 X21.45 Y69.35 E15.8739
G1 X21.45 Y32.634 E17.4003
G1 X21.824 Y32.61 E17.4159
G1 X21.868 Y32.946 E17.43
G1 X22.233 Y33.828 E17.4697
G1 X22.814 Y34.586 E17.5094
G1 X23.572 Y35.167 E17.5491
G1 X24.454 Y35.532 E17.5887
G1 X25.4 Y35.656 E17.6284
G1 X26.346 Y35.532 E17.6681
G1 X27.228 Y35.167 E17.7078
G1 X27.986 Y34.586 E17.7475
G1 X28.567 Y33.828 E17.7872
G1 X28.932 Y32.946 E17.8269
G1 X29.056 Y32 E17.8665
G1 X28.932 Y31.054 E17.9062
G1 X28.567 Y30.172 E17.9459
G1 X27.986 Y29.414 E17.9856
G1 X27.228 Y28.833 E18.0253
G1 X26.346 Y28.468 E18.065
G1 X26.01 Y28.424 E18.0791
G1 X26.035 Y28.05 E18.0946
G1 X22.626 Y28.522 F9000
G92 E0
G1 X23.47 Y27.992 E0.0414 F450
G1 X24.41 Y27.663 E0.0828
G1 X25.414 Y27.55 E0.1248
G1 X124.586 Y27.55 E4.2479
G1 X125.59 Y27.663 E4.2899
G1 X126.53 Y27.992 E4.3313
G1 X127.374 Y28.522 E4.3727
G1 X128.078 Y29.226 E4.4142
G1 X128.608 Y30.07 E4.4556
G1 X128.937 Y31.01 E4.497
G1 X129.05 Y32.014 E4.539
G1 X129.05 Y117.986 E8.1133
G1 X128.937 Y118.99 E8.1553
G1 X128.608 Y119.93 E8.1967
G1 X128.078 Y120.774 E8.2381
G1 X127.374 Y121.478 E8.2795
G1 X126.53 Y122.008 E8.3209
G1 X125.59 Y122.337 E8.3624
G1 X124.586 Y122.45 E8.4044
G1 X25.414 Y122.45 E12.5275
G1 X24.41 Y122.337 E12.5695
G1 X23.47 Y122.008 E12.6109
G1 X22.626 Y121.478 E12.6523
G1 X21.922 Y120.774 E12.6937
G1 X21.392 Y119.93 E12.7351
G1 X21.063 Y118.99 E12.7765
G1 X20.95 Y117.986 E12.8185
G1 X20.95 Y95.15 E13.7679
G1 X22.55 Y95.15 E13.8345
G1 X22.55 Y69.85 E14.8863
G1 X20.95 Y69.85 E14.9528
G1 X20.95 Y32.014 E16.5259
G1 X21.063 Y31.01 E16.5679
G1 X21.392 Y30.07 E16.6093
G1 X21.922 Y29.226 E16.6507
G1 X22.626 Y28.522 E16.6921
G1 X23.824 Y29.27 F9000
G92 E0
G1 X23.171 Y29.771 E0.0342 F450
G1 X22.67 Y30.424 E0.0684
G1 X22.355 Y31.184 E0.1026
G1 X22.248 Y32 E0.1368
G1 X22.355 Y32.816 E0.1711
G1 X22.67 Y33.576 E0.2053
G1 X23.171 Y34.229 E0.2395
G1 X23.824 Y34.73 E0.2737
G1 X24.584 Y35.045 E0.3079
G1 X25.4 Y35.152 E0.3421
G1 X26.216 Y35.045 E0.3763
G1 X26.976 Y34.73 E0.4105
G1 X27.629 Y34.229 E0.4447
G1 X28.13 Y33.576 E0.479
G1 X28.445 Y32.816 E0.5132
G1 X28.552 Y32 E0.5474
G1 X28.445 Y31.184 E0.5816
G1 X28.13 Y30.424 E0.6158
G1 X27.629 Y29.771 E0.65
