; G-Code generated by Simplify3D(R) Version 2.2.2
; Apr 6, 2015 at 4:05:34 
; Settings Summary
;   processName,NEO
;   applyToModels,006_idlermk4.png
;   profileLabel,Robotica.fff
;   printMaterial,PLA
;   printQuality,High
;   extruderName,Primary Extruder
;   extruderToolheadNumber,0
;   extruderDiameter,0.5
;   extruderAutoWidth,0
;   extruderWidth,0.5
;   extrusionMultiplier,1
;   extruderUseRetract,1
;   extruderRetractionDistance,5
;   extruderExtraRestartDistance,0
;   extruderRetractionZLift,0
;   extruderRetractionSpeed,4998
;   extruderUseCoasting,0
;   extruderCoastingDistance,0.2
;   extruderUseWipe,0
;   extruderWipeDistance,5
;   primaryExtruder,0
;   layerHeight,0.2
;   topSolidLayers,6
;   bottomSolidLayers,6
;   perimeterOutlines,2
;   printPerimetersInsideOut,1
;   startPointOption,2
;   startPointOriginX,0
;   startPointOriginY,0
;   startPointOriginZ,300
;   sequentialIslands,0
;   spiralVaseMode,0
;   firstLayerHeightPercentage,100
;   firstLayerWidthPercentage,100
;   firstLayerUnderspeed,0.5
;   useRaft,0
;   raftExtruder,0
;   raftLayers,3
;   raftOffset,3
;   raftSeparationDistance,0.1
;   raftInfill,85
;   disableRaftBaseLayers,0
;   useSkirt,1
;   skirtExtruder,0
;   skirtLayers,1
;   skirtOutlines,2
;   skirtOffset,5
;   infillExtruder,0
;   externalInfillPattern,Rectilinear
;   infillPercentage,15
;   outlineOverlapPercentage,15
;   infillExtrusionWidthPercentage,100
;   minInfillLength,3
;   infillLayerInterval,1
;   randomInfillStartPoint,0
;   infillAngles,45,-45
;   generateSupport,1
;   supportExtruder,0
;   supportInfill,20
;   supportExtraInflation,0
;   denseSupportLayers,0
;   denseSupportInfill,50
;   supportLayerInterval,1
;   supportHorizontalPartOffset,0.6
;   supportUpperSeparationLayers,1
;   supportLowerSeparationLayers,1
;   supportGridSpacing,1.5
;   maxOverhangAngle,45
;   supportAngles,45
;   temperatureName,Primary Extruder
;   temperatureNumber,0
;   temperatureSetpointCount,1
;   temperatureSetpointLayers,1
;   temperatureSetpointTemperatures,190
;   temperatureStabilizeAtStartup,1
;   temperatureHeatedBed,0
;   temperatureRelayBetweenLayers,0
;   temperatureRelayBetweenLoops,0
;   fanLayers,1,3
;   fanSpeeds,0,100
;   blipFanToFullPower,0
;   adjustSpeedForCooling,1
;   minSpeedLayerTime,15
;   minCoolingSpeedSlowdown,20
;   increaseFanForCooling,0
;   minFanLayerTime,45
;   maxCoolingFanSpeed,100
;   increaseFanForBridging,0
;   bridgingFanSpeed,100
;   use5D,1
;   relativeEdistances,0
;   allowEaxisZeroing,1
;   independentExtruderAxes,0
;   includeM10123,0
;   stickySupport,1
;   detectArcs,0
;   arcReplaceG2G3,0
;   arcRadialCompensation,1
;   gcodeXoffset,0
;   gcodeYoffset,0
;   gcodeZoffset,0
;   overrideMachineDefinition,1
;   machineTypeOverride,0
;   strokeXoverride,150
;   strokeYoverride,150
;   strokeZoverride,150
;   originOffsetXoverride,0
;   originOffsetYoverride,0
;   originOffsetZoverride,0
;   homeXdirOverride,-1
;   homeYdirOverride,-1
;   homeZdirOverride,-1
;   flipXoverride,1
;   flipYoverride,-1
;   flipZoverride,1
;   startingGcode,G28 ; home all axes
;   layerChangeGcode,
;   toolChangeGcode,
;   endingGcode,M104 S0 ; turn off extruder,G28 X0  ; home X axis,G28 Y0  ; home Y axis,M84 ; disable motors
;   createX3G,0
;   celebration,0
;   celebrationSong,Random Song
;   createMB5G,0
;   postProcessing,
;   defaultSpeed,1800
;   outlineUnderspeed,0.5
;   solidInfillUnderspeed,0.8
;   supportUnderspeed,1
;   rapidXYspeed,9000
;   rapidZspeed,1200
;   minBridgingArea,50
;   bridgingExtrusionMultiplier,1
;   bridgingSpeedMultiplier,1
;   filamentDiameter,1.75
;   filamentPricePerKg,34.6
;   useMinPrintHeight,0
;   minPrintHeight,0
;   useMaxPrintHeight,0
;   maxPrintHeight,0
;   useDiaphragm,0
;   diaphragmLayerInterval,20
;   robustSlicing,1
;   mergeAllIntoSolid,0
;   onlyRetractWhenCrossingOutline,1
;   retractBetweenLayers,1
;   useRetractionMinTravel,0
;   retractionMinTravel,3
;   useRetractionOozeRate,0
;   retractionOozeRate,100
;   onlyWipeOutlines,1
;   toolChangeRetractionDistance,12
;   toolChangeExtraRestartDistance,-0.5
;   toolChangeRetractionSpeed,600
;   allowThinWallGapFill,1
;   thinWallAllowedOverlapPercentage,10
;   horizontalSizeCompensation,0
G90
M82
M106 S0
M104 S190 T0
M109 S190 T0
G28 ; home all axes
G92 E0
G1 E-5 F4998
G1 Z0.2 F1200
; layer 1, Z = 0.2
T0
; tool H0.2 W0.5
G1 X61.865 Y55.688 F9000
G1 E0 F1499
G92 E0
G1 X65.005 Y52.548 E0.1846 F900
G1 X65.281 Y52.434 E0.197
G1 X84.719 Y52.434 E1.0052
G1 X84.995 Y52.548 E1.0176
G1 X88.135 Y55.688 E1.2022
G1 X88.249 Y55.964 E1.2146
G1 X88.249 Y61.285 E1.4358
G1 X89.455 Y63.197 E1.5298
G1 X89.514 Y63.401 E1.5386
G1 X89.515 Y89.29 E2.615
G1 X89.517 Y89.292 E2.6151
G1 X89.514 Y94.282 E2.8226
G1 X89.512 Y94.325 E2.8243
G1 X89.443 Y94.928 E2.8496
G1 X89.436 Y94.97 E2.8513
G1 X89.22 Y95.91 E2.8915
G1 X89.2 Y95.971 E2.8941
G1 X88.846 Y96.817 E2.9323
G1 X88.816 Y96.874 E2.9349
G1 X88.125 Y97.961 E2.9885
G1 X88.073 Y98.025 E2.9919
G1 X87.23 Y98.865 E3.0414
G1 X87.166 Y98.917 E3.0448
G1 X86.074 Y99.605 E3.0985
G1 X86.024 Y99.632 E3.1008
G1 X85.27 Y99.96 E3.135
G1 X85.216 Y99.979 E3.1374
G1 X84.281 Y100.226 E3.1776
G1 X84.238 Y100.234 E3.1794
G1 X83.619 Y100.323 E3.2054
G1 X83.576 Y100.326 E3.2072
G1 X80.654 Y100.401 E3.3287
G1 X80.512 Y100.345 E3.3351
G1 X68.549 Y100.345 E3.8324
G1 X68.542 Y100.342 E3.8328
G1 X64.028 Y100.352 E4.0204
G1 X63.752 Y100.239 E4.0328
G1 X60.605 Y97.106 E4.2174
G1 X60.49 Y96.831 E4.2298
G1 X60.48 Y92.457 E4.4117
G1 X60.471 Y92.444 E4.4124
G1 X60.476 Y90.594 E4.4892
G1 X60.473 Y89.186 E4.5478
G1 X60.48 Y89.176 E4.5483
G1 X60.493 Y84.781 E4.731
G1 X60.485 Y63.403 E5.6198
G1 X60.544 Y63.198 E5.6287
G1 X61.751 Y61.285 E5.7227
G1 X61.751 Y55.964 E5.944
G1 X61.865 Y55.688 E5.9564
G1 X62.289 Y55.971 F9000
G92 E0
G1 X65.288 Y52.972 E0.1763 F900
G1 X65.38 Y52.934 E0.1805
G1 X84.62 Y52.934 E0.9804
G1 X84.712 Y52.972 E0.9845
G1 X87.711 Y55.971 E1.1608
G1 X87.749 Y56.063 E1.165
G1 X87.749 Y61.43 E1.3881
G1 X88.994 Y63.404 E1.4851
G1 X89.014 Y63.472 E1.4881
G1 X89.015 Y89.447 E2.568
G1 X89.017 Y89.45 E2.5681
G1 X89.014 Y94.268 E2.7685
G1 X89.014 Y94.282 E2.769
G1 X88.948 Y94.857 E2.7931
G1 X88.946 Y94.871 E2.7937
G1 X88.737 Y95.778 E2.8324
G1 X88.731 Y95.798 E2.8333
G1 X88.393 Y96.605 E2.8696
G1 X88.383 Y96.624 E2.8705
G1 X87.718 Y97.669 E2.922
G1 X87.701 Y97.691 E2.9232
G1 X86.897 Y98.491 E2.9703
G1 X86.875 Y98.509 E2.9715
G1 X85.824 Y99.172 E3.0232
G1 X85.807 Y99.181 E3.024
G1 X85.088 Y99.494 E3.0566
G1 X85.07 Y99.5 E3.0574
G1 X84.168 Y99.739 E3.0962
G1 X84.153 Y99.741 E3.0968
G1 X83.563 Y99.826 E3.1216
G1 X83.549 Y99.827 E3.1222
G1 X80.742 Y99.898 E3.2389
G1 X80.648 Y99.861 E3.2431
G1 X80.631 Y99.845 E3.2441
G1 X68.648 Y99.845 E3.7423
G1 X68.641 Y99.842 E3.7426
G1 X64.126 Y99.852 E3.9303
G1 X64.034 Y99.814 E3.9344
G1 X61.028 Y96.822 E4.1108
G1 X60.99 Y96.73 E4.1149
G1 X60.98 Y92.301 E4.299
G1 X60.971 Y92.288 E4.2997
G1 X60.976 Y90.594 E4.3701
G1 X60.973 Y89.344 E4.4221
G1 X60.98 Y89.335 E4.4225
G1 X60.993 Y84.783 E4.6118
G1 X60.985 Y63.473 E5.4978
G1 X61.005 Y63.405 E5.5007
G1 X62.251 Y61.429 E5.5978
G1 X62.251 Y56.063 E5.8209
G1 X62.289 Y55.971 E5.825
G92 E0
G1 E-5 F4998
G1 X68.251 Y58.934 F9000
G1 E0 F4998
G92 E0
G1 X81.749 Y58.934 E0.5612 F675
G1 X81.749 Y63.127 E0.7355
G1 X81.79 Y63.587 E0.7547
G1 X81.92 Y64.052 E0.7748
G1 X82.026 Y64.296 E0.7858
G1 X82.152 Y64.528 E0.7968
G1 X82.423 Y64.899 E0.8159
G1 X82.64 Y65.123 E0.8289
G1 X82.875 Y65.315 E0.8415
G1 X83.014 Y65.405 E0.8484
G1 X83.015 Y87.072 E1.7492
G1 X82.295 Y86.788 E1.7814
G1 X81.976 Y86.704 E1.7951
G1 X81.666 Y86.644 E1.8082
G1 X81.346 Y86.607 E1.8216
G1 X81.032 Y86.598 E1.8347
G1 X80.702 Y86.608 E1.8484
G1 X80.1 Y86.699 E1.8737
G1 X79.765 Y86.788 E1.8881
G1 X79.201 Y87.008 E1.9133
G1 X78.895 Y87.17 E1.9277
G1 X78.382 Y87.519 E1.9535
G1 X77.924 Y87.941 E1.9794
G1 X77.7 Y88.203 E1.9937
G1 X77.512 Y88.457 E2.0069
G1 X77.2 Y88.994 E2.0327
G1 X76.972 Y89.572 E2.0585
G1 X76.882 Y89.908 E2.073
G1 X76.791 Y90.507 E2.0982
G1 X76.778 Y90.851 E2.1125
G1 X76.82 Y91.455 E2.1377
G1 X76.883 Y91.797 E2.1521
G1 X77.062 Y92.378 E2.1774
G1 X77.2 Y92.695 E2.1918
G1 X77.501 Y93.219 E2.2169
G1 X77.704 Y93.498 E2.2312
G1 X78.024 Y93.845 E2.2509
G1 X72.087 Y93.845 E2.4977
G1 X72.506 Y93.289 E2.5266
G1 X72.685 Y93.015 E2.5402
G1 X72.951 Y92.48 E2.5651
G1 X73.071 Y92.161 E2.5792
G1 X73.215 Y91.58 E2.6041
G1 X73.261 Y91.244 E2.6182
G1 X73.274 Y90.629 E2.6438
G1 X73.198 Y90.023 E2.6692
G1 X73.119 Y89.693 E2.6833
G1 X72.916 Y89.13 E2.7082
G1 X72.773 Y88.836 E2.7218
G1 X72.614 Y88.563 E2.7349
G1 X72.426 Y88.295 E2.7485
G1 X72.036 Y87.843 E2.7733
G1 X71.795 Y87.621 E2.787
G1 X71.54 Y87.418 E2.8005
G1 X71.023 Y87.092 E2.8259
G1 X70.463 Y86.845 E2.8514
G1 X70.137 Y86.744 E2.8656
G1 X69.537 Y86.626 E2.891
G1 X68.925 Y86.597 E2.9164
G1 X68.584 Y86.62 E2.9307
G1 X67.998 Y86.723 E2.9554
G1 X67.669 Y86.818 E2.9696
G1 X66.986 Y87.105 E3.0004
G1 X66.993 Y84.791 E3.0967
G1 X66.986 Y65.405 E3.9026
G1 X67.125 Y65.315 E3.9095
G1 X67.357 Y65.125 E3.922
G1 X67.574 Y64.905 E3.9348
G1 X67.845 Y64.533 E3.954
G1 X67.971 Y64.303 E3.9649
G1 X68.077 Y64.06 E3.9759
G1 X68.209 Y63.595 E3.996
G1 X68.251 Y63.13 E4.0154
G1 X68.251 Y58.934 E4.1898
G1 X67.751 Y58.434 F9000
G92 E0
G1 X82.249 Y58.434 E0.6028 F450
G1 X82.249 Y63.105 E0.797
G1 X82.284 Y63.497 E0.8133
G1 X82.392 Y63.884 E0.83
G1 X82.476 Y64.077 E0.8388
G1 X82.575 Y64.26 E0.8474
G1 X82.806 Y64.576 E0.8637
G1 X82.98 Y64.754 E0.874
G1 X83.169 Y64.91 E0.8843
G1 X83.385 Y65.049 E0.8949
G1 X83.514 Y65.11 E0.9009
G1 X83.515 Y88.05 E1.8546
G1 X83.327 Y87.884 E1.865
G1 X82.908 Y87.601 E1.886
G1 X82.652 Y87.467 E1.898
G1 X82.139 Y87.264 E1.9209
G1 X81.865 Y87.192 E1.9327
G1 X81.59 Y87.139 E1.9444
G1 X81.31 Y87.107 E1.9561
G1 X81.031 Y87.098 E1.9677
G1 X80.747 Y87.107 E1.9795
G1 X80.202 Y87.189 E2.0024
G1 X79.921 Y87.264 E2.0145
G1 X79.409 Y87.464 E2.0374
G1 X79.152 Y87.599 E2.0494
G1 X78.693 Y87.911 E2.0725
G1 X78.285 Y88.288 E2.0956
G1 X78.092 Y88.514 E2.108
G1 X77.93 Y88.732 E2.1193
G1 X77.651 Y89.213 E2.1424
G1 X77.447 Y89.729 E2.1655
G1 X77.372 Y90.01 E2.1776
G1 X77.29 Y90.554 E2.2004
G1 X77.279 Y90.844 E2.2125
G1 X77.317 Y91.392 E2.2353
G1 X77.37 Y91.678 E2.2474
G1 X77.532 Y92.205 E2.2703
G1 X77.647 Y92.47 E2.2824
G1 X77.921 Y92.946 E2.3052
G1 X78.091 Y93.181 E2.3172
G1 X78.468 Y93.589 E2.3403
G1 X78.901 Y93.936 E2.3634
G1 X79.017 Y94.009 E2.3691
G1 X79.017 Y94.345 E2.3831
G1 X71.019 Y94.345 E2.7156
G1 X71.019 Y94.017 E2.7292
G1 X71.336 Y93.803 E2.7451
G1 X71.553 Y93.618 E2.757
G1 X71.928 Y93.225 E2.7796
G1 X72.097 Y93.001 E2.7912
G1 X72.25 Y92.766 E2.8029
G1 X72.492 Y92.28 E2.8255
G1 X72.592 Y92.013 E2.8373
G1 X72.723 Y91.486 E2.8599
G1 X72.761 Y91.204 E2.8717
G1 X72.774 Y90.655 E2.8946
G1 X72.705 Y90.113 E2.9173
G1 X72.639 Y89.836 E2.9291
G1 X72.455 Y89.325 E2.9517
G1 X72.332 Y89.072 E2.9634
G1 X72.192 Y88.832 E2.9749
G1 X72.031 Y88.603 E2.9866
G1 X71.676 Y88.192 E3.0092
G1 X71.469 Y88.001 E3.0209
G1 X71.25 Y87.826 E3.0325
G1 X70.787 Y87.534 E3.0553
G1 X70.287 Y87.314 E3.078
G1 X70.014 Y87.229 E3.0899
G1 X69.477 Y87.124 E3.1126
G1 X68.93 Y87.098 E3.1354
G1 X68.644 Y87.117 E3.1473
G1 X68.111 Y87.211 E3.1698
G1 X67.836 Y87.29 E3.1817
G1 X67.336 Y87.501 E3.2043
G1 X67.086 Y87.637 E3.2161
G1 X66.68 Y87.923 E3.2368
G1 X66.483 Y88.1 E3.2478
G1 X66.493 Y84.79 E3.3854
G1 X66.486 Y65.11 E4.2036
G1 X66.615 Y65.049 E4.2095
G1 X66.831 Y64.91 E4.2202
G1 X67.02 Y64.755 E4.2303
G1 X67.192 Y64.581 E4.2405
G1 X67.422 Y64.265 E4.2568
G1 X67.521 Y64.083 E4.2654
G1 X67.605 Y63.891 E4.2741
G1 X67.715 Y63.503 E4.2909
G1 X67.751 Y63.107 E4.3074
G1 X67.751 Y58.434 E4.5017
G1 X68.676 Y59.401 F9000
G92 E0
G1 X68.718 Y59.359 E0.0025 F720
G1 X69.425 Y59.359 E0.0319
G1 X68.676 Y60.108 E0.0759
G1 X68.676 Y60.815 E0.1053
G1 X70.132 Y59.359 E0.1909
G1 X70.839 Y59.359 E0.2203
G1 X68.676 Y61.522 E0.3475
G1 X68.676 Y62.23 E0.3769
G1 X71.546 Y59.359 E0.5457
G1 X72.254 Y59.359 E0.5751
G1 X68.676 Y62.937 E0.7855
G1 X68.676 Y63.149 E0.7943
G1 X68.629 Y63.672 E0.8161
G1 X68.621 Y63.698 E0.8173
G1 X72.961 Y59.359 E1.0724
G1 X73.668 Y59.359 E1.1018
G1 X68.04 Y64.986 E1.4327
G1 X67.899 Y65.181 E1.4427
G1 X67.644 Y65.439 E1.4578
G1 X67.411 Y65.63 E1.4703
G1 X67.411 Y66.323 E1.4991
G1 X74.375 Y59.359 E1.9085
G1 X75.082 Y59.359 E1.9379
G1 X67.412 Y67.029 E2.3889
G1 X67.412 Y67.736 E2.4183
G1 X75.789 Y59.359 E2.9108
G1 X76.496 Y59.359 E2.9402
G1 X67.412 Y68.443 E3.4743
G1 X67.412 Y69.15 E3.5037
G1 X77.203 Y59.359 E4.0794
G1 X77.91 Y59.359 E4.1088
G1 X67.413 Y69.857 E4.726
G1 X67.413 Y70.564 E4.7554
G1 X78.618 Y59.359 E5.4142
G1 X79.325 Y59.359 E5.4436
G1 X67.413 Y71.271 E6.1439
G1 X67.413 Y71.977 E6.1733
G1 X80.032 Y59.359 E6.9152
G1 X80.739 Y59.359 E6.9446
G1 X67.414 Y72.684 E7.7281
G1 X67.414 Y73.391 E7.7575
G1 X81.324 Y59.481 E8.5754
G1 X81.324 Y60.188 E8.6048
G1 X67.414 Y74.098 E9.4226
G1 X67.414 Y74.805 E9.452
G1 X81.324 Y60.895 E10.2698
G1 X81.324 Y61.602 E10.2992
G1 X67.415 Y75.512 E11.117
G1 X67.415 Y76.219 E11.1464
G1 X81.324 Y62.309 E11.9642
G1 X81.324 Y63.017 E11.9936
G1 X67.415 Y76.925 E12.8114
G1 X67.415 Y77.632 E12.8408
G1 X81.373 Y63.675 E13.6615
G1 X81.519 Y64.195 E13.6839
G1 X81.531 Y64.224 E13.6852
G1 X67.416 Y78.339 E14.5152
G1 X67.416 Y79.046 E14.5445
G1 X81.762 Y64.7 E15.388
G1 X81.792 Y64.756 E15.3907
G1 X82.054 Y65.115 E15.4091
G1 X67.416 Y79.753 E16.2698
G1 X67.416 Y80.46 E16.2992
G1 X82.4 Y65.476 E17.1802
G1 X82.589 Y65.631 E17.1904
G1 X82.589 Y65.994 E17.2055
G1 X67.417 Y81.167 E18.0975
G1 X67.417 Y81.873 E18.1269
G1 X82.589 Y66.701 E19.019
G1 X82.589 Y67.408 E19.0484
G1 X67.417 Y82.58 E19.9405
G1 X67.417 Y83.287 E19.9698
G1 X82.589 Y68.115 E20.8619
G1 X82.589 Y68.822 E20.8913
G1 X67.418 Y83.994 E21.7833
G1 X67.418 Y84.701 E21.8127
G1 X82.589 Y69.529 E22.7047
G1 X82.589 Y70.236 E22.7341
G1 X67.416 Y85.41 E23.6263
G1 X67.414 Y86.119 E23.6557
G1 X82.589 Y70.944 E24.548
G1 X82.589 Y71.651 E24.5774
G1 X67.938 Y86.302 E25.4388
G1 X68.532 Y86.197 E25.4639
G1 X68.765 Y86.182 E25.4737
G1 X82.589 Y72.358 E26.2865
G1 X82.589 Y73.065 E26.3158
G1 X69.457 Y86.197 E27.088
G1 X69.589 Y86.203 E27.0934
G1 X70.065 Y86.296 E27.1136
G1 X82.589 Y73.772 E27.85
G1 X82.589 Y74.479 E27.8794
G1 X70.619 Y86.449 E28.5832
G1 X71.11 Y86.666 E28.6055
G1 X82.589 Y75.186 E29.2805
G1 X82.59 Y75.893 E29.3099
G1 X71.557 Y86.926 E29.9586
G1 X71.786 Y87.071 E29.9699
G1 X71.971 Y87.218 E29.9797
G1 X82.59 Y76.6 E30.604
G1 X82.59 Y77.307 E30.6334
G1 X72.346 Y87.551 E31.2357
G1 X72.673 Y87.931 E31.2565
G1 X82.59 Y78.014 E31.8396
G1 X82.59 Y78.721 E31.869
G1 X72.974 Y88.337 E32.4343
G1 X73.148 Y88.636 E32.4487
G1 X73.225 Y88.793 E32.456
G1 X82.59 Y79.429 E33.0066
G1 X82.59 Y80.136 E33.036
G1 X73.428 Y89.297 E33.5747
G1 X73.527 Y89.571 E33.5868
G1 X73.591 Y89.841 E33.5983
G1 X82.59 Y80.843 E34.1274
G1 X82.59 Y81.55 E34.1568
G1 X73.681 Y90.458 E34.6806
G1 X73.7 Y90.607 E34.6868
G1 X73.688 Y91.159 E34.7098
G1 X82.59 Y82.257 E35.2332
G1 X82.59 Y82.964 E35.2626
G1 X78.83 Y86.723 E35.4836
G1 X79.024 Y86.621 E35.4927
G1 X79.633 Y86.384 E35.5199
G1 X79.966 Y86.294 E35.5343
G1 X82.59 Y83.671 E35.6885
G1 X82.59 Y84.378 E35.7179
G1 X80.788 Y86.18 E35.8238
G1 X81.032 Y86.172 E35.834
G1 X81.377 Y86.183 E35.8483
G1 X81.48 Y86.195 E35.8526
G1 X82.59 Y85.085 E35.9179
G1 X82.59 Y85.792 E35.9473
G1 X82.088 Y86.294 E35.9768
G1 X82.428 Y86.384 E35.9914
G1 X82.59 Y86.448 E35.9987
G1 X82.59 Y85.792 E36.0259
G92 E0
G1 E-5 F4998
G1 X77.111 Y93.393 F9000
G1 E0 F4998
G92 E0
G1 X77.126 Y93.42 E0.0013 F720
G1 X77.083 Y93.42 E0.0031
G1 X77.111 Y93.393 E0.0047
G1 X76.852 Y92.944 E0.0262
G1 X76.376 Y93.42 E0.0542
G1 X75.669 Y93.42 E0.0836
G1 X76.64 Y92.45 E0.1407
G1 X76.473 Y91.909 E0.1642
G1 X74.962 Y93.42 E0.253
G1 X74.255 Y93.42 E0.2824
G1 X76.383 Y91.293 E0.4075
G1 X76.352 Y90.858 E0.4256
G1 X76.362 Y90.606 E0.4361
G1 X73.548 Y93.42 E0.6016
G1 X72.928 Y93.42 E0.6274
G1 X73.054 Y93.227 E0.637
G1 X73.074 Y93.187 E0.6388
G1 X76.474 Y89.786 E0.8387
G1 X76.568 Y89.439 E0.8537
G1 X76.817 Y88.808 E0.8819
G1 X76.915 Y88.639 E0.89
G1 X73.547 Y92.007 E1.0881
G92 E0
