; G-Code generated by Simplify3D(R) Version 2.2.2
; Apr 6, 2015 at 4:06:24 
; Settings Summary
;   processName,NEO
;   applyToModels,008_RAMPS_Fan_Mount
;   profileLabel,Robotica.fff
;   printMaterial,PLA
;   printQuality,High
;   extruderName,Primary Extruder
;   extruderToolheadNumber,0
;   extruderDiameter,0.5
;   extruderAutoWidth,0
;   extruderWidth,0.5
;   extrusionMultiplier,1
;   extruderUseRetract,1
;   extruderRetractionDistance,5
;   extruderExtraRestartDistance,0
;   extruderRetractionZLift,0
;   extruderRetractionSpeed,4998
;   extruderUseCoasting,0
;   extruderCoastingDistance,0.2
;   extruderUseWipe,0
;   extruderWipeDistance,5
;   primaryExtruder,0
;   layerHeight,0.2
;   topSolidLayers,6
;   bottomSolidLayers,6
;   perimeterOutlines,2
;   printPerimetersInsideOut,1
;   startPointOption,2
;   startPointOriginX,0
;   startPointOriginY,0
;   startPointOriginZ,300
;   sequentialIslands,0
;   spiralVaseMode,0
;   firstLayerHeightPercentage,100
;   firstLayerWidthPercentage,100
;   firstLayerUnderspeed,0.5
;   useRaft,0
;   raftExtruder,0
;   raftLayers,3
;   raftOffset,3
;   raftSeparationDistance,0.1
;   raftInfill,85
;   disableRaftBaseLayers,0
;   useSkirt,1
;   skirtExtruder,0
;   skirtLayers,1
;   skirtOutlines,2
;   skirtOffset,5
;   infillExtruder,0
;   externalInfillPattern,Rectilinear
;   infillPercentage,15
;   outlineOverlapPercentage,15
;   infillExtrusionWidthPercentage,100
;   minInfillLength,3
;   infillLayerInterval,1
;   randomInfillStartPoint,0
;   infillAngles,45,-45
;   generateSupport,1
;   supportExtruder,0
;   supportInfill,20
;   supportExtraInflation,0
;   denseSupportLayers,0
;   denseSupportInfill,50
;   supportLayerInterval,1
;   supportHorizontalPartOffset,0.6
;   supportUpperSeparationLayers,1
;   supportLowerSeparationLayers,1
;   supportGridSpacing,1.5
;   maxOverhangAngle,45
;   supportAngles,45
;   temperatureName,Primary Extruder
;   temperatureNumber,0
;   temperatureSetpointCount,1
;   temperatureSetpointLayers,1
;   temperatureSetpointTemperatures,190
;   temperatureStabilizeAtStartup,1
;   temperatureHeatedBed,0
;   temperatureRelayBetweenLayers,0
;   temperatureRelayBetweenLoops,0
;   fanLayers,1,3
;   fanSpeeds,0,100
;   blipFanToFullPower,0
;   adjustSpeedForCooling,1
;   minSpeedLayerTime,15
;   minCoolingSpeedSlowdown,20
;   increaseFanForCooling,0
;   minFanLayerTime,45
;   maxCoolingFanSpeed,100
;   increaseFanForBridging,0
;   bridgingFanSpeed,100
;   use5D,1
;   relativeEdistances,0
;   allowEaxisZeroing,1
;   independentExtruderAxes,0
;   includeM10123,0
;   stickySupport,1
;   detectArcs,0
;   arcReplaceG2G3,0
;   arcRadialCompensation,1
;   gcodeXoffset,0
;   gcodeYoffset,0
;   gcodeZoffset,0
;   overrideMachineDefinition,1
;   machineTypeOverride,0
;   strokeXoverride,150
;   strokeYoverride,150
;   strokeZoverride,150
;   originOffsetXoverride,0
;   originOffsetYoverride,0
;   originOffsetZoverride,0
;   homeXdirOverride,-1
;   homeYdirOverride,-1
;   homeZdirOverride,-1
;   flipXoverride,1
;   flipYoverride,-1
;   flipZoverride,1
;   startingGcode,G28 ; home all axes
;   layerChangeGcode,
;   toolChangeGcode,
;   endingGcode,M104 S0 ; turn off extruder,G28 X0  ; home X axis,G28 Y0  ; home Y axis,M84 ; disable motors
;   createX3G,0
;   celebration,0
;   celebrationSong,Random Song
;   createMB5G,0
;   postProcessing,
;   defaultSpeed,1800
;   outlineUnderspeed,0.5
;   solidInfillUnderspeed,0.8
;   supportUnderspeed,1
;   rapidXYspeed,9000
;   rapidZspeed,1200
;   minBridgingArea,50
;   bridgingExtrusionMultiplier,1
;   bridgingSpeedMultiplier,1
;   filamentDiameter,1.75
;   filamentPricePerKg,34.6
;   useMinPrintHeight,0
;   minPrintHeight,0
;   useMaxPrintHeight,0
;   maxPrintHeight,0
;   useDiaphragm,0
;   diaphragmLayerInterval,20
;   robustSlicing,1
;   mergeAllIntoSolid,0
;   onlyRetractWhenCrossingOutline,1
;   retractBetweenLayers,1
;   useRetractionMinTravel,0
;   retractionMinTravel,3
;   useRetractionOozeRate,0
;   retractionOozeRate,100
;   onlyWipeOutlines,1
;   toolChangeRetractionDistance,12
;   toolChangeExtraRestartDistance,-0.5
;   toolChangeRetractionSpeed,600
;   allowThinWallGapFill,1
;   thinWallAllowedOverlapPercentage,10
;   horizontalSizeCompensation,0
G90
M82
M106 S0
M104 S190 T0
M109 S190 T0
G28 ; home all axes
G92 E0
G1 E-5 F4998
G1 Z0.2 F1200
; layer 1, Z = 0.2
T0
; tool H0.2 W0.5
G1 X40.504 Y49.364 F9000
G1 E0 F1499
G92 E0
G1 X40.78 Y49.25 E0.0124 F900
G1 X48.72 Y49.25 E0.3425
G1 X48.996 Y49.364 E0.3549
G1 X52.136 Y52.504 E0.5396
G1 X52.25 Y52.78 E0.552
G1 X52.25 Y76.75 E1.5485
G1 X97.75 Y76.75 E3.4402
G1 X97.75 Y52.78 E4.4368
G1 X97.864 Y52.504 E4.4492
G1 X101.004 Y49.364 E4.6338
G1 X101.28 Y49.25 E4.6462
G1 X109.22 Y49.25 E4.9763
G1 X109.496 Y49.364 E4.9887
G1 X112.636 Y52.504 E5.1733
G1 X112.75 Y52.78 E5.1857
G1 X112.749 Y85.642 E6.552
G1 X112.749 Y85.66 E6.5528
G1 X112.736 Y85.924 E6.5637
G1 X112.734 Y85.942 E6.5645
G1 X112.6 Y87.302 E6.6213
G1 X112.595 Y87.338 E6.6228
G1 X112.492 Y87.856 E6.6448
G1 X112.483 Y87.892 E6.6463
G1 X112.045 Y89.335 E6.709
G1 X112.033 Y89.37 E6.7105
G1 X111.831 Y89.858 E6.7325
G1 X111.815 Y89.891 E6.734
G1 X111.104 Y91.221 E6.7967
G1 X111.085 Y91.253 E6.7983
G1 X110.791 Y91.692 E6.8202
G1 X110.769 Y91.722 E6.8218
G1 X109.896 Y92.786 E6.879
G1 X109.884 Y92.8 E6.8798
G1 X109.707 Y92.995 E6.8907
G1 X109.694 Y93.009 E6.8915
G1 X105 Y97.701 E7.1675
G1 X104.987 Y97.714 E7.1682
G1 X104.792 Y97.891 E7.1792
G1 X104.778 Y97.903 E7.1799
G1 X103.722 Y98.769 E7.2367
G1 X103.692 Y98.791 E7.2383
G1 X103.253 Y99.085 E7.2602
G1 X103.221 Y99.104 E7.2617
G1 X101.891 Y99.815 E7.3245
G1 X101.858 Y99.831 E7.326
G1 X101.37 Y100.033 E7.348
G1 X101.335 Y100.045 E7.3495
G1 X99.892 Y100.483 E7.4122
G1 X99.856 Y100.492 E7.4137
G1 X99.338 Y100.595 E7.4357
G1 X99.302 Y100.6 E7.4372
G1 X97.932 Y100.735 E7.4944
G1 X97.914 Y100.737 E7.4952
G1 X97.65 Y100.75 E7.5062
G1 X97.632 Y100.75 E7.5069
G1 X52.358 Y100.749 E9.3892
G1 X52.34 Y100.749 E9.3899
G1 X52.076 Y100.736 E9.4009
G1 X52.058 Y100.734 E9.4017
G1 X50.698 Y100.6 E9.4585
G1 X50.662 Y100.595 E9.46
G1 X50.144 Y100.492 E9.482
G1 X50.108 Y100.483 E9.4835
G1 X48.665 Y100.045 E9.5462
G1 X48.63 Y100.033 E9.5477
G1 X48.142 Y99.831 E9.5697
G1 X48.109 Y99.815 E9.5712
G1 X46.779 Y99.104 E9.6339
G1 X46.747 Y99.085 E9.6355
G1 X46.308 Y98.792 E9.6574
G1 X46.278 Y98.77 E9.659
G1 X45.215 Y97.896 E9.7162
G1 X45.201 Y97.884 E9.7169
G1 X45.005 Y97.707 E9.7279
G1 X44.991 Y97.694 E9.7287
G1 X40.299 Y93 E10.0047
G1 X40.286 Y92.987 E10.0054
G1 X40.109 Y92.792 E10.0164
G1 X40.097 Y92.778 E10.0171
G1 X39.23 Y91.722 E10.0739
G1 X39.208 Y91.692 E10.0755
G1 X38.915 Y91.253 E10.0974
G1 X38.896 Y91.221 E10.099
G1 X38.185 Y89.891 E10.1617
G1 X38.169 Y89.858 E10.1632
G1 X37.967 Y89.37 E10.1851
G1 X37.955 Y89.335 E10.1867
G1 X37.517 Y87.892 E10.2494
G1 X37.508 Y87.856 E10.2509
G1 X37.405 Y87.338 E10.2729
G1 X37.4 Y87.302 E10.2744
G1 X37.265 Y85.932 E10.3316
G1 X37.263 Y85.914 E10.3324
G1 X37.25 Y85.65 E10.3434
G1 X37.25 Y85.632 E10.3441
G1 X37.25 Y52.78 E11.71
G1 X37.364 Y52.504 E11.7224
G1 X40.504 Y49.364 E11.907
G1 X40.787 Y49.788 F9000
G92 E0
G1 X40.879 Y49.75 E0.0041 F900
G1 X48.621 Y49.75 E0.326
G1 X48.713 Y49.788 E0.3301
G1 X51.712 Y52.787 E0.5065
G1 X51.75 Y52.879 E0.5106
G1 X51.75 Y77.25 E1.5238
G1 X98.25 Y77.25 E3.4571
G1 X98.25 Y52.879 E4.4703
G1 X98.288 Y52.787 E4.4744
G1 X101.287 Y49.788 E4.6508
G1 X101.379 Y49.75 E4.6549
G1 X109.121 Y49.75 E4.9768
G1 X109.213 Y49.788 E4.9809
G1 X112.212 Y52.787 E5.1573
G1 X112.25 Y52.879 E5.1614
G1 X112.249 Y85.636 E6.5232
G1 X112.249 Y85.642 E6.5235
G1 X112.237 Y85.893 E6.534
G1 X112.236 Y85.899 E6.5342
G1 X112.104 Y87.241 E6.5902
G1 X112.102 Y87.253 E6.5908
G1 X112.004 Y87.747 E6.6117
G1 X112.001 Y87.759 E6.6122
G1 X111.57 Y89.178 E6.6739
G1 X111.566 Y89.19 E6.6744
G1 X111.373 Y89.655 E6.6953
G1 X111.368 Y89.666 E6.6958
G1 X110.669 Y90.975 E6.7575
G1 X110.662 Y90.985 E6.758
G1 X110.382 Y91.404 E6.779
G1 X110.375 Y91.414 E6.7795
G1 X109.514 Y92.464 E6.8359
G1 X109.51 Y92.468 E6.8362
G1 X109.341 Y92.655 E6.8467
G1 X109.336 Y92.659 E6.8469
G1 X104.651 Y97.343 E7.1224
G1 X104.646 Y97.348 E7.1226
G1 X104.46 Y97.516 E7.1331
G1 X104.456 Y97.52 E7.1333
G1 X103.414 Y98.375 E7.1894
G1 X103.404 Y98.383 E7.1899
G1 X102.985 Y98.662 E7.2108
G1 X102.975 Y98.669 E7.2113
G1 X101.666 Y99.368 E7.273
G1 X101.655 Y99.373 E7.2735
G1 X101.19 Y99.566 E7.2945
G1 X101.178 Y99.57 E7.295
G1 X99.759 Y100.001 E7.3566
G1 X99.747 Y100.004 E7.3572
G1 X99.253 Y100.102 E7.3781
G1 X99.241 Y100.104 E7.3786
G1 X97.889 Y100.237 E7.435
G1 X97.883 Y100.237 E7.4353
G1 X97.632 Y100.25 E7.4458
G1 X97.626 Y100.25 E7.446
G1 X52.364 Y100.249 E9.3278
G1 X52.358 Y100.249 E9.328
G1 X52.107 Y100.237 E9.3385
G1 X52.101 Y100.236 E9.3387
G1 X50.759 Y100.104 E9.3948
G1 X50.747 Y100.102 E9.3953
G1 X50.253 Y100.004 E9.4162
G1 X50.242 Y100.001 E9.4167
G1 X48.822 Y99.57 E9.4784
G1 X48.81 Y99.566 E9.4789
G1 X48.345 Y99.373 E9.4999
G1 X48.334 Y99.368 E9.5004
G1 X47.025 Y98.669 E9.5621
G1 X47.015 Y98.662 E9.5626
G1 X46.596 Y98.383 E9.5835
G1 X46.586 Y98.375 E9.584
G1 X45.536 Y97.514 E9.6405
G1 X45.532 Y97.51 E9.6407
G1 X45.345 Y97.341 E9.6512
G1 X45.341 Y97.336 E9.6515
G1 X40.657 Y92.651 E9.9269
G1 X40.652 Y92.646 E9.9272
G1 X40.484 Y92.46 E9.9376
G1 X40.48 Y92.456 E9.9379
G1 X39.625 Y91.414 E9.9939
G1 X39.617 Y91.404 E9.9944
G1 X39.338 Y90.985 E10.0154
G1 X39.331 Y90.975 E10.0159
G1 X38.632 Y89.666 E10.0776
G1 X38.627 Y89.655 E10.0781
G1 X38.434 Y89.19 E10.099
G1 X38.43 Y89.178 E10.0995
G1 X37.999 Y87.759 E10.1612
G1 X37.996 Y87.747 E10.1617
G1 X37.898 Y87.253 E10.1826
G1 X37.896 Y87.241 E10.1831
G1 X37.763 Y85.889 E10.2396
G1 X37.762 Y85.883 E10.2398
G1 X37.75 Y85.632 E10.2503
G1 X37.75 Y85.626 E10.2506
G1 X37.75 Y52.879 E11.612
G1 X37.788 Y52.787 E11.6161
G1 X40.787 Y49.788 E11.7925
G92 E0
G1 E-5 F4998
G1 X43.75 Y55.75 F9000
G1 E0 F4998
G92 E0
G1 X45.75 Y55.75 E0.0832 F675
G1 X45.75 Y56.25 E0.1039
G1 X44.25 Y56.25 E0.1663
G1 X44.25 Y60.25 E0.3326
G1 X45.75 Y60.25 E0.395
G1 X45.75 Y83.25 E1.3512
G1 X104.25 Y83.25 E3.7833
G1 X104.25 Y60.25 E4.7396
G1 X105.75 Y60.25 E4.8019
G1 X105.75 Y56.25 E4.9682
G1 X104.25 Y56.25 E5.0306
G1 X104.25 Y55.75 E5.0514
G1 X106.25 Y55.75 E5.1345
G1 X106.249 Y85.473 E6.3703
G1 X106.165 Y86.328 E6.406
G1 X105.923 Y87.125 E6.4406
G1 X105.531 Y87.859 E6.4752
G1 X104.979 Y88.531 E6.5114
G1 X100.524 Y92.985 E6.7733
G1 X99.859 Y93.531 E6.809
G1 X99.125 Y93.923 E6.8436
G1 X98.328 Y94.165 E6.8783
G1 X97.463 Y94.25 E6.9144
G1 X52.527 Y94.249 E8.7826
G1 X51.672 Y94.165 E8.8184
G1 X50.875 Y93.923 E8.853
G1 X50.141 Y93.531 E8.8876
G1 X49.469 Y92.979 E8.9237
G1 X45.015 Y88.524 E9.1857
G1 X44.469 Y87.859 E9.2214
G1 X44.077 Y87.125 E9.256
G1 X43.835 Y86.328 E9.2906
G1 X43.75 Y85.463 E9.3268
G1 X43.75 Y55.75 E10.5621
G1 X43.25 Y55.25 F9000
G92 E0
G1 X46.25 Y55.25 E0.1247 F450
G1 X46.25 Y56.75 E0.1871
G1 X44.75 Y56.75 E0.2495
G1 X44.75 Y59.75 E0.3742
G1 X46.25 Y59.75 E0.4365
G1 X46.25 Y82.75 E1.3928
G1 X103.75 Y82.75 E3.7833
G1 X103.75 Y59.75 E4.7396
G1 X105.25 Y59.75 E4.8019
G1 X105.25 Y56.75 E4.9267
G1 X103.75 Y56.75 E4.989
G1 X103.75 Y55.25 E5.0514
G1 X106.75 Y55.25 E5.1761
G1 X106.749 Y85.497 E6.4336
G1 X106.658 Y86.426 E6.4725
G1 X106.387 Y87.317 E6.5112
G1 X105.948 Y88.138 E6.5499
G1 X105.35 Y88.867 E6.5891
G1 X100.86 Y93.356 E6.853
G1 X100.138 Y93.948 E6.8919
G1 X99.317 Y94.387 E6.9306
G1 X98.426 Y94.658 E6.9693
G1 X97.488 Y94.75 E7.0085
G1 X52.503 Y94.749 E8.8787
G1 X51.574 Y94.658 E8.9176
G1 X50.683 Y94.387 E8.9563
G1 X49.862 Y93.948 E8.995
G1 X49.133 Y93.35 E9.0342
G1 X44.644 Y88.86 E9.2981
G1 X44.052 Y88.138 E9.337
G1 X43.613 Y87.317 E9.3757
G1 X43.342 Y86.427 E9.4144
G1 X43.25 Y85.488 E9.4536
G1 X43.25 Y55.25 E10.7107
G1 X44.175 Y61.049 F9000
G92 E0
G1 X44.549 Y60.675 E0.022 F720
G1 X45.256 Y60.675 E0.0514
G1 X44.175 Y61.756 E0.1149
G1 X44.175 Y62.463 E0.1443
G1 X45.325 Y61.313 E0.2119
G1 X45.325 Y62.02 E0.2413
G1 X44.175 Y63.17 E0.3089
G1 X44.175 Y63.877 E0.3383
G1 X45.325 Y62.727 E0.4059
G1 X45.325 Y63.434 E0.4353
G1 X44.175 Y64.584 E0.503
G1 X44.175 Y65.291 E0.5324
G1 X45.325 Y64.141 E0.6
G1 X45.325 Y64.848 E0.6294
G1 X44.175 Y65.998 E0.697
G1 X44.175 Y66.705 E0.7264
G1 X45.325 Y65.555 E0.794
G1 X45.325 Y66.263 E0.8234
G1 X44.175 Y67.413 E0.891
G1 X44.175 Y68.12 E0.9204
G1 X45.325 Y66.97 E0.988
G1 X45.325 Y67.677 E1.0174
G1 X44.175 Y68.827 E1.085
G1 X44.175 Y69.534 E1.1144
G1 X45.325 Y68.384 E1.1821
G1 X45.325 Y69.091 E1.2115
G1 X44.175 Y70.241 E1.2791
G1 X44.175 Y70.948 E1.3085
G1 X45.325 Y69.798 E1.3761
G1 X45.325 Y70.505 E1.4055
G1 X44.175 Y71.655 E1.4731
G1 X44.175 Y72.362 E1.5025
G1 X45.325 Y71.212 E1.5701
G1 X45.325 Y71.919 E1.5995
G1 X44.175 Y73.069 E1.6671
G1 X44.175 Y73.777 E1.6965
G1 X45.325 Y72.627 E1.7641
G1 X45.325 Y73.334 E1.7935
G1 X44.175 Y74.484 E1.8612
G1 X44.175 Y75.191 E1.8906
G1 X45.325 Y74.041 E1.9582
G1 X45.325 Y74.748 E1.9876
G1 X44.175 Y75.898 E2.0552
G1 X44.175 Y76.605 E2.0846
G1 X45.325 Y75.455 E2.1522
G1 X45.325 Y76.162 E2.1816
G1 X44.175 Y77.312 E2.2492
G1 X44.175 Y78.019 E2.2786
G1 X45.325 Y76.869 E2.3462
G1 X45.325 Y77.576 E2.3756
G1 X44.175 Y78.726 E2.4432
G1 X44.175 Y79.433 E2.4726
G1 X45.325 Y78.283 E2.5402
G1 X45.325 Y78.99 E2.5696
G1 X44.175 Y80.14 E2.6373
G1 X44.175 Y80.848 E2.6667
G1 X45.325 Y79.698 E2.7343
G1 X45.325 Y80.405 E2.7637
G1 X44.175 Y81.555 E2.8313
G1 X44.175 Y82.262 E2.8607
G1 X45.325 Y81.112 E2.9283
G1 X45.325 Y81.819 E2.9577
G1 X44.175 Y82.969 E3.0253
G1 X44.175 Y83.676 E3.0547
G1 X45.325 Y82.526 E3.1223
G1 X45.325 Y83.233 E3.1517
G1 X44.175 Y84.383 E3.2193
G1 X44.175 Y85.09 E3.2487
G1 X45.59 Y83.675 E3.332
G1 X46.297 Y83.675 E3.3614
G1 X44.207 Y85.766 E3.4843
G1 X44.254 Y86.245 E3.5043
G1 X44.296 Y86.383 E3.5103
G1 X47.004 Y83.675 E3.6696
G1 X47.712 Y83.675 E3.699
G1 X44.461 Y86.926 E3.8901
G1 X44.471 Y86.962 E3.8916
G1 X44.702 Y87.392 E3.9119
G1 X48.419 Y83.675 E4.1305
G1 X49.126 Y83.675 E4.1599
G1 X44.984 Y87.817 E4.4034
G1 X45.303 Y88.205 E4.4243
G1 X49.833 Y83.675 E4.6906
G1 X50.54 Y83.675 E4.72
G1 X45.653 Y88.562 E5.0073
G1 X46.007 Y88.915 E5.0281
G1 X51.247 Y83.675 E5.3362
G1 X51.954 Y83.675 E5.3656
G1 X46.36 Y89.269 E5.6945
G1 X46.714 Y89.622 E5.7153
G1 X52.661 Y83.675 E6.065
G1 X53.368 Y83.675 E6.0944
G1 X47.067 Y89.976 E6.4649
G1 X47.421 Y90.33 E6.4857
G1 X54.076 Y83.675 E6.8769
G1 X54.783 Y83.675 E6.9063
G1 X47.774 Y90.683 E7.3184
G1 X48.128 Y91.037 E7.3392
G1 X55.49 Y83.675 E7.772
G1 X56.197 Y83.675 E7.8014
G1 X48.481 Y91.39 E8.255
G1 X48.835 Y91.744 E8.2758
G1 X56.904 Y83.675 E8.7502
G1 X57.611 Y83.675 E8.7796
G1 X49.188 Y92.098 E9.2749
G1 X49.542 Y92.451 E9.2957
G1 X58.318 Y83.675 E9.8117
G1 X59.025 Y83.675 E9.8411
G1 X49.909 Y92.791 E10.377
G1 X50.298 Y93.11 E10.3979
G1 X59.732 Y83.675 E10.9526
G1 X60.439 Y83.675 E10.982
G1 X50.744 Y93.371 E11.5521
G1 X51.038 Y93.529 E11.566
G1 X51.234 Y93.588 E11.5745
G1 X61.147 Y83.675 E12.1574
G1 X61.854 Y83.675 E12.1868
G1 X51.78 Y93.748 E12.779
G1 X52.424 Y93.812 E12.8059
G1 X62.561 Y83.675 E13.4019
G1 X63.268 Y83.675 E13.4313
G1 X53.119 Y93.824 E14.028
G1 X53.826 Y93.824 E14.0574
G1 X63.975 Y83.675 E14.6542
G1 X64.682 Y83.675 E14.6836
G1 X54.533 Y93.824 E15.2803
G1 X55.24 Y93.824 E15.3097
G1 X65.389 Y83.675 E15.9064
G1 X66.096 Y83.675 E15.9358
G1 X55.947 Y93.824 E16.5325
G1 X56.654 Y93.824 E16.5619
G1 X66.803 Y83.675 E17.1587
G1 X67.511 Y83.675 E17.1881
G1 X57.361 Y93.824 E17.7848
G1 X58.069 Y93.824 E17.8142
G1 X68.218 Y83.675 E18.4109
G1 X68.925 Y83.675 E18.4403
G1 X58.776 Y93.824 E19.0371
G1 X59.483 Y93.824 E19.0665
G1 X69.632 Y83.675 E19.6632
G1 X70.339 Y83.675 E19.6926
G1 X60.19 Y93.824 E20.2893
G1 X60.897 Y93.824 E20.3187
G1 X71.046 Y83.675 E20.9155
G1 X71.753 Y83.675 E20.9449
G1 X61.604 Y93.824 E21.5416
G1 X62.311 Y93.824 E21.571
G1 X72.46 Y83.675 E22.1677
G1 X73.167 Y83.675 E22.1971
G1 X63.018 Y93.824 E22.7939
G1 X63.725 Y93.824 E22.8233
G1 X73.875 Y83.675 E23.42
G1 X74.582 Y83.675 E23.4494
G1 X64.432 Y93.824 E24.0461
G1 X65.139 Y93.824 E24.0755
G1 X75.289 Y83.675 E24.6723
G1 X75.996 Y83.675 E24.7017
G1 X65.847 Y93.824 E25.2984
