; G-Code generated by Simplify3D(R) Version 2.2.2
; Apr 6, 2015 at 4:06:43 
; Settings Summary
;   processName,NEO
;   applyToModels,009_soportecables
;   profileLabel,Robotica.fff
;   printMaterial,PLA
;   printQuality,High
;   extruderName,Primary Extruder
;   extruderToolheadNumber,0
;   extruderDiameter,0.5
;   extruderAutoWidth,0
;   extruderWidth,0.5
;   extrusionMultiplier,1
;   extruderUseRetract,1
;   extruderRetractionDistance,5
;   extruderExtraRestartDistance,0
;   extruderRetractionZLift,0
;   extruderRetractionSpeed,4998
;   extruderUseCoasting,0
;   extruderCoastingDistance,0.2
;   extruderUseWipe,0
;   extruderWipeDistance,5
;   primaryExtruder,0
;   layerHeight,0.2
;   topSolidLayers,6
;   bottomSolidLayers,6
;   perimeterOutlines,2
;   printPerimetersInsideOut,1
;   startPointOption,2
;   startPointOriginX,0
;   startPointOriginY,0
;   startPointOriginZ,300
;   sequentialIslands,0
;   spiralVaseMode,0
;   firstLayerHeightPercentage,100
;   firstLayerWidthPercentage,100
;   firstLayerUnderspeed,0.5
;   useRaft,0
;   raftExtruder,0
;   raftLayers,3
;   raftOffset,3
;   raftSeparationDistance,0.1
;   raftInfill,85
;   disableRaftBaseLayers,0
;   useSkirt,1
;   skirtExtruder,0
;   skirtLayers,1
;   skirtOutlines,2
;   skirtOffset,5
;   infillExtruder,0
;   externalInfillPattern,Rectilinear
;   infillPercentage,15
;   outlineOverlapPercentage,15
;   infillExtrusionWidthPercentage,100
;   minInfillLength,3
;   infillLayerInterval,1
;   randomInfillStartPoint,0
;   infillAngles,45,-45
;   generateSupport,1
;   supportExtruder,0
;   supportInfill,20
;   supportExtraInflation,0
;   denseSupportLayers,0
;   denseSupportInfill,50
;   supportLayerInterval,1
;   supportHorizontalPartOffset,0.6
;   supportUpperSeparationLayers,1
;   supportLowerSeparationLayers,1
;   supportGridSpacing,1.5
;   maxOverhangAngle,45
;   supportAngles,45
;   temperatureName,Primary Extruder
;   temperatureNumber,0
;   temperatureSetpointCount,1
;   temperatureSetpointLayers,1
;   temperatureSetpointTemperatures,190
;   temperatureStabilizeAtStartup,1
;   temperatureHeatedBed,0
;   temperatureRelayBetweenLayers,0
;   temperatureRelayBetweenLoops,0
;   fanLayers,1,3
;   fanSpeeds,0,100
;   blipFanToFullPower,0
;   adjustSpeedForCooling,1
;   minSpeedLayerTime,15
;   minCoolingSpeedSlowdown,20
;   increaseFanForCooling,0
;   minFanLayerTime,45
;   maxCoolingFanSpeed,100
;   increaseFanForBridging,0
;   bridgingFanSpeed,100
;   use5D,1
;   relativeEdistances,0
;   allowEaxisZeroing,1
;   independentExtruderAxes,0
;   includeM10123,0
;   stickySupport,1
;   detectArcs,0
;   arcReplaceG2G3,0
;   arcRadialCompensation,1
;   gcodeXoffset,0
;   gcodeYoffset,0
;   gcodeZoffset,0
;   overrideMachineDefinition,1
;   machineTypeOverride,0
;   strokeXoverride,150
;   strokeYoverride,150
;   strokeZoverride,150
;   originOffsetXoverride,0
;   originOffsetYoverride,0
;   originOffsetZoverride,0
;   homeXdirOverride,-1
;   homeYdirOverride,-1
;   homeZdirOverride,-1
;   flipXoverride,1
;   flipYoverride,-1
;   flipZoverride,1
;   startingGcode,G28 ; home all axes
;   layerChangeGcode,
;   toolChangeGcode,
;   endingGcode,M104 S0 ; turn off extruder,G28 X0  ; home X axis,G28 Y0  ; home Y axis,M84 ; disable motors
;   createX3G,0
;   celebration,0
;   celebrationSong,Random Song
;   createMB5G,0
;   postProcessing,
;   defaultSpeed,1800
;   outlineUnderspeed,0.5
;   solidInfillUnderspeed,0.8
;   supportUnderspeed,1
;   rapidXYspeed,9000
;   rapidZspeed,1200
;   minBridgingArea,50
;   bridgingExtrusionMultiplier,1
;   bridgingSpeedMultiplier,1
;   filamentDiameter,1.75
;   filamentPricePerKg,34.6
;   useMinPrintHeight,0
;   minPrintHeight,0
;   useMaxPrintHeight,0
;   maxPrintHeight,0
;   useDiaphragm,0
;   diaphragmLayerInterval,20
;   robustSlicing,1
;   mergeAllIntoSolid,0
;   onlyRetractWhenCrossingOutline,1
;   retractBetweenLayers,1
;   useRetractionMinTravel,0
;   retractionMinTravel,3
;   useRetractionOozeRate,0
;   retractionOozeRate,100
;   onlyWipeOutlines,1
;   toolChangeRetractionDistance,12
;   toolChangeExtraRestartDistance,-0.5
;   toolChangeRetractionSpeed,600
;   allowThinWallGapFill,1
;   thinWallAllowedOverlapPercentage,10
;   horizontalSizeCompensation,0
G90
M82
M106 S0
M104 S190 T0
M109 S190 T0
G28 ; home all axes
G92 E0
G1 E-5 F4998
G1 Z0.2 F1200
; layer 1, Z = 0.2
T0
; tool H0.2 W0.5
G1 X59.364 Y62.504 F9000
G1 E0 F1499
G92 E0
G1 X62.504 Y59.364 E0.1846 F900
G1 X62.78 Y59.25 E0.197
G1 X87.22 Y59.25 E1.2131
G1 X87.496 Y59.364 E1.2255
G1 X90.636 Y62.504 E1.4102
G1 X90.75 Y62.78 E1.4226
G1 X90.75 Y87.22 E2.4387
G1 X90.636 Y87.496 E2.4511
G1 X87.496 Y90.636 E2.6357
G1 X87.22 Y90.75 E2.6481
G1 X62.78 Y90.75 E3.6642
G1 X62.504 Y90.636 E3.6766
G1 X59.364 Y87.496 E3.8612
G1 X59.25 Y87.22 E3.8736
G1 X59.25 Y62.78 E4.8898
G1 X59.364 Y62.504 E4.9022
G1 X59.788 Y62.787 F9000
G92 E0
G1 X62.787 Y59.788 E0.1763 F900
G1 X62.879 Y59.75 E0.1805
G1 X87.121 Y59.75 E1.1883
G1 X87.213 Y59.788 E1.1925
G1 X90.212 Y62.787 E1.3688
G1 X90.25 Y62.879 E1.3729
G1 X90.25 Y87.121 E2.3808
G1 X90.212 Y87.213 E2.3849
G1 X87.213 Y90.212 E2.5613
G1 X87.121 Y90.25 E2.5654
G1 X62.879 Y90.25 E3.5733
G1 X62.787 Y90.212 E3.5774
G1 X59.788 Y87.213 E3.7537
G1 X59.75 Y87.121 E3.7579
G1 X59.75 Y62.879 E4.7657
G1 X59.788 Y62.787 E4.7699
G92 E0
G1 E-5 F4998
G1 X65.75 Y65.75 F9000
G1 E0 F4998
G92 E0
G1 X84.25 Y65.75 E0.7691 F675
G1 X84.25 Y84.25 E1.5383
G1 X65.75 Y84.25 E2.3074
G1 X65.75 Y65.75 E3.0766
G1 X65.25 Y65.25 F9000
G92 E0
G1 X84.75 Y65.25 E0.8107 F450
G1 X84.75 Y84.75 E1.6214
G1 X65.25 Y84.75 E2.4321
G1 X65.25 Y65.25 E3.2429
G1 X66.175 Y66.806 F9000
G92 E0
G1 X66.806 Y66.175 E0.0371 F720
G1 X67.513 Y66.175 E0.0665
G1 X66.175 Y67.513 E0.1452
G1 X66.175 Y68.22 E0.1746
G1 X68.22 Y66.175 E0.2948
G1 X68.927 Y66.175 E0.3242
G1 X66.175 Y68.927 E0.486
G1 X66.175 Y69.634 E0.5154
G1 X69.634 Y66.175 E0.7188
G1 X70.342 Y66.175 E0.7482
G1 X66.175 Y70.342 E0.9932
G1 X66.175 Y71.049 E1.0226
G1 X71.049 Y66.175 E1.3092
G1 X71.756 Y66.175 E1.3386
G1 X66.175 Y71.756 E1.6667
G1 X66.175 Y72.463 E1.6961
G1 X72.463 Y66.175 E2.0658
G1 X73.17 Y66.175 E2.0952
G1 X66.175 Y73.17 E2.5065
G1 X66.175 Y73.877 E2.5358
G1 X73.877 Y66.175 E2.9887
G1 X74.584 Y66.175 E3.0181
G1 X66.175 Y74.584 E3.5125
G1 X66.175 Y75.291 E3.5419
G1 X75.291 Y66.175 E4.0779
G1 X75.998 Y66.175 E4.1073
G1 X66.175 Y75.998 E4.6849
G1 X66.175 Y76.705 E4.7143
G1 X76.705 Y66.175 E5.3334
G1 X77.413 Y66.175 E5.3628
G1 X66.175 Y77.413 E6.0236
G1 X66.175 Y78.12 E6.053
G1 X78.12 Y66.175 E6.7553
G1 X78.827 Y66.175 E6.7847
G1 X66.175 Y78.827 E7.5285
G1 X66.175 Y79.534 E7.5579
G1 X79.534 Y66.175 E8.3434
G1 X80.241 Y66.175 E8.3728
G1 X66.175 Y80.241 E9.1998
G1 X66.175 Y80.948 E9.2292
G1 X80.948 Y66.175 E10.0978
G1 X81.655 Y66.175 E10.1272
G1 X66.175 Y81.655 E11.0374
G1 X66.175 Y82.362 E11.0668
G1 X82.362 Y66.175 E12.0185
G1 X83.069 Y66.175 E12.0479
G1 X66.175 Y83.069 E13.0413
G1 X66.175 Y83.777 E13.0707
G1 X83.777 Y66.175 E14.1056
G1 X83.825 Y66.175 E14.1076
G1 X83.825 Y66.834 E14.135
G1 X66.834 Y83.825 E15.134
G1 X67.541 Y83.825 E15.1634
G1 X83.825 Y67.541 E16.1208
G1 X83.825 Y68.248 E16.1502
G1 X68.248 Y83.825 E17.0661
G1 X68.955 Y83.825 E17.0955
G1 X83.825 Y68.955 E17.9698
G1 X83.825 Y69.662 E17.9992
G1 X69.662 Y83.825 E18.8319
G1 X70.369 Y83.825 E18.8613
G1 X83.825 Y70.369 E19.6525
G1 X83.825 Y71.076 E19.6819
G1 X71.076 Y83.825 E20.4315
G1 X71.783 Y83.825 E20.4609
G1 X83.825 Y71.783 E21.1689
G1 X83.825 Y72.49 E21.1983
G1 X72.49 Y83.825 E21.8647
G1 X73.198 Y83.825 E21.8941
G1 X83.825 Y73.198 E22.5189
G1 X83.825 Y73.905 E22.5483
G1 X73.905 Y83.825 E23.1316
G1 X74.612 Y83.825 E23.161
G1 X83.825 Y74.612 E23.7027
G1 X83.825 Y75.319 E23.7321
G1 X75.319 Y83.825 E24.2322
G1 X76.026 Y83.825 E24.2616
G1 X83.825 Y76.026 E24.7202
G1 X83.825 Y76.733 E24.7496
G1 X76.733 Y83.825 E25.1666
G1 X77.44 Y83.825 E25.1959
G1 X83.825 Y77.44 E25.5713
G1 X83.825 Y78.147 E25.6007
G1 X78.147 Y83.825 E25.9346
G1 X78.854 Y83.825 E25.964
G1 X83.825 Y78.854 E26.2562
G1 X83.825 Y79.562 E26.2856
G1 X79.562 Y83.825 E26.5363
G1 X80.269 Y83.825 E26.5657
G1 X83.825 Y80.269 E26.7748
G1 X83.825 Y80.976 E26.8042
G1 X80.976 Y83.825 E26.9717
G1 X81.683 Y83.825 E27.0011
G1 X83.825 Y81.683 E27.1271
G1 X83.825 Y82.39 E27.1565
G1 X82.39 Y83.825 E27.2408
G1 X83.097 Y83.825 E27.2702
G1 X83.825 Y83.097 E27.313
G1 X83.825 Y83.804 E27.3424
G1 X83.804 Y83.825 E27.3436
G1 X83.825 Y83.825 E27.3445
G1 X83.825 Y83.804 E27.3454
G92 E0
G1 E-5 F4998
; layer 2, Z = 0.4
G1 X84.25 Y84.25 F9000
G1 Z0.4 F1200
G1 E0 F4998
G92 E0
G1 X65.75 Y84.25 E0.7691 F1350
G1 X65.75 Y65.75 E1.5383
G1 X84.25 Y65.75 E2.3074
G1 X84.25 Y84.25 E3.0766
G1 X84.75 Y84.75 F9000
G92 E0
G1 X65.25 Y84.75 E0.8107 F900
G1 X65.25 Y65.25 E1.6214
G1 X84.75 Y65.25 E2.4321
G1 X84.75 Y84.75 E3.2429
G1 X66.196 Y83.825 F9000
G92 E0
G1 X66.175 Y83.825 E0.0009 F1440
G1 X66.175 Y83.804 E0.0017
G1 X66.196 Y83.825 E0.003
G1 X66.903 Y83.825 E0.0324
G1 X66.175 Y83.097 E0.0751
G1 X66.175 Y82.39 E0.1045
G1 X67.61 Y83.825 E0.1889
G1 X68.317 Y83.825 E0.2183
G1 X66.175 Y81.683 E0.3443
G1 X66.175 Y80.976 E0.3737
G1 X69.024 Y83.825 E0.5412
G1 X69.731 Y83.825 E0.5706
G1 X66.175 Y80.269 E0.7797
G1 X66.175 Y79.562 E0.8091
G1 X70.438 Y83.825 E1.0598
G1 X71.146 Y83.825 E1.0892
G1 X66.175 Y78.854 E1.3814
G1 X66.175 Y78.147 E1.4108
G1 X71.853 Y83.825 E1.7446
G1 X72.56 Y83.825 E1.774
G1 X66.175 Y77.44 E2.1494
G1 X66.175 Y76.733 E2.1788
G1 X73.267 Y83.825 E2.5958
G1 X73.974 Y83.825 E2.6252
G1 X66.175 Y76.026 E3.0837
G1 X66.175 Y75.319 E3.1131
G1 X74.681 Y83.825 E3.6133
G1 X75.388 Y83.825 E3.6427
G1 X66.175 Y74.612 E4.1844
G1 X66.175 Y73.905 E4.2138
G1 X76.095 Y83.825 E4.797
G1 X76.802 Y83.825 E4.8264
G1 X66.175 Y73.198 E5.4513
G1 X66.175 Y72.49 E5.4807
G1 X77.51 Y83.825 E6.1471
G1 X78.217 Y83.825 E6.1765
G1 X66.175 Y71.783 E6.8845
G1 X66.175 Y71.076 E6.9139
G1 X78.924 Y83.825 E7.6635
G1 X79.631 Y83.825 E7.6929
G1 X66.175 Y70.369 E8.484
G1 X66.175 Y69.662 E8.5134
G1 X80.338 Y83.825 E9.3462
G1 X81.045 Y83.825 E9.3756
G1 X66.175 Y68.955 E10.2499
G1 X66.175 Y68.248 E10.2793
G1 X81.752 Y83.825 E11.1951
G1 X82.459 Y83.825 E11.2245
G1 X66.175 Y67.541 E12.182
G1 X66.175 Y66.834 E12.2114
G1 X83.166 Y83.825 E13.2104
G1 X83.825 Y83.825 E13.2378
G1 X83.825 Y83.777 E13.2398
G1 X66.223 Y66.175 E14.2747
G1 X66.931 Y66.175 E14.3041
G1 X83.825 Y83.069 E15.2974
G1 X83.825 Y82.362 E15.3268
G1 X67.638 Y66.175 E16.2786
G1 X68.345 Y66.175 E16.308
G1 X83.825 Y81.655 E17.2182
G1 X83.825 Y80.948 E17.2476
G1 X69.052 Y66.175 E18.1162
G1 X69.759 Y66.175 E18.1456
G1 X83.825 Y80.241 E18.9726
G1 X83.825 Y79.534 E19.002
G1 X70.466 Y66.175 E19.7874
G1 X71.173 Y66.175 E19.8168
G1 X83.825 Y78.827 E20.5607
G1 X83.825 Y78.12 E20.5901
G1 X71.88 Y66.175 E21.2924
G1 X72.587 Y66.175 E21.3218
G1 X83.825 Y77.413 E21.9825
G1 X83.825 Y76.705 E22.0119
G1 X73.295 Y66.175 E22.6311
G1 X74.002 Y66.175 E22.6605
G1 X83.825 Y75.998 E23.2381
G1 X83.825 Y75.291 E23.2675
G1 X74.709 Y66.175 E23.8035
G1 X75.416 Y66.175 E23.8328
G1 X83.825 Y74.584 E24.3273
G1 X83.825 Y73.877 E24.3567
G1 X76.123 Y66.175 E24.8095
G1 X76.83 Y66.175 E24.8389
G1 X83.825 Y73.17 E25.2502
G1 X83.825 Y72.463 E25.2796
G1 X77.537 Y66.175 E25.6493
G1 X78.244 Y66.175 E25.6787
G1 X83.825 Y71.756 E26.0068
G1 X83.825 Y71.049 E26.0362
G1 X78.951 Y66.175 E26.3228
G1 X79.658 Y66.175 E26.3522
G1 X83.825 Y70.342 E26.5971
G1 X83.825 Y69.634 E26.6265
G1 X80.366 Y66.175 E26.8299
G1 X81.073 Y66.175 E26.8593
G1 X83.825 Y68.927 E27.0212
G1 X83.825 Y68.22 E27.0506
G1 X81.78 Y66.175 E27.1708
G1 X82.487 Y66.175 E27.2002
G1 X83.825 Y67.513 E27.2789
G1 X83.825 Y66.806 E27.3083
G1 X83.194 Y66.175 E27.3454
G92 E0
G1 E-5 F4998
; layer 3, Z = 0.6
M106 S255
G1 X84.25 Y65.75 F9000
G1 Z0.6 F1200
G1 E0 F4998
G92 E0
G1 X84.25 Y84.25 E0.7691 F1350
G1 X65.75 Y84.25 E1.5383
G1 X65.75 Y65.75 E2.3074
G1 X84.25 Y65.75 E3.0766
G1 X84.75 Y65.25 F9000
G92 E0
G1 X84.75 Y84.75 E0.8107 F900
G1 X65.25 Y84.75 E1.6214
G1 X65.25 Y65.25 E2.4321
G1 X84.75 Y65.25 E3.2429
G1 X83.825 Y83.804 F9000
G92 E0
G1 X83.825 Y83.825 E0.0009 F1440
G1 X83.804 Y83.825 E0.0017
G1 X83.825 Y83.804 E0.003
G1 X83.825 Y83.097 E0.0324
G1 X83.097 Y83.825 E0.0751
G1 X82.39 Y83.825 E0.1045
G1 X83.825 Y82.39 E0.1889
G1 X83.825 Y81.683 E0.2183
G1 X81.683 Y83.825 E0.3443
G1 X80.976 Y83.825 E0.3737
G1 X83.825 Y80.976 E0.5412
G1 X83.825 Y80.269 E0.5706
G1 X80.269 Y83.825 E0.7797
G1 X79.562 Y83.825 E0.8091
G1 X83.825 Y79.562 E1.0598
G1 X83.825 Y78.854 E1.0892
G1 X78.854 Y83.825 E1.3814
G1 X78.147 Y83.825 E1.4108
G1 X83.825 Y78.147 E1.7446
G1 X83.825 Y77.44 E1.774
G1 X77.44 Y83.825 E2.1494
G1 X76.733 Y83.825 E2.1788
G1 X83.825 Y76.733 E2.5958
G1 X83.825 Y76.026 E2.6252
G1 X76.026 Y83.825 E3.0837
G1 X75.319 Y83.825 E3.1131
G1 X83.825 Y75.319 E3.6133
G1 X83.825 Y74.612 E3.6427
G1 X74.612 Y83.825 E4.1844
G1 X73.905 Y83.825 E4.2138
G1 X83.825 Y73.905 E4.797
G1 X83.825 Y73.198 E4.8264
G1 X73.198 Y83.825 E5.4513
G1 X72.49 Y83.825 E5.4807
G1 X83.825 Y72.49 E6.1471
G1 X83.825 Y71.783 E6.1765
G1 X71.783 Y83.825 E6.8845
G1 X71.076 Y83.825 E6.9139
G1 X83.825 Y71.076 E7.6635
G1 X83.825 Y70.369 E7.6929
G1 X70.369 Y83.825 E8.484
G1 X69.662 Y83.825 E8.5134
G1 X83.825 Y69.662 E9.3462
G1 X83.825 Y68.955 E9.3756
G1 X68.955 Y83.825 E10.2499
G1 X68.248 Y83.825 E10.2793
G1 X83.825 Y68.248 E11.1951
G1 X83.825 Y67.541 E11.2245
G1 X67.541 Y83.825 E12.182
G1 X66.834 Y83.825 E12.2114
G1 X83.825 Y66.834 E13.2104
G1 X83.825 Y66.175 E13.2378
G1 X83.777 Y66.175 E13.2398
G1 X66.175 Y83.777 E14.2747
G1 X66.175 Y83.069 E14.3041
G1 X83.069 Y66.175 E15.2974
G1 X82.362 Y66.175 E15.3268
G1 X66.175 Y82.362 E16.2786
G1 X66.175 Y81.655 E16.308
G1 X81.655 Y66.175 E17.2182
G1 X80.948 Y66.175 E17.2476
G1 X66.175 Y80.948 E18.1162
G1 X66.175 Y80.241 E18.1456
G1 X80.241 Y66.175 E18.9726
G1 X79.534 Y66.175 E19.002
G1 X66.175 Y79.534 E19.7874
G1 X66.175 Y78.827 E19.8168
G1 X78.827 Y66.175 E20.5607
G1 X78.12 Y66.175 E20.5901
G1 X66.175 Y78.12 E21.2924
G1 X66.175 Y77.413 E21.3218
G1 X77.413 Y66.175 E21.9825
G1 X76.705 Y66.175 E22.0119
G1 X66.175 Y76.705 E22.6311
G1 X66.175 Y75.998 E22.6605
G1 X75.998 Y66.175 E23.2381
G1 X75.291 Y66.175 E23.2675
G1 X66.175 Y75.291 E23.8035
G1 X66.175 Y74.584 E23.8328
G1 X74.584 Y66.175 E24.3273
G1 X73.877 Y66.175 E24.3567
G1 X66.175 Y73.877 E24.8095
G1 X66.175 Y73.17 E24.8389
G1 X73.17 Y66.175 E25.2502
G1 X72.463 Y66.175 E25.2796
G1 X66.175 Y72.463 E25.6493
G1 X66.175 Y71.756 E25.6787
G1 X71.756 Y66.175 E26.0068
G1 X71.049 Y66.175 E26.0362
G1 X66.175 Y71.049 E26.3228
G1 X66.175 Y70.342 E26.3522
G1 X70.342 Y66.175 E26.5971
G1 X69.634 Y66.175 E26.6265
G1 X66.175 Y69.634 E26.8299
G1 X66.175 Y68.927 E26.8593
G1 X68.927 Y66.175 E27.0212
G1 X68.22 Y66.175 E27.0506
G1 X66.175 Y68.22 E27.1708
G1 X66.175 Y67.513 E27.2002
G1 X67.513 Y66.175 E27.2789
G1 X66.806 Y66.175 E27.3083
G1 X66.175 Y66.806 E27.3454
G92 E0
G1 E-5 F4998
; layer 4, Z = 0.8
G1 X65.75 Y65.75 F9000
G1 Z0.8 F1200
G1 E0 F4998
G92 E0
G1 X84.25 Y65.75 E0.7691 F1350
G1 X84.25 Y84.25 E1.5383
G1 X65.75 Y84.25 E2.3074
G1 X65.75 Y65.75 E3.0766
G1 X65.25 Y65.25 F9000
G92 E0
G1 X84.75 Y65.25 E0.8107 F900
G1 X84.75 Y84.75 E1.6214
G1 X65.25 Y84.75 E2.4321
G1 X65.25 Y65.25 E3.2429
G1 X83.194 Y66.175 F9000
G92 E0
G1 X83.825 Y66.806 E0.0371 F1440
G1 X83.825 Y67.513 E0.0665
G1 X82.487 Y66.175 E0.1452
G1 X81.78 Y66.175 E0.1746
G1 X83.825 Y68.22 E0.2948
G1 X83.825 Y68.927 E0.3242
G1 X81.073 Y66.175 E0.486
G1 X80.366 Y66.175 E0.5154
G1 X83.825 Y69.634 E0.7188
G1 X83.825 Y70.342 E0.7482
G1 X79.658 Y66.175 E0.9932
G1 X78.951 Y66.175 E1.0226
G1 X83.825 Y71.049 E1.3092
G1 X83.825 Y71.756 E1.3386
G1 X78.244 Y66.175 E1.6667
G1 X77.537 Y66.175 E1.6961
G1 X83.825 Y72.463 E2.0658
G1 X83.825 Y73.17 E2.0952
G1 X76.83 Y66.175 E2.5065
G1 X76.123 Y66.175 E2.5358
G1 X83.825 Y73.877 E2.9887
G1 X83.825 Y74.584 E3.0181
G1 X75.416 Y66.175 E3.5125
G1 X74.709 Y66.175 E3.5419
G1 X83.825 Y75.291 E4.0779
G1 X83.825 Y75.998 E4.1073
G1 X74.002 Y66.175 E4.6849
G1 X73.295 Y66.175 E4.7143
G1 X83.825 Y76.705 E5.3334
G1 X83.825 Y77.413 E5.3628
G1 X72.587 Y66.175 E6.0236
G1 X71.88 Y66.175 E6.053
