; G-Code generated by Simplify3D(R) Version 2.2.2
; Apr 6, 2015 at 4:07:34 
; Settings Summary
;   processName,NEO
;   applyToModels,010_soporteendstopX
;   profileLabel,Robotica.fff
;   printMaterial,PLA
;   printQuality,High
;   extruderName,Primary Extruder
;   extruderToolheadNumber,0
;   extruderDiameter,0.5
;   extruderAutoWidth,0
;   extruderWidth,0.5
;   extrusionMultiplier,1
;   extruderUseRetract,1
;   extruderRetractionDistance,5
;   extruderExtraRestartDistance,0
;   extruderRetractionZLift,0
;   extruderRetractionSpeed,4998
;   extruderUseCoasting,0
;   extruderCoastingDistance,0.2
;   extruderUseWipe,0
;   extruderWipeDistance,5
;   primaryExtruder,0
;   layerHeight,0.2
;   topSolidLayers,6
;   bottomSolidLayers,6
;   perimeterOutlines,2
;   printPerimetersInsideOut,1
;   startPointOption,2
;   startPointOriginX,0
;   startPointOriginY,0
;   startPointOriginZ,300
;   sequentialIslands,0
;   spiralVaseMode,0
;   firstLayerHeightPercentage,100
;   firstLayerWidthPercentage,100
;   firstLayerUnderspeed,0.5
;   useRaft,0
;   raftExtruder,0
;   raftLayers,3
;   raftOffset,3
;   raftSeparationDistance,0.1
;   raftInfill,85
;   disableRaftBaseLayers,0
;   useSkirt,1
;   skirtExtruder,0
;   skirtLayers,1
;   skirtOutlines,2
;   skirtOffset,5
;   infillExtruder,0
;   externalInfillPattern,Rectilinear
;   infillPercentage,15
;   outlineOverlapPercentage,15
;   infillExtrusionWidthPercentage,100
;   minInfillLength,3
;   infillLayerInterval,1
;   randomInfillStartPoint,0
;   infillAngles,45,-45
;   generateSupport,1
;   supportExtruder,0
;   supportInfill,20
;   supportExtraInflation,0
;   denseSupportLayers,0
;   denseSupportInfill,50
;   supportLayerInterval,1
;   supportHorizontalPartOffset,0.6
;   supportUpperSeparationLayers,1
;   supportLowerSeparationLayers,1
;   supportGridSpacing,1.5
;   maxOverhangAngle,45
;   supportAngles,45
;   temperatureName,Primary Extruder
;   temperatureNumber,0
;   temperatureSetpointCount,1
;   temperatureSetpointLayers,1
;   temperatureSetpointTemperatures,190
;   temperatureStabilizeAtStartup,1
;   temperatureHeatedBed,0
;   temperatureRelayBetweenLayers,0
;   temperatureRelayBetweenLoops,0
;   fanLayers,1,3
;   fanSpeeds,0,100
;   blipFanToFullPower,0
;   adjustSpeedForCooling,1
;   minSpeedLayerTime,15
;   minCoolingSpeedSlowdown,20
;   increaseFanForCooling,0
;   minFanLayerTime,45
;   maxCoolingFanSpeed,100
;   increaseFanForBridging,0
;   bridgingFanSpeed,100
;   use5D,1
;   relativeEdistances,0
;   allowEaxisZeroing,1
;   independentExtruderAxes,0
;   includeM10123,0
;   stickySupport,1
;   detectArcs,0
;   arcReplaceG2G3,0
;   arcRadialCompensation,1
;   gcodeXoffset,0
;   gcodeYoffset,0
;   gcodeZoffset,0
;   overrideMachineDefinition,1
;   machineTypeOverride,0
;   strokeXoverride,150
;   strokeYoverride,150
;   strokeZoverride,150
;   originOffsetXoverride,0
;   originOffsetYoverride,0
;   originOffsetZoverride,0
;   homeXdirOverride,-1
;   homeYdirOverride,-1
;   homeZdirOverride,-1
;   flipXoverride,1
;   flipYoverride,-1
;   flipZoverride,1
;   startingGcode,G28 ; home all axes
;   layerChangeGcode,
;   toolChangeGcode,
;   endingGcode,M104 S0 ; turn off extruder,G28 X0  ; home X axis,G28 Y0  ; home Y axis,M84 ; disable motors
;   createX3G,0
;   celebration,0
;   celebrationSong,Random Song
;   createMB5G,0
;   postProcessing,
;   defaultSpeed,1800
;   outlineUnderspeed,0.5
;   solidInfillUnderspeed,0.8
;   supportUnderspeed,1
;   rapidXYspeed,9000
;   rapidZspeed,1200
;   minBridgingArea,50
;   bridgingExtrusionMultiplier,1
;   bridgingSpeedMultiplier,1
;   filamentDiameter,1.75
;   filamentPricePerKg,34.6
;   useMinPrintHeight,0
;   minPrintHeight,0
;   useMaxPrintHeight,0
;   maxPrintHeight,0
;   useDiaphragm,0
;   diaphragmLayerInterval,20
;   robustSlicing,1
;   mergeAllIntoSolid,0
;   onlyRetractWhenCrossingOutline,1
;   retractBetweenLayers,1
;   useRetractionMinTravel,0
;   retractionMinTravel,3
;   useRetractionOozeRate,0
;   retractionOozeRate,100
;   onlyWipeOutlines,1
;   toolChangeRetractionDistance,12
;   toolChangeExtraRestartDistance,-0.5
;   toolChangeRetractionSpeed,600
;   allowThinWallGapFill,1
;   thinWallAllowedOverlapPercentage,10
;   horizontalSizeCompensation,0
G90
M82
M106 S0
M104 S190 T0
M109 S190 T0
G28 ; home all axes
G92 E0
G1 E-5 F4998
G1 Z0.2 F1200
; layer 1, Z = 0.2
T0
; tool H0.2 W0.5
G1 X65.819 Y56.887 F9000
G1 E0 F1499
G92 E0
G1 X65.838 Y56.867 E0.0011 F900
G1 X66.117 Y56.587 E0.0176
G1 X66.137 Y56.569 E0.0187
G1 X66.741 Y56.047 E0.0519
G1 X66.763 Y56.03 E0.053
G1 X67.08 Y55.795 E0.0694
G1 X67.102 Y55.779 E0.0706
G1 X67.776 Y55.352 E0.1038
G1 X67.8 Y55.338 E0.1049
G1 X68.148 Y55.151 E0.1213
G1 X68.173 Y55.139 E0.1225
G1 X68.902 Y54.815 E0.1557
G1 X68.928 Y54.805 E0.1568
G1 X69.299 Y54.671 E0.1732
G1 X69.326 Y54.663 E0.1744
G1 X70.095 Y54.449 E0.2076
G1 X70.121 Y54.442 E0.2087
G1 X70.509 Y54.365 E0.2251
G1 X70.536 Y54.36 E0.2263
G1 X71.227 Y54.274 E0.2552
G1 X71.25 Y54.272 E0.2562
G1 X71.584 Y54.251 E0.2701
G1 X71.608 Y54.25 E0.2711
G1 X78.392 Y54.25 E0.5532
G1 X78.416 Y54.251 E0.5541
G1 X78.75 Y54.272 E0.5681
G1 X78.773 Y54.274 E0.569
G1 X79.464 Y54.36 E0.598
G1 X79.491 Y54.365 E0.5991
G1 X79.879 Y54.442 E0.6155
G1 X79.905 Y54.449 E0.6167
G1 X80.674 Y54.663 E0.6499
G1 X80.701 Y54.671 E0.651
G1 X81.072 Y54.805 E0.6674
G1 X81.098 Y54.815 E0.6686
G1 X81.827 Y55.139 E0.7018
G1 X81.852 Y55.151 E0.7029
G1 X82.2 Y55.338 E0.7193
G1 X82.224 Y55.352 E0.7205
G1 X82.898 Y55.779 E0.7536
G1 X82.92 Y55.795 E0.7548
G1 X83.237 Y56.03 E0.7712
G1 X83.259 Y56.047 E0.7724
G1 X83.863 Y56.569 E0.8055
G1 X83.883 Y56.587 E0.8067
G1 X84.163 Y56.867 E0.8231
G1 X84.181 Y56.887 E0.8242
G1 X84.703 Y57.491 E0.8574
G1 X84.72 Y57.513 E0.8586
G1 X84.955 Y57.83 E0.875
G1 X84.971 Y57.852 E0.8761
G1 X85.398 Y58.526 E0.9093
G1 X85.412 Y58.55 E0.9105
G1 X85.599 Y58.898 E0.9269
G1 X85.611 Y58.923 E0.928
G1 X85.935 Y59.652 E0.9612
G1 X85.945 Y59.678 E0.9624
G1 X86.079 Y60.049 E0.9788
G1 X86.087 Y60.076 E0.9799
G1 X86.301 Y60.845 E1.0131
G1 X86.308 Y60.871 E1.0142
G1 X86.385 Y61.258 E1.0307
G1 X86.39 Y61.286 E1.0318
G1 X86.476 Y61.977 E1.0607
G1 X86.478 Y62 E1.0617
G1 X86.499 Y62.334 E1.0756
G1 X86.5 Y62.358 E1.0766
G1 X86.5 Y87.641 E2.1278
G1 X86.499 Y87.665 E2.1288
G1 X86.479 Y87.999 E2.1427
G1 X86.476 Y88.022 E2.1437
G1 X86.39 Y88.708 E2.1724
G1 X86.386 Y88.735 E2.1735
G1 X86.309 Y89.118 E2.1898
G1 X86.303 Y89.145 E2.1909
G1 X86.091 Y89.911 E2.224
G1 X86.083 Y89.937 E2.2251
G1 X85.95 Y90.308 E2.2415
G1 X85.94 Y90.333 E2.2426
G1 X85.617 Y91.063 E2.2758
G1 X85.605 Y91.088 E2.2769
G1 X85.42 Y91.436 E2.2933
G1 X85.406 Y91.46 E2.2945
G1 X84.98 Y92.135 E2.3277
G1 X84.964 Y92.157 E2.3288
G1 X84.729 Y92.475 E2.3452
G1 X84.712 Y92.496 E2.3464
G1 X84.192 Y93.102 E2.3796
G1 X84.173 Y93.122 E2.3807
G1 X83.894 Y93.402 E2.3971
G1 X83.874 Y93.42 E2.3983
G1 X83.265 Y93.948 E2.4318
G1 X83.243 Y93.965 E2.4329
G1 X82.923 Y94.204 E2.4495
G1 X82.9 Y94.22 E2.4507
G1 X82.224 Y94.648 E2.484
G1 X82.2 Y94.662 E2.4851
G1 X81.852 Y94.849 E2.5015
G1 X81.827 Y94.861 E2.5027
G1 X81.098 Y95.185 E2.5359
G1 X81.072 Y95.195 E2.537
G1 X80.701 Y95.329 E2.5534
G1 X80.674 Y95.337 E2.5546
G1 X79.905 Y95.551 E2.5878
G1 X79.879 Y95.558 E2.5889
G1 X79.492 Y95.635 E2.6053
G1 X79.464 Y95.64 E2.6065
G1 X78.773 Y95.726 E2.6354
G1 X78.75 Y95.728 E2.6364
G1 X78.416 Y95.749 E2.6503
G1 X78.392 Y95.75 E2.6513
G1 X74.608 Y95.75 E2.8086
G1 X74.584 Y95.749 E2.8096
G1 X74.25 Y95.728 E2.8235
G1 X74.227 Y95.726 E2.8245
G1 X73.536 Y95.64 E2.8535
G1 X73.508 Y95.635 E2.8546
G1 X73.121 Y95.558 E2.871
G1 X73.095 Y95.551 E2.8722
G1 X72.326 Y95.337 E2.9054
G1 X72.299 Y95.329 E2.9065
G1 X71.928 Y95.195 E2.9229
G1 X71.902 Y95.185 E2.9241
G1 X71.173 Y94.861 E2.9572
G1 X71.148 Y94.849 E2.9584
G1 X70.8 Y94.662 E2.9748
G1 X70.776 Y94.648 E2.9759
G1 X70.102 Y94.221 E3.0091
G1 X70.08 Y94.205 E3.0103
G1 X69.763 Y93.97 E3.0267
G1 X69.741 Y93.953 E3.0278
G1 X69.137 Y93.431 E3.061
G1 X69.117 Y93.413 E3.0622
G1 X68.837 Y93.133 E3.0786
G1 X68.819 Y93.113 E3.0797
G1 X68.302 Y92.515 E3.1126
G1 X68.285 Y92.493 E3.1137
G1 X68.052 Y92.181 E3.1299
G1 X68.037 Y92.158 E3.1311
G1 X67.61 Y91.487 E3.1642
G1 X67.596 Y91.463 E3.1653
G1 X67.409 Y91.115 E3.1817
G1 X67.397 Y91.091 E3.1829
G1 X67.282 Y90.835 E3.1945
G1 X67.102 Y90.721 E3.2034
G1 X67.08 Y90.705 E3.2045
G1 X66.763 Y90.47 E3.2209
G1 X66.741 Y90.453 E3.2221
G1 X66.137 Y89.931 E3.2553
G1 X66.117 Y89.913 E3.2564
G1 X65.838 Y89.633 E3.2728
G1 X65.819 Y89.613 E3.274
G1 X65.297 Y89.009 E3.3071
G1 X65.28 Y88.987 E3.3083
G1 X65.045 Y88.67 E3.3247
G1 X65.029 Y88.648 E3.3258
G1 X64.602 Y87.974 E3.359
G1 X64.588 Y87.95 E3.3602
G1 X64.401 Y87.602 E3.3766
G1 X64.389 Y87.577 E3.3777
G1 X64.065 Y86.848 E3.4109
G1 X64.055 Y86.822 E3.4121
G1 X63.921 Y86.451 E3.4285
G1 X63.913 Y86.424 E3.4296
G1 X63.699 Y85.655 E3.4628
G1 X63.692 Y85.629 E3.464
G1 X63.615 Y85.241 E3.4804
G1 X63.61 Y85.214 E3.4815
G1 X63.524 Y84.523 E3.5105
G1 X63.522 Y84.5 E3.5114
G1 X63.501 Y84.166 E3.5254
G1 X63.5 Y84.142 E3.5263
G1 X63.5 Y62.36 E4.4319
G1 X63.5 Y62.337 E4.4329
G1 X63.521 Y62.002 E4.4468
G1 X63.523 Y61.979 E4.4478
G1 X63.61 Y61.286 E4.4769
G1 X63.615 Y61.259 E4.478
G1 X63.692 Y60.871 E4.4944
G1 X63.699 Y60.845 E4.4956
G1 X63.913 Y60.076 E4.5288
G1 X63.921 Y60.049 E4.5299
G1 X64.055 Y59.678 E4.5463
G1 X64.065 Y59.652 E4.5475
G1 X64.389 Y58.923 E4.5806
G1 X64.401 Y58.898 E4.5818
G1 X64.588 Y58.55 E4.5982
G1 X64.602 Y58.526 E4.5993
G1 X65.029 Y57.852 E4.6325
G1 X65.045 Y57.83 E4.6337
G1 X65.28 Y57.513 E4.6501
G1 X65.297 Y57.491 E4.6512
G1 X65.819 Y56.887 E4.6844
G1 X66.191 Y57.22 F9000
G92 E0
G1 X66.198 Y57.214 E0.0004 F900
G1 X66.464 Y56.947 E0.016
G1 X66.47 Y56.941 E0.0164
G1 X67.061 Y56.432 E0.0488
G1 X67.068 Y56.426 E0.0492
G1 X67.37 Y56.202 E0.0649
G1 X67.378 Y56.196 E0.0652
G1 X68.036 Y55.779 E0.0977
G1 X68.044 Y55.774 E0.0981
G1 X68.376 Y55.596 E0.1137
G1 X68.384 Y55.592 E0.1141
G1 X69.097 Y55.276 E0.1465
G1 X69.106 Y55.272 E0.1469
G1 X69.46 Y55.145 E0.1625
G1 X69.469 Y55.142 E0.1629
G1 X70.22 Y54.933 E0.1953
G1 X70.229 Y54.931 E0.1957
G1 X70.598 Y54.857 E0.2114
G1 X70.607 Y54.855 E0.2118
G1 X71.281 Y54.771 E0.24
G1 X71.289 Y54.77 E0.2403
G1 X71.608 Y54.75 E0.2536
G1 X71.615 Y54.75 E0.2539
G1 X78.385 Y54.75 E0.5354
G1 X78.392 Y54.75 E0.5357
G1 X78.711 Y54.77 E0.549
G1 X78.719 Y54.771 E0.5493
G1 X79.393 Y54.855 E0.5775
G1 X79.402 Y54.857 E0.5779
G1 X79.771 Y54.931 E0.5936
G1 X79.78 Y54.933 E0.5939
G1 X80.531 Y55.142 E0.6264
G1 X80.54 Y55.145 E0.6268
G1 X80.894 Y55.272 E0.6424
G1 X80.903 Y55.276 E0.6428
G1 X81.616 Y55.592 E0.6752
G1 X81.624 Y55.596 E0.6756
G1 X81.956 Y55.774 E0.6912
G1 X81.964 Y55.779 E0.6916
G1 X82.622 Y56.196 E0.724
G1 X82.63 Y56.202 E0.7244
G1 X82.932 Y56.426 E0.7401
G1 X82.939 Y56.432 E0.7405
G1 X83.53 Y56.941 E0.7729
G1 X83.536 Y56.947 E0.7733
G1 X83.802 Y57.214 E0.7889
G1 X83.809 Y57.22 E0.7893
G1 X84.318 Y57.811 E0.8217
G1 X84.324 Y57.818 E0.8221
G1 X84.548 Y58.12 E0.8377
G1 X84.554 Y58.128 E0.8381
G1 X84.971 Y58.786 E0.8706
G1 X84.976 Y58.794 E0.8709
G1 X85.154 Y59.126 E0.8866
G1 X85.158 Y59.134 E0.887
G1 X85.474 Y59.847 E0.9194
G1 X85.478 Y59.856 E0.9198
G1 X85.605 Y60.21 E0.9354
G1 X85.608 Y60.219 E0.9358
G1 X85.817 Y60.97 E0.9682
G1 X85.819 Y60.979 E0.9686
G1 X85.893 Y61.348 E0.9843
G1 X85.895 Y61.357 E0.9846
G1 X85.979 Y62.031 E1.0129
G1 X85.98 Y62.039 E1.0132
G1 X86 Y62.358 E1.0265
G1 X86 Y62.365 E1.0268
G1 X86 Y87.634 E2.0773
G1 X86 Y87.641 E2.0777
G1 X85.98 Y87.96 E2.091
G1 X85.979 Y87.968 E2.0913
G1 X85.895 Y88.637 E2.1193
G1 X85.894 Y88.646 E2.1197
G1 X85.821 Y89.011 E2.1352
G1 X85.819 Y89.02 E2.1356
G1 X85.612 Y89.769 E2.1678
G1 X85.609 Y89.777 E2.1682
G1 X85.483 Y90.131 E2.1838
G1 X85.479 Y90.139 E2.1842
G1 X85.164 Y90.852 E2.2166
G1 X85.16 Y90.86 E2.217
G1 X84.983 Y91.193 E2.2327
G1 X84.978 Y91.201 E2.233
G1 X84.562 Y91.86 E2.2655
G1 X84.556 Y91.868 E2.2658
G1 X84.333 Y92.17 E2.2815
G1 X84.327 Y92.177 E2.2819
G1 X83.819 Y92.769 E2.3143
G1 X83.812 Y92.775 E2.3147
G1 X83.547 Y93.042 E2.3303
G1 X83.54 Y93.048 E2.3307
G1 X82.945 Y93.564 E2.3634
G1 X82.938 Y93.57 E2.3638
G1 X82.632 Y93.797 E2.3797
G1 X82.624 Y93.802 E2.3801
G1 X81.964 Y94.221 E2.4126
G1 X81.956 Y94.226 E2.413
G1 X81.624 Y94.404 E2.4286
G1 X81.616 Y94.408 E2.429
G1 X80.903 Y94.724 E2.4614
G1 X80.894 Y94.728 E2.4618
G1 X80.54 Y94.855 E2.4774
G1 X80.531 Y94.858 E2.4778
G1 X79.78 Y95.067 E2.5102
G1 X79.771 Y95.069 E2.5106
G1 X79.402 Y95.143 E2.5263
G1 X79.393 Y95.145 E2.5267
G1 X78.719 Y95.229 E2.5549
G1 X78.711 Y95.23 E2.5552
G1 X78.392 Y95.25 E2.5685
G1 X78.385 Y95.25 E2.5688
G1 X74.615 Y95.25 E2.7255
G1 X74.608 Y95.25 E2.7259
G1 X74.289 Y95.23 E2.7391
G1 X74.281 Y95.229 E2.7395
G1 X73.607 Y95.145 E2.7677
G1 X73.598 Y95.143 E2.7681
G1 X73.229 Y95.069 E2.7837
G1 X73.22 Y95.067 E2.7841
G1 X72.469 Y94.858 E2.8165
G1 X72.46 Y94.855 E2.8169
G1 X72.106 Y94.728 E2.8326
G1 X72.097 Y94.724 E2.833
G1 X71.384 Y94.408 E2.8654
G1 X71.376 Y94.404 E2.8658
G1 X71.044 Y94.226 E2.8814
G1 X71.036 Y94.221 E2.8818
G1 X70.378 Y93.804 E2.9142
G1 X70.37 Y93.798 E2.9146
G1 X70.068 Y93.574 E2.9303
G1 X70.061 Y93.568 E2.9306
G1 X69.47 Y93.059 E2.9631
G1 X69.464 Y93.053 E2.9634
G1 X69.198 Y92.786 E2.9791
G1 X69.191 Y92.78 E2.9795
G1 X68.687 Y92.195 E3.0116
G1 X68.681 Y92.188 E3.012
G1 X68.459 Y91.889 E3.0274
G1 X68.454 Y91.882 E3.0278
G1 X68.036 Y91.226 E3.0601
G1 X68.032 Y91.218 E3.0605
G1 X67.853 Y90.887 E3.0761
G1 X67.849 Y90.878 E3.0765
G1 X67.677 Y90.494 E3.0941
G1 X67.378 Y90.304 E3.1088
G1 X67.37 Y90.298 E3.1092
G1 X67.068 Y90.074 E3.1248
G1 X67.061 Y90.068 E3.1252
G1 X66.47 Y89.559 E3.1576
G1 X66.464 Y89.553 E3.158
G1 X66.198 Y89.286 E3.1737
G1 X66.191 Y89.28 E3.1741
G1 X65.682 Y88.689 E3.2065
G1 X65.676 Y88.682 E3.2069
G1 X65.452 Y88.38 E3.2225
G1 X65.446 Y88.372 E3.2229
G1 X65.029 Y87.714 E3.2553
G1 X65.024 Y87.706 E3.2557
G1 X64.846 Y87.374 E3.2713
G1 X64.842 Y87.366 E3.2717
G1 X64.526 Y86.653 E3.3042
G1 X64.522 Y86.644 E3.3045
G1 X64.395 Y86.29 E3.3202
G1 X64.392 Y86.281 E3.3206
G1 X64.183 Y85.53 E3.353
G1 X64.181 Y85.521 E3.3534
G1 X64.107 Y85.152 E3.369
G1 X64.105 Y85.143 E3.3694
G1 X64.021 Y84.469 E3.3976
G1 X64.02 Y84.461 E3.398
G1 X64 Y84.142 E3.4113
G1 X64 Y84.135 E3.4116
G1 X64 Y62.368 E4.3165
G1 X64 Y62.36 E4.3169
G1 X64.02 Y62.041 E4.3301
G1 X64.021 Y62.033 E4.3305
G1 X64.105 Y61.357 E4.3588
G1 X64.107 Y61.348 E4.3592
G1 X64.181 Y60.979 E4.3748
G1 X64.183 Y60.97 E4.3752
G1 X64.392 Y60.219 E4.4076
G1 X64.395 Y60.21 E4.408
G1 X64.522 Y59.856 E4.4237
G1 X64.526 Y59.847 E4.4241
G1 X64.842 Y59.134 E4.4565
G1 X64.846 Y59.126 E4.4569
G1 X65.024 Y58.794 E4.4725
G1 X65.029 Y58.786 E4.4729
G1 X65.446 Y58.128 E4.5053
G1 X65.452 Y58.12 E4.5057
G1 X65.676 Y57.818 E4.5214
G1 X65.682 Y57.811 E4.5217
G1 X66.191 Y57.22 E4.5542
G92 E0
G1 E-5 F4998
G1 X70.575 Y61.325 F9000
G1 E0 F4998
G92 E0
G1 X70.797 Y61.133 E0.0122 F675
G1 X71.044 Y60.976 E0.0244
G1 X71.312 Y60.857 E0.0366
G1 X71.594 Y60.779 E0.0487
G1 X71.822 Y60.75 E0.0583
G1 X78.178 Y60.75 E0.3225
G1 X78.406 Y60.779 E0.3321
G1 X78.688 Y60.857 E0.3443
G1 X78.956 Y60.976 E0.3565
G1 X79.203 Y61.133 E0.3686
G1 X79.425 Y61.325 E0.3808
G1 X79.617 Y61.547 E0.393
G1 X79.774 Y61.794 E0.4052
G1 X79.893 Y62.062 E0.4174
G1 X79.971 Y62.344 E0.4296
G1 X80 Y62.572 E0.4391
G1 X80 Y87.427 E1.4725
G1 X79.972 Y87.652 E1.4819
G1 X79.894 Y87.934 E1.4941
G1 X79.775 Y88.203 E1.5063
G1 X79.619 Y88.45 E1.5184
G1 X79.428 Y88.672 E1.5306
G1 X79.203 Y88.867 E1.543
G1 X78.956 Y89.024 E1.5551
G1 X78.688 Y89.143 E1.5673
G1 X78.406 Y89.221 E1.5795
G1 X78.178 Y89.25 E1.5891
G1 X74.822 Y89.25 E1.7286
G1 X74.594 Y89.221 E1.7381
G1 X74.312 Y89.143 E1.7503
G1 X74.044 Y89.024 E1.7625
G1 X73.797 Y88.867 E1.7747
G1 X73.575 Y88.675 E1.7869
G1 X73.386 Y88.457 E1.7989
G1 X73.228 Y88.209 E1.8111
G1 X73.109 Y87.941 E1.8233
G1 X73.03 Y87.659 E1.8355
G1 X73 Y87.431 E1.845
G1 X73 Y85.75 E1.9149
G1 X71.822 Y85.75 E1.9639
G1 X71.594 Y85.721 E1.9734
G1 X71.312 Y85.643 E1.9856
G1 X71.044 Y85.524 E1.9978
G1 X70.797 Y85.367 E2.01
G1 X70.575 Y85.175 E2.0222
G1 X70.383 Y84.953 E2.0343
G1 X70.226 Y84.706 E2.0465
