; G-Code generated by Simplify3D(R) Version 2.2.2
; Apr 6, 2015 at 4:08:16 
; Settings Summary
;   processName,NEO
;   applyToModels,011_soporteendstopY
;   profileLabel,Robotica.fff
;   printMaterial,PLA
;   printQuality,High
;   extruderName,Primary Extruder
;   extruderToolheadNumber,0
;   extruderDiameter,0.5
;   extruderAutoWidth,0
;   extruderWidth,0.5
;   extrusionMultiplier,1
;   extruderUseRetract,1
;   extruderRetractionDistance,5
;   extruderExtraRestartDistance,0
;   extruderRetractionZLift,0
;   extruderRetractionSpeed,4998
;   extruderUseCoasting,0
;   extruderCoastingDistance,0.2
;   extruderUseWipe,0
;   extruderWipeDistance,5
;   primaryExtruder,0
;   layerHeight,0.2
;   topSolidLayers,6
;   bottomSolidLayers,6
;   perimeterOutlines,2
;   printPerimetersInsideOut,1
;   startPointOption,2
;   startPointOriginX,0
;   startPointOriginY,0
;   startPointOriginZ,300
;   sequentialIslands,0
;   spiralVaseMode,0
;   firstLayerHeightPercentage,100
;   firstLayerWidthPercentage,100
;   firstLayerUnderspeed,0.5
;   useRaft,0
;   raftExtruder,0
;   raftLayers,3
;   raftOffset,3
;   raftSeparationDistance,0.1
;   raftInfill,85
;   disableRaftBaseLayers,0
;   useSkirt,1
;   skirtExtruder,0
;   skirtLayers,1
;   skirtOutlines,2
;   skirtOffset,5
;   infillExtruder,0
;   externalInfillPattern,Rectilinear
;   infillPercentage,15
;   outlineOverlapPercentage,15
;   infillExtrusionWidthPercentage,100
;   minInfillLength,3
;   infillLayerInterval,1
;   randomInfillStartPoint,0
;   infillAngles,45,-45
;   generateSupport,1
;   supportExtruder,0
;   supportInfill,20
;   supportExtraInflation,0
;   denseSupportLayers,0
;   denseSupportInfill,50
;   supportLayerInterval,1
;   supportHorizontalPartOffset,0.6
;   supportUpperSeparationLayers,1
;   supportLowerSeparationLayers,1
;   supportGridSpacing,1.5
;   maxOverhangAngle,45
;   supportAngles,45
;   temperatureName,Primary Extruder
;   temperatureNumber,0
;   temperatureSetpointCount,1
;   temperatureSetpointLayers,1
;   temperatureSetpointTemperatures,190
;   temperatureStabilizeAtStartup,1
;   temperatureHeatedBed,0
;   temperatureRelayBetweenLayers,0
;   temperatureRelayBetweenLoops,0
;   fanLayers,1,3
;   fanSpeeds,0,100
;   blipFanToFullPower,0
;   adjustSpeedForCooling,1
;   minSpeedLayerTime,15
;   minCoolingSpeedSlowdown,20
;   increaseFanForCooling,0
;   minFanLayerTime,45
;   maxCoolingFanSpeed,100
;   increaseFanForBridging,0
;   bridgingFanSpeed,100
;   use5D,1
;   relativeEdistances,0
;   allowEaxisZeroing,1
;   independentExtruderAxes,0
;   includeM10123,0
;   stickySupport,1
;   detectArcs,0
;   arcReplaceG2G3,0
;   arcRadialCompensation,1
;   gcodeXoffset,0
;   gcodeYoffset,0
;   gcodeZoffset,0
;   overrideMachineDefinition,1
;   machineTypeOverride,0
;   strokeXoverride,150
;   strokeYoverride,150
;   strokeZoverride,150
;   originOffsetXoverride,0
;   originOffsetYoverride,0
;   originOffsetZoverride,0
;   homeXdirOverride,-1
;   homeYdirOverride,-1
;   homeZdirOverride,-1
;   flipXoverride,1
;   flipYoverride,-1
;   flipZoverride,1
;   startingGcode,G28 ; home all axes
;   layerChangeGcode,
;   toolChangeGcode,
;   endingGcode,M104 S0 ; turn off extruder,G28 X0  ; home X axis,G28 Y0  ; home Y axis,M84 ; disable motors
;   createX3G,0
;   celebration,0
;   celebrationSong,Random Song
;   createMB5G,0
;   postProcessing,
;   defaultSpeed,1800
;   outlineUnderspeed,0.5
;   solidInfillUnderspeed,0.8
;   supportUnderspeed,1
;   rapidXYspeed,9000
;   rapidZspeed,1200
;   minBridgingArea,50
;   bridgingExtrusionMultiplier,1
;   bridgingSpeedMultiplier,1
;   filamentDiameter,1.75
;   filamentPricePerKg,34.6
;   useMinPrintHeight,0
;   minPrintHeight,0
;   useMaxPrintHeight,0
;   maxPrintHeight,0
;   useDiaphragm,0
;   diaphragmLayerInterval,20
;   robustSlicing,1
;   mergeAllIntoSolid,0
;   onlyRetractWhenCrossingOutline,1
;   retractBetweenLayers,1
;   useRetractionMinTravel,0
;   retractionMinTravel,3
;   useRetractionOozeRate,0
;   retractionOozeRate,100
;   onlyWipeOutlines,1
;   toolChangeRetractionDistance,12
;   toolChangeExtraRestartDistance,-0.5
;   toolChangeRetractionSpeed,600
;   allowThinWallGapFill,1
;   thinWallAllowedOverlapPercentage,10
;   horizontalSizeCompensation,0
G90
M82
M106 S0
M104 S190 T0
M109 S190 T0
G28 ; home all axes
G92 E0
G1 E-5 F4998
G1 Z0.2 F1200
; layer 1, Z = 0.2
T0
; tool H0.2 W0.5
G1 X64.66 Y65.078 F9000
G1 E0 F1499
G92 E0
G1 X64.68 Y65.059 E0.0011 F900
G1 X65.285 Y64.539 E0.0343
G1 X65.307 Y64.522 E0.0355
G1 X65.624 Y64.287 E0.0519
G1 X65.647 Y64.271 E0.053
G1 X66.321 Y63.845 E0.0862
G1 X66.345 Y63.831 E0.0874
G1 X66.693 Y63.645 E0.1038
G1 X66.718 Y63.633 E0.1049
G1 X67.448 Y63.31 E0.1381
G1 X67.473 Y63.3 E0.1392
G1 X67.844 Y63.168 E0.1556
G1 X67.871 Y63.159 E0.1568
G1 X67.967 Y63.132 E0.1609
G1 X67.967 Y62.78 E0.1756
G1 X68.081 Y62.504 E0.188
G1 X71.222 Y59.364 E0.3726
G1 X71.497 Y59.25 E0.385
G1 X79.864 Y59.25 E0.7329
G1 X79.887 Y59.251 E0.7339
G1 X80.225 Y59.272 E0.7479
G1 X80.249 Y59.275 E0.7489
G1 X80.941 Y59.362 E0.7779
G1 X80.968 Y59.367 E0.7791
G1 X81.355 Y59.445 E0.7955
G1 X81.381 Y59.451 E0.7966
G1 X82.15 Y59.666 E0.8298
G1 X82.176 Y59.674 E0.8309
G1 X82.548 Y59.808 E0.8473
G1 X82.573 Y59.818 E0.8485
G1 X83.302 Y60.143 E0.8817
G1 X83.327 Y60.155 E0.8828
G1 X83.675 Y60.342 E0.8992
G1 X83.698 Y60.356 E0.9004
G1 X84.371 Y60.784 E0.9335
G1 X84.393 Y60.799 E0.9346
G1 X84.708 Y61.033 E0.9509
G1 X84.729 Y61.05 E0.9521
G1 X85.331 Y61.569 E0.9851
G1 X85.351 Y61.588 E0.9862
G1 X85.63 Y61.867 E1.0026
G1 X85.649 Y61.887 E1.0038
G1 X86.17 Y62.491 E1.037
G1 X86.187 Y62.513 E1.0381
G1 X86.423 Y62.83 E1.0545
G1 X86.438 Y62.852 E1.0557
G1 X86.866 Y63.526 E1.0888
G1 X86.879 Y63.55 E1.09
G1 X87.066 Y63.898 E1.1064
G1 X87.078 Y63.923 E1.1075
G1 X87.402 Y64.652 E1.1407
G1 X87.413 Y64.678 E1.1419
G1 X87.546 Y65.049 E1.1583
G1 X87.554 Y65.076 E1.1594
G1 X87.769 Y65.846 E1.1927
G1 X87.775 Y65.873 E1.1939
G1 X87.853 Y66.264 E1.2104
G1 X87.858 Y66.291 E1.2116
G1 X87.944 Y66.986 E1.2407
G1 X87.946 Y67.009 E1.2416
G1 X87.967 Y67.34 E1.2554
G1 X87.967 Y67.363 E1.2564
G1 X87.967 Y82.642 E1.8916
G1 X87.967 Y82.666 E1.8926
G1 X87.946 Y83 E1.9065
G1 X87.943 Y83.023 E1.9075
G1 X87.857 Y83.716 E1.9365
G1 X87.852 Y83.743 E1.9376
G1 X87.774 Y84.133 E1.9542
G1 X87.767 Y84.16 E1.9553
G1 X87.551 Y84.933 E1.9887
G1 X87.543 Y84.959 E1.9898
G1 X87.409 Y85.33 E2.0063
G1 X87.399 Y85.356 E2.0074
G1 X87.074 Y86.085 E2.0406
G1 X87.062 Y86.11 E2.0417
G1 X86.875 Y86.458 E2.0581
G1 X86.861 Y86.481 E2.0593
G1 X86.434 Y87.154 E2.0924
G1 X86.418 Y87.176 E2.0936
G1 X86.184 Y87.491 E2.1098
G1 X86.167 Y87.512 E2.111
G1 X85.648 Y88.114 E2.144
G1 X85.629 Y88.135 E2.1452
G1 X85.348 Y88.415 E2.1617
G1 X85.327 Y88.434 E2.1629
G1 X84.719 Y88.958 E2.1962
G1 X84.698 Y88.975 E2.1974
G1 X84.38 Y89.21 E2.2138
G1 X84.358 Y89.226 E2.215
G1 X83.683 Y89.653 E2.2481
G1 X83.659 Y89.666 E2.2493
G1 X83.311 Y89.853 E2.2657
G1 X83.286 Y89.865 E2.2668
G1 X82.557 Y90.188 E2.3
G1 X82.531 Y90.198 E2.3012
G1 X82.16 Y90.331 E2.3176
G1 X82.134 Y90.339 E2.3187
G1 X81.365 Y90.553 E2.3519
G1 X81.338 Y90.559 E2.353
G1 X80.95 Y90.637 E2.3695
G1 X80.923 Y90.641 E2.3706
G1 X80.232 Y90.727 E2.3996
G1 X80.209 Y90.729 E2.4005
G1 X79.878 Y90.749 E2.4143
G1 X79.855 Y90.75 E2.4153
G1 X71.497 Y90.75 E2.7627
G1 X71.221 Y90.636 E2.7752
G1 X68.081 Y87.496 E2.9598
G1 X67.967 Y87.22 E2.9722
G1 X67.967 Y86.867 E2.9869
G1 X67.845 Y86.832 E2.9921
G1 X67.819 Y86.824 E2.9933
G1 X67.448 Y86.69 E3.0097
G1 X67.422 Y86.68 E3.0108
G1 X66.693 Y86.354 E3.044
G1 X66.669 Y86.342 E3.0452
G1 X66.321 Y86.155 E3.0616
G1 X66.297 Y86.141 E3.0627
G1 X65.626 Y85.714 E3.0958
G1 X65.603 Y85.698 E3.097
G1 X65.29 Y85.465 E3.1132
G1 X65.269 Y85.448 E3.1143
G1 X64.67 Y84.931 E3.1472
G1 X64.649 Y84.913 E3.1484
G1 X64.37 Y84.633 E3.1648
G1 X64.351 Y84.613 E3.1659
G1 X63.83 Y84.009 E3.1991
G1 X63.813 Y83.987 E3.2003
G1 X63.577 Y83.67 E3.2167
G1 X63.562 Y83.648 E3.2178
G1 X63.134 Y82.974 E3.251
G1 X63.12 Y82.95 E3.2522
G1 X62.934 Y82.602 E3.2686
G1 X62.922 Y82.577 E3.2697
G1 X62.598 Y81.848 E3.3029
G1 X62.587 Y81.822 E3.304
G1 X62.454 Y81.451 E3.3205
G1 X62.446 Y81.424 E3.3216
G1 X62.232 Y80.655 E3.3548
G1 X62.225 Y80.629 E3.3559
G1 X62.148 Y80.241 E3.3723
G1 X62.143 Y80.214 E3.3735
G1 X62.057 Y79.523 E3.4024
G1 X62.054 Y79.5 E3.4034
G1 X62.033 Y79.166 E3.4173
G1 X62.033 Y79.142 E3.4183
G1 X62.033 Y70.858 E3.7627
G1 X62.033 Y70.834 E3.7637
G1 X62.054 Y70.5 E3.7776
G1 X62.057 Y70.477 E3.7786
G1 X62.143 Y69.786 E3.8076
G1 X62.148 Y69.759 E3.8087
G1 X62.225 Y69.371 E3.8251
G1 X62.232 Y69.345 E3.8263
G1 X62.446 Y68.576 E3.8595
G1 X62.454 Y68.549 E3.8606
G1 X62.587 Y68.178 E3.877
G1 X62.598 Y68.152 E3.8782
G1 X62.922 Y67.423 E3.9113
G1 X62.934 Y67.398 E3.9125
G1 X63.12 Y67.05 E3.9289
G1 X63.134 Y67.026 E3.9301
G1 X63.563 Y66.35 E3.9633
G1 X63.579 Y66.328 E3.9645
G1 X63.817 Y66.007 E3.9811
G1 X63.834 Y65.986 E3.9822
G1 X64.361 Y65.377 E4.0157
G1 X64.38 Y65.357 E4.0168
G1 X64.66 Y65.078 E4.0333
G1 X65.006 Y65.439 F9000
G92 E0
G1 X65.013 Y65.432 E0.0004 F900
G1 X65.604 Y64.924 E0.0328
G1 X65.611 Y64.918 E0.0332
G1 X65.914 Y64.694 E0.0488
G1 X65.921 Y64.689 E0.0492
G1 X66.581 Y64.273 E0.0816
G1 X66.589 Y64.268 E0.082
G1 X66.921 Y64.091 E0.0977
G1 X66.929 Y64.087 E0.098
G1 X67.642 Y63.771 E0.1304
G1 X67.65 Y63.768 E0.1308
G1 X68.004 Y63.641 E0.1465
G1 X68.013 Y63.639 E0.1468
G1 X68.467 Y63.513 E0.1664
G1 X68.467 Y62.879 E0.1928
G1 X68.505 Y62.787 E0.1969
G1 X71.505 Y59.788 E0.3733
G1 X71.597 Y59.75 E0.3774
G1 X79.856 Y59.75 E0.7208
G1 X79.864 Y59.751 E0.7211
G1 X80.186 Y59.771 E0.7345
G1 X80.194 Y59.772 E0.7349
G1 X80.869 Y59.857 E0.7632
G1 X80.878 Y59.859 E0.7636
G1 X81.247 Y59.933 E0.7792
G1 X81.256 Y59.935 E0.7796
G1 X82.007 Y60.145 E0.812
G1 X82.015 Y60.148 E0.8124
G1 X82.369 Y60.275 E0.828
G1 X82.378 Y60.279 E0.8284
G1 X83.09 Y60.596 E0.8608
G1 X83.098 Y60.6 E0.8612
G1 X83.43 Y60.778 E0.8768
G1 X83.438 Y60.783 E0.8772
G1 X84.095 Y61.201 E0.9096
G1 X84.103 Y61.206 E0.91
G1 X84.403 Y61.429 E0.9255
G1 X84.41 Y61.435 E0.9259
G1 X84.997 Y61.941 E0.9581
G1 X85.004 Y61.948 E0.9585
G1 X85.27 Y62.214 E0.9742
G1 X85.276 Y62.22 E0.9746
G1 X85.786 Y62.811 E1.007
G1 X85.791 Y62.818 E1.0074
G1 X86.016 Y63.12 E1.023
G1 X86.021 Y63.128 E1.0234
G1 X86.438 Y63.786 E1.0558
G1 X86.443 Y63.794 E1.0562
G1 X86.621 Y64.126 E1.0718
G1 X86.625 Y64.134 E1.0722
G1 X86.942 Y64.847 E1.1046
G1 X86.945 Y64.856 E1.105
G1 X87.072 Y65.21 E1.1207
G1 X87.075 Y65.219 E1.1211
G1 X87.285 Y65.971 E1.1536
G1 X87.287 Y65.981 E1.1539
G1 X87.361 Y66.353 E1.1697
G1 X87.363 Y66.362 E1.1701
G1 X87.447 Y67.039 E1.1985
G1 X87.448 Y67.047 E1.1988
G1 X87.467 Y67.363 E1.212
G1 X87.467 Y67.37 E1.2123
G1 X87.467 Y82.635 E1.8469
G1 X87.467 Y82.642 E1.8472
G1 X87.447 Y82.961 E1.8605
G1 X87.446 Y82.969 E1.8608
G1 X87.362 Y83.644 E1.8891
G1 X87.36 Y83.653 E1.8895
G1 X87.286 Y84.025 E1.9053
G1 X87.283 Y84.034 E1.9056
G1 X87.072 Y84.789 E1.9382
G1 X87.07 Y84.798 E1.9386
G1 X86.942 Y85.152 E1.9543
G1 X86.938 Y85.161 E1.9547
G1 X86.621 Y85.873 E1.9871
G1 X86.617 Y85.881 E1.9875
G1 X86.439 Y86.213 E2.0031
G1 X86.434 Y86.221 E2.0035
G1 X86.017 Y86.878 E2.0359
G1 X86.011 Y86.885 E2.0362
G1 X85.788 Y87.185 E2.0518
G1 X85.783 Y87.192 E2.0522
G1 X85.275 Y87.781 E2.0845
G1 X85.269 Y87.787 E2.0848
G1 X85.001 Y88.055 E2.1006
G1 X84.994 Y88.062 E2.101
G1 X84.4 Y88.573 E2.1336
G1 X84.393 Y88.579 E2.134
G1 X84.09 Y88.803 E2.1496
G1 X84.082 Y88.808 E2.15
G1 X83.423 Y89.225 E2.1824
G1 X83.415 Y89.23 E2.1828
G1 X83.083 Y89.407 E2.1985
G1 X83.075 Y89.411 E2.1988
G1 X82.362 Y89.727 E2.2313
G1 X82.354 Y89.731 E2.2316
G1 X82 Y89.857 E2.2473
G1 X81.991 Y89.86 E2.2476
G1 X81.24 Y90.068 E2.2801
G1 X81.231 Y90.071 E2.2804
G1 X80.861 Y90.145 E2.2961
G1 X80.852 Y90.146 E2.2965
G1 X80.178 Y90.23 E2.3248
G1 X80.17 Y90.23 E2.3251
G1 X79.854 Y90.25 E2.3382
G1 X79.847 Y90.25 E2.3385
G1 X71.596 Y90.25 E2.6816
G1 X71.505 Y90.212 E2.6857
G1 X68.505 Y87.213 E2.862
G1 X68.467 Y87.121 E2.8662
G1 X68.467 Y86.487 E2.8925
G1 X67.989 Y86.353 E2.9131
G1 X67.98 Y86.351 E2.9135
G1 X67.626 Y86.223 E2.9292
G1 X67.618 Y86.219 E2.9296
G1 X66.906 Y85.901 E2.962
G1 X66.897 Y85.897 E2.9624
G1 X66.566 Y85.719 E2.978
G1 X66.558 Y85.714 E2.9784
G1 X65.902 Y85.297 E3.0107
G1 X65.894 Y85.292 E3.0111
G1 X65.596 Y85.07 E3.0266
G1 X65.589 Y85.064 E3.027
G1 X65.003 Y84.559 E3.0591
G1 X64.996 Y84.553 E3.0595
G1 X64.73 Y84.286 E3.0751
G1 X64.724 Y84.28 E3.0755
G1 X64.214 Y83.689 E3.1079
G1 X64.209 Y83.682 E3.1083
G1 X63.984 Y83.38 E3.124
G1 X63.979 Y83.372 E3.1244
G1 X63.562 Y82.714 E3.1568
G1 X63.557 Y82.706 E3.1572
G1 X63.379 Y82.374 E3.1728
G1 X63.375 Y82.366 E3.1732
G1 X63.058 Y81.653 E3.2056
G1 X63.055 Y81.644 E3.206
G1 X62.928 Y81.29 E3.2217
G1 X62.925 Y81.281 E3.222
G1 X62.716 Y80.53 E3.2545
G1 X62.714 Y80.521 E3.2548
G1 X62.64 Y80.152 E3.2705
G1 X62.638 Y80.143 E3.2709
G1 X62.554 Y79.469 E3.2991
G1 X62.553 Y79.461 E3.2994
G1 X62.533 Y79.142 E3.3127
G1 X62.533 Y79.135 E3.313
G1 X62.533 Y70.865 E3.6568
G1 X62.533 Y70.858 E3.6572
G1 X62.553 Y70.539 E3.6704
G1 X62.554 Y70.531 E3.6708
G1 X62.638 Y69.857 E3.699
G1 X62.64 Y69.848 E3.6994
G1 X62.714 Y69.479 E3.715
G1 X62.716 Y69.47 E3.7154
G1 X62.925 Y68.719 E3.7478
G1 X62.928 Y68.71 E3.7482
G1 X63.055 Y68.356 E3.7639
G1 X63.058 Y68.347 E3.7643
G1 X63.375 Y67.634 E3.7967
G1 X63.379 Y67.626 E3.7971
G1 X63.557 Y67.294 E3.8127
G1 X63.562 Y67.286 E3.8131
G1 X63.98 Y66.626 E3.8456
G1 X63.986 Y66.618 E3.846
G1 X64.213 Y66.313 E3.8618
G1 X64.218 Y66.306 E3.8622
G1 X64.733 Y65.711 E3.8949
G1 X64.739 Y65.705 E3.8953
G1 X65.006 Y65.439 E3.9109
G92 E0
G1 E-5 F4998
G1 X69.11 Y69.823 F9000
G1 E0 F4998
G92 E0
G1 X69.332 Y69.631 E0.0122 F675
G1 X69.58 Y69.475 E0.0244
G1 X69.848 Y69.356 E0.0366
G1 X70.13 Y69.278 E0.0487
G1 X70.359 Y69.25 E0.0583
G1 X74.467 Y69.25 E0.2291
G1 X74.467 Y65.75 E0.3746
G1 X79.647 Y65.75 E0.59
G1 X79.875 Y65.779 E0.5995
G1 X80.157 Y65.858 E0.6117
G1 X80.425 Y65.977 E0.6239
G1 X80.673 Y66.135 E0.6361
G1 X80.893 Y66.325 E0.6482
G1 X81.084 Y66.547 E0.6604
G1 X81.241 Y66.794 E0.6726
G1 X81.36 Y67.062 E0.6847
G1 X81.439 Y67.344 E0.6969
G1 X81.467 Y67.575 E0.7066
G1 X81.467 Y82.428 E1.3241
G1 X81.439 Y82.655 E1.3336
G1 X81.359 Y82.94 E1.3459
G1 X81.24 Y83.208 E1.3581
G1 X81.083 Y83.455 E1.3703
G1 X80.893 Y83.675 E1.3824
G1 X80.669 Y83.868 E1.3947
G1 X80.421 Y84.025 E1.4068
G1 X80.153 Y84.143 E1.419
G1 X79.871 Y84.222 E1.4312
G1 X79.642 Y84.25 E1.4408
G1 X74.467 Y84.25 E1.6559
G1 X74.467 Y80.75 E1.8015
G1 X70.352 Y80.75 E1.9725
G1 X70.124 Y80.721 E1.9821
G1 X69.842 Y80.641 E1.9943
G1 X69.574 Y80.522 E2.0065
G1 X69.326 Y80.364 E2.0187
G1 X69.107 Y80.175 E2.0307
G1 X68.916 Y79.953 E2.0429
G1 X68.759 Y79.706 E2.0551
G1 X68.64 Y79.438 E2.0673
G1 X68.561 Y79.156 E2.0795
G1 X68.533 Y78.928 E2.089
G1 X68.533 Y71.072 E2.4156
G1 X68.561 Y70.844 E2.4251
G1 X68.64 Y70.562 E2.4373
G1 X68.759 Y70.294 E2.4495
G1 X68.916 Y70.047 E2.4617
G1 X69.11 Y69.823 E2.474
G1 X68.756 Y69.468 F9000
G92 E0
G1 X69.034 Y69.228 E0.0152 F450
G1 X69.344 Y69.033 E0.0305
G1 X69.679 Y68.884 E0.0457
G1 X70.032 Y68.787 E0.0609
G1 X70.329 Y68.75 E0.0734
G1 X73.967 Y68.75 E0.2247
G1 X73.967 Y65.25 E0.3702
G1 X79.679 Y65.25 E0.6076
G1 X79.974 Y65.288 E0.62
G1 X80.327 Y65.386 E0.6352
G1 X80.662 Y65.536 E0.6505
G1 X80.972 Y65.732 E0.6657
G1 X81.247 Y65.97 E0.6809
G1 X81.487 Y66.248 E0.6961
G1 X81.683 Y66.557 E0.7114
G1 X81.832 Y66.892 E0.7266
G1 X81.93 Y67.246 E0.7418
G1 X81.967 Y67.544 E0.7543
G1 X81.967 Y82.459 E1.3744
G1 X81.93 Y82.754 E1.3868
G1 X81.831 Y83.11 E1.4022
G1 X81.682 Y83.445 E1.4174
G1 X81.485 Y83.754 E1.4326
G1 X81.247 Y84.03 E1.4478
G1 X80.967 Y84.271 E1.4631
G1 X80.657 Y84.467 E1.4784
G1 X80.322 Y84.615 E1.4936
G1 X79.969 Y84.713 E1.5088
G1 X79.673 Y84.75 E1.5212
G1 X73.967 Y84.75 E1.7585
G1 X73.967 Y81.25 E1.904
G1 X70.32 Y81.25 E2.0556
G1 X70.025 Y81.212 E2.068
G1 X69.671 Y81.113 E2.0832
G1 X69.337 Y80.964 E2.0985
G1 X69.027 Y80.767 E2.1137
G1 X68.753 Y80.53 E2.1288
G1 X68.513 Y80.252 E2.144
G1 X68.317 Y79.943 E2.1593
G1 X68.168 Y79.608 E2.1745
G1 X68.07 Y79.254 E2.1898
G1 X68.033 Y78.959 E2.2021
