; G-Code generated by Simplify3D(R) Version 2.2.2
; Apr 6, 2015 at 4:08:32 
; Settings Summary
;   processName,NEO
;   applyToModels,012_soporteendstopz_(repaired)
;   profileLabel,Robotica.fff
;   printMaterial,PLA
;   printQuality,High
;   extruderName,Primary Extruder
;   extruderToolheadNumber,0
;   extruderDiameter,0.5
;   extruderAutoWidth,0
;   extruderWidth,0.5
;   extrusionMultiplier,1
;   extruderUseRetract,1
;   extruderRetractionDistance,5
;   extruderExtraRestartDistance,0
;   extruderRetractionZLift,0
;   extruderRetractionSpeed,4998
;   extruderUseCoasting,0
;   extruderCoastingDistance,0.2
;   extruderUseWipe,0
;   extruderWipeDistance,5
;   primaryExtruder,0
;   layerHeight,0.2
;   topSolidLayers,6
;   bottomSolidLayers,6
;   perimeterOutlines,2
;   printPerimetersInsideOut,1
;   startPointOption,2
;   startPointOriginX,0
;   startPointOriginY,0
;   startPointOriginZ,300
;   sequentialIslands,0
;   spiralVaseMode,0
;   firstLayerHeightPercentage,100
;   firstLayerWidthPercentage,100
;   firstLayerUnderspeed,0.5
;   useRaft,0
;   raftExtruder,0
;   raftLayers,3
;   raftOffset,3
;   raftSeparationDistance,0.1
;   raftInfill,85
;   disableRaftBaseLayers,0
;   useSkirt,1
;   skirtExtruder,0
;   skirtLayers,1
;   skirtOutlines,2
;   skirtOffset,5
;   infillExtruder,0
;   externalInfillPattern,Rectilinear
;   infillPercentage,15
;   outlineOverlapPercentage,15
;   infillExtrusionWidthPercentage,100
;   minInfillLength,3
;   infillLayerInterval,1
;   randomInfillStartPoint,0
;   infillAngles,45,-45
;   generateSupport,1
;   supportExtruder,0
;   supportInfill,20
;   supportExtraInflation,0
;   denseSupportLayers,0
;   denseSupportInfill,50
;   supportLayerInterval,1
;   supportHorizontalPartOffset,0.6
;   supportUpperSeparationLayers,1
;   supportLowerSeparationLayers,1
;   supportGridSpacing,1.5
;   maxOverhangAngle,45
;   supportAngles,45
;   temperatureName,Primary Extruder
;   temperatureNumber,0
;   temperatureSetpointCount,1
;   temperatureSetpointLayers,1
;   temperatureSetpointTemperatures,190
;   temperatureStabilizeAtStartup,1
;   temperatureHeatedBed,0
;   temperatureRelayBetweenLayers,0
;   temperatureRelayBetweenLoops,0
;   fanLayers,1,3
;   fanSpeeds,0,100
;   blipFanToFullPower,0
;   adjustSpeedForCooling,1
;   minSpeedLayerTime,15
;   minCoolingSpeedSlowdown,20
;   increaseFanForCooling,0
;   minFanLayerTime,45
;   maxCoolingFanSpeed,100
;   increaseFanForBridging,0
;   bridgingFanSpeed,100
;   use5D,1
;   relativeEdistances,0
;   allowEaxisZeroing,1
;   independentExtruderAxes,0
;   includeM10123,0
;   stickySupport,1
;   detectArcs,0
;   arcReplaceG2G3,0
;   arcRadialCompensation,1
;   gcodeXoffset,0
;   gcodeYoffset,0
;   gcodeZoffset,0
;   overrideMachineDefinition,1
;   machineTypeOverride,0
;   strokeXoverride,150
;   strokeYoverride,150
;   strokeZoverride,150
;   originOffsetXoverride,0
;   originOffsetYoverride,0
;   originOffsetZoverride,0
;   homeXdirOverride,-1
;   homeYdirOverride,-1
;   homeZdirOverride,-1
;   flipXoverride,1
;   flipYoverride,-1
;   flipZoverride,1
;   startingGcode,G28 ; home all axes
;   layerChangeGcode,
;   toolChangeGcode,
;   endingGcode,M104 S0 ; turn off extruder,G28 X0  ; home X axis,G28 Y0  ; home Y axis,M84 ; disable motors
;   createX3G,0
;   celebration,0
;   celebrationSong,Random Song
;   createMB5G,0
;   postProcessing,
;   defaultSpeed,1800
;   outlineUnderspeed,0.5
;   solidInfillUnderspeed,0.8
;   supportUnderspeed,1
;   rapidXYspeed,9000
;   rapidZspeed,1200
;   minBridgingArea,50
;   bridgingExtrusionMultiplier,1
;   bridgingSpeedMultiplier,1
;   filamentDiameter,1.75
;   filamentPricePerKg,34.6
;   useMinPrintHeight,0
;   minPrintHeight,0
;   useMaxPrintHeight,0
;   maxPrintHeight,0
;   useDiaphragm,0
;   diaphragmLayerInterval,20
;   robustSlicing,1
;   mergeAllIntoSolid,0
;   onlyRetractWhenCrossingOutline,1
;   retractBetweenLayers,1
;   useRetractionMinTravel,0
;   retractionMinTravel,3
;   useRetractionOozeRate,0
;   retractionOozeRate,100
;   onlyWipeOutlines,1
;   toolChangeRetractionDistance,12
;   toolChangeExtraRestartDistance,-0.5
;   toolChangeRetractionSpeed,600
;   allowThinWallGapFill,1
;   thinWallAllowedOverlapPercentage,10
;   horizontalSizeCompensation,0
G90
M82
M106 S0
M104 S190 T0
M109 S190 T0
G28 ; home all axes
G92 E0
G1 E-5 F4998
G1 Z0.2 F1200
; layer 1, Z = 0.2
T0
; tool H0.2 W0.5
G1 X40.65 Y66.615 F9000
G1 E0 F1499
G92 E0
G1 X40.69 Y66.588 E0.002 F900
G1 X41.301 Y66.235 E0.0313
G1 X41.345 Y66.214 E0.0334
G1 X42.987 Y65.533 E0.1073
G1 X43.033 Y65.518 E0.1093
G1 X43.714 Y65.335 E0.1386
G1 X43.762 Y65.326 E0.1406
G1 X45.524 Y65.094 E0.2145
G1 X45.573 Y65.09 E0.2166
G1 X46.278 Y65.09 E0.2459
G1 X46.327 Y65.094 E0.2479
G1 X48.089 Y65.326 E0.3218
G1 X48.137 Y65.335 E0.3238
G1 X48.817 Y65.518 E0.3531
G1 X48.864 Y65.533 E0.3552
G1 X50.353 Y66.15 E0.4222
G1 X94.062 Y66.15 E2.2394
G1 X94.118 Y65.871 E2.2512
G1 X94.124 Y65.845 E2.2523
G1 X94.338 Y65.076 E2.2855
G1 X94.347 Y65.049 E2.2867
G1 X94.48 Y64.678 E2.3031
G1 X94.49 Y64.652 E2.3042
G1 X94.814 Y63.923 E2.3374
G1 X94.827 Y63.898 E2.3386
G1 X95.013 Y63.55 E2.355
G1 X95.027 Y63.526 E2.3561
G1 X95.456 Y62.85 E2.3894
G1 X95.471 Y62.827 E2.3906
G1 X95.71 Y62.507 E2.4072
G1 X95.727 Y62.485 E2.4083
G1 X96.255 Y61.876 E2.4418
G1 X96.274 Y61.856 E2.443
G1 X96.553 Y61.577 E2.4594
G1 X96.574 Y61.558 E2.4605
G1 X97.179 Y61.038 E2.4937
G1 X97.2 Y61.021 E2.4949
G1 X97.518 Y60.786 E2.5113
G1 X97.541 Y60.77 E2.5124
G1 X98.215 Y60.344 E2.5456
G1 X98.239 Y60.33 E2.5468
G1 X98.588 Y60.145 E2.5632
G1 X98.612 Y60.133 E2.5643
G1 X99.342 Y59.81 E2.5975
G1 X99.367 Y59.8 E2.5986
G1 X99.738 Y59.667 E2.615
G1 X99.764 Y59.659 E2.6161
G1 X100.531 Y59.447 E2.6492
G1 X100.557 Y59.441 E2.6503
G1 X100.94 Y59.364 E2.6666
G1 X100.967 Y59.36 E2.6677
G1 X101.652 Y59.274 E2.6964
G1 X101.676 Y59.272 E2.6974
G1 X102.01 Y59.251 E2.7113
G1 X102.034 Y59.25 E2.7123
G1 X105.825 Y59.251 E2.8699
G1 X105.849 Y59.251 E2.8709
G1 X106.189 Y59.273 E2.8851
G1 X106.213 Y59.275 E2.8861
G1 X106.907 Y59.364 E2.9152
G1 X106.934 Y59.368 E2.9163
G1 X107.32 Y59.446 E2.9327
G1 X107.346 Y59.453 E2.9338
G1 X108.114 Y59.668 E2.967
G1 X108.14 Y59.676 E2.9681
G1 X108.512 Y59.811 E2.9845
G1 X108.537 Y59.821 E2.9857
G1 X109.266 Y60.147 E3.0189
G1 X109.291 Y60.159 E3.02
G1 X109.638 Y60.346 E3.0364
G1 X109.662 Y60.36 E3.0376
G1 X110.333 Y60.787 E3.0706
G1 X110.356 Y60.802 E3.0718
G1 X110.669 Y61.035 E3.088
G1 X110.69 Y61.052 E3.0891
G1 X111.288 Y61.569 E3.122
G1 X111.309 Y61.587 E3.1231
G1 X111.588 Y61.867 E3.1396
G1 X111.607 Y61.887 E3.1407
G1 X112.128 Y62.491 E3.1739
G1 X112.145 Y62.513 E3.175
G1 X112.381 Y62.83 E3.1914
G1 X112.396 Y62.852 E3.1926
G1 X112.824 Y63.526 E3.2258
G1 X112.838 Y63.55 E3.2269
G1 X113.024 Y63.898 E3.2433
G1 X113.036 Y63.923 E3.2445
G1 X113.36 Y64.652 E3.2777
G1 X113.371 Y64.678 E3.2788
G1 X113.504 Y65.049 E3.2952
G1 X113.512 Y65.076 E3.2964
G1 X113.726 Y65.845 E3.3296
G1 X113.733 Y65.871 E3.3307
G1 X113.811 Y66.259 E3.3471
G1 X113.815 Y66.286 E3.3483
G1 X113.902 Y66.977 E3.3772
G1 X113.904 Y67 E3.3782
G1 X113.925 Y67.334 E3.3921
G1 X113.925 Y67.358 E3.3931
G1 X113.925 Y82.642 E4.0285
G1 X113.925 Y82.666 E4.0295
G1 X113.904 Y83 E4.0434
G1 X113.902 Y83.023 E4.0444
G1 X113.815 Y83.714 E4.0734
G1 X113.811 Y83.741 E4.0745
G1 X113.733 Y84.129 E4.0909
G1 X113.726 Y84.155 E4.0921
G1 X113.512 Y84.924 E4.1253
G1 X113.504 Y84.951 E4.1264
G1 X113.371 Y85.322 E4.1428
G1 X113.36 Y85.348 E4.144
G1 X113.036 Y86.077 E4.1771
G1 X113.024 Y86.102 E4.1783
G1 X112.838 Y86.45 E4.1947
G1 X112.824 Y86.473 E4.1958
G1 X112.395 Y87.15 E4.2291
G1 X112.379 Y87.173 E4.2303
G1 X112.141 Y87.493 E4.2469
G1 X112.123 Y87.515 E4.2481
G1 X111.596 Y88.124 E4.2816
G1 X111.577 Y88.144 E4.2827
G1 X111.297 Y88.423 E4.2991
G1 X111.277 Y88.442 E4.3003
G1 X110.674 Y88.961 E4.3334
G1 X110.652 Y88.978 E4.3345
G1 X110.339 Y89.21 E4.3507
G1 X110.317 Y89.225 E4.3518
G1 X109.647 Y89.65 E4.3848
G1 X109.623 Y89.664 E4.386
G1 X109.27 Y89.852 E4.4026
G1 X109.245 Y89.864 E4.4037
G1 X108.509 Y90.19 E4.4372
G1 X108.483 Y90.2 E4.4384
G1 X108.112 Y90.333 E4.4547
G1 X108.086 Y90.341 E4.4559
G1 X107.32 Y90.553 E4.4889
G1 X107.294 Y90.559 E4.4901
G1 X106.91 Y90.636 E4.5063
G1 X106.884 Y90.64 E4.5074
G1 X106.199 Y90.726 E4.5361
G1 X106.175 Y90.728 E4.5371
G1 X105.84 Y90.749 E4.5511
G1 X105.817 Y90.75 E4.552
G1 X102.025 Y90.749 E4.7097
G1 X102.001 Y90.749 E4.7107
G1 X101.661 Y90.727 E4.7248
G1 X101.638 Y90.725 E4.7258
G1 X100.944 Y90.636 E4.7549
G1 X100.917 Y90.632 E4.756
G1 X100.531 Y90.554 E4.7724
G1 X100.504 Y90.547 E4.7735
G1 X99.736 Y90.332 E4.8067
G1 X99.71 Y90.324 E4.8078
G1 X99.339 Y90.189 E4.8243
G1 X99.313 Y90.179 E4.8254
G1 X98.585 Y89.853 E4.8586
G1 X98.56 Y89.841 E4.8597
G1 X98.212 Y89.654 E4.8762
G1 X98.188 Y89.64 E4.8773
G1 X97.517 Y89.213 E4.9104
G1 X97.495 Y89.198 E4.9115
G1 X97.182 Y88.965 E4.9277
G1 X97.161 Y88.948 E4.9288
G1 X96.562 Y88.431 E4.9617
G1 X96.542 Y88.413 E4.9629
G1 X96.263 Y88.133 E4.9793
G1 X96.244 Y88.113 E4.9804
G1 X95.722 Y87.509 E5.0136
G1 X95.705 Y87.487 E5.0148
G1 X95.47 Y87.17 E5.0312
G1 X95.454 Y87.148 E5.0323
G1 X95.027 Y86.474 E5.0655
G1 X95.013 Y86.45 E5.0666
G1 X94.827 Y86.102 E5.0831
G1 X94.815 Y86.077 E5.0842
G1 X94.49 Y85.348 E5.1174
G1 X94.48 Y85.322 E5.1185
G1 X94.347 Y84.951 E5.1349
G1 X94.338 Y84.924 E5.1361
G1 X94.123 Y84.152 E5.1694
G1 X94.117 Y84.125 E5.1706
G1 X94.042 Y83.75 E5.1865
G1 X50.353 Y83.75 E7.0029
G1 X48.864 Y84.367 E7.0699
G1 X48.817 Y84.382 E7.0719
G1 X48.137 Y84.565 E7.1012
G1 X48.089 Y84.574 E7.1032
G1 X46.327 Y84.806 E7.1771
G1 X46.278 Y84.81 E7.1792
G1 X45.573 Y84.81 E7.2085
G1 X45.524 Y84.806 E7.2105
G1 X43.762 Y84.574 E7.2844
G1 X43.714 Y84.565 E7.2864
G1 X43.033 Y84.382 E7.3157
G1 X42.987 Y84.367 E7.3178
G1 X41.345 Y83.686 E7.3917
G1 X41.301 Y83.665 E7.3937
G1 X40.69 Y83.312 E7.423
G1 X40.65 Y83.285 E7.425
G1 X40.008 Y82.793 E7.4587
G1 X39.986 Y82.78 E7.4597
G1 X39.713 Y82.566 E7.4741
G1 X39.239 Y82.203 E7.4989
G1 X39.203 Y82.171 E7.501
G1 X39.186 Y82.154 E7.502
G1 X38.814 Y81.863 E7.5216
G1 X38.742 Y81.789 E7.5259
G1 X37.536 Y80.141 E7.6108
G1 X37.512 Y80.103 E7.6127
G1 X37.197 Y79.543 E7.6394
G1 X37.177 Y79.502 E7.6413
G1 X36.509 Y77.889 E7.7139
G1 X36.493 Y77.842 E7.7159
G1 X36.311 Y77.162 E7.7452
G1 X36.301 Y77.113 E7.7473
G1 X36.069 Y75.351 E7.8211
G1 X36.066 Y75.302 E7.8232
G1 X36.066 Y74.598 E7.8525
G1 X36.069 Y74.549 E7.8545
G1 X36.301 Y72.787 E7.9284
G1 X36.311 Y72.738 E7.9305
G1 X36.493 Y72.058 E7.9597
G1 X36.509 Y72.011 E7.9618
G1 X37.177 Y70.397 E8.0345
G1 X37.197 Y70.356 E8.0363
G1 X37.514 Y69.794 E8.0631
G1 X37.538 Y69.756 E8.065
G1 X38.728 Y68.133 E8.1487
G1 X38.797 Y68.061 E8.1528
G1 X39.166 Y67.765 E8.1725
G1 X39.203 Y67.729 E8.1746
G1 X39.239 Y67.697 E8.1767
G1 X39.549 Y67.459 E8.1929
G1 X39.909 Y67.171 E8.2121
G1 X39.981 Y67.128 E8.2155
G1 X40.65 Y66.615 E8.2506
G1 X40.955 Y67.012 F9000
G92 E0
G1 X41.536 Y66.676 E0.0279 F900
G1 X41.551 Y66.669 E0.0286
G1 X43.163 Y66.002 E0.1011
G1 X43.178 Y65.996 E0.1018
G1 X43.827 Y65.822 E0.1298
G1 X43.843 Y65.819 E0.1304
G1 X45.573 Y65.592 E0.203
G1 X45.589 Y65.59 E0.2036
G1 X46.261 Y65.59 E0.2316
G1 X46.278 Y65.592 E0.2323
G1 X48.007 Y65.819 E0.3048
G1 X48.023 Y65.822 E0.3055
G1 X48.672 Y65.996 E0.3334
G1 X48.688 Y66.002 E0.3341
G1 X50.253 Y66.65 E0.4045
G1 X94.494 Y66.65 E2.2438
G1 X94.531 Y66.357 E2.2561
G1 X94.532 Y66.348 E2.2565
G1 X94.606 Y65.979 E2.2722
G1 X94.608 Y65.97 E2.2725
G1 X94.817 Y65.219 E2.305
G1 X94.82 Y65.21 E2.3053
G1 X94.947 Y64.856 E2.321
G1 X94.951 Y64.847 E2.3214
G1 X95.268 Y64.134 E2.3538
G1 X95.272 Y64.126 E2.3542
G1 X95.449 Y63.794 E2.3698
G1 X95.454 Y63.786 E2.3702
G1 X95.873 Y63.126 E2.4027
G1 X95.878 Y63.118 E2.4031
G1 X96.106 Y62.812 E2.419
G1 X96.111 Y62.805 E2.4193
G1 X96.627 Y62.21 E2.4521
G1 X96.633 Y62.203 E2.4525
G1 X96.9 Y61.938 E2.4681
G1 X96.907 Y61.931 E2.4685
G1 X97.498 Y61.423 E2.5009
G1 X97.505 Y61.417 E2.5013
G1 X97.808 Y61.193 E2.5169
G1 X97.815 Y61.188 E2.5173
G1 X98.475 Y60.772 E2.5497
G1 X98.483 Y60.767 E2.5501
G1 X98.815 Y60.59 E2.5658
G1 X98.823 Y60.586 E2.5662
G1 X99.536 Y60.271 E2.5986
G1 X99.544 Y60.267 E2.5989
G1 X99.898 Y60.141 E2.6146
G1 X99.907 Y60.138 E2.6149
G1 X100.655 Y59.931 E2.6472
G1 X100.664 Y59.929 E2.6476
G1 X101.029 Y59.856 E2.6631
G1 X101.038 Y59.855 E2.6635
G1 X101.707 Y59.771 E2.6915
G1 X101.714 Y59.77 E2.6918
G1 X102.034 Y59.75 E2.7051
G1 X102.041 Y59.75 E2.7054
G1 X105.817 Y59.751 E2.8624
G1 X105.825 Y59.751 E2.8627
G1 X106.15 Y59.771 E2.8762
G1 X106.157 Y59.772 E2.8766
G1 X106.834 Y59.858 E2.9049
G1 X106.843 Y59.86 E2.9053
G1 X107.211 Y59.935 E2.9209
G1 X107.22 Y59.937 E2.9213
G1 X107.97 Y60.147 E2.9537
G1 X107.979 Y60.15 E2.9541
G1 X108.333 Y60.278 E2.9697
G1 X108.342 Y60.281 E2.9701
G1 X109.054 Y60.599 E3.0025
G1 X109.062 Y60.603 E3.0029
G1 X109.393 Y60.782 E3.0186
G1 X109.401 Y60.786 E3.019
G1 X110.057 Y61.204 E3.0513
G1 X110.065 Y61.209 E3.0517
G1 X110.363 Y61.431 E3.0671
G1 X110.37 Y61.437 E3.0675
G1 X110.955 Y61.941 E3.0996
G1 X110.962 Y61.947 E3.1
G1 X111.228 Y62.214 E3.1156
G1 X111.234 Y62.22 E3.116
G1 X111.744 Y62.811 E3.1484
G1 X111.749 Y62.818 E3.1488
G1 X111.974 Y63.12 E3.1645
G1 X111.979 Y63.128 E3.1649
G1 X112.397 Y63.786 E3.1973
G1 X112.401 Y63.794 E3.1977
G1 X112.579 Y64.126 E3.2133
G1 X112.583 Y64.134 E3.2137
G1 X112.9 Y64.847 E3.2461
G1 X112.903 Y64.856 E3.2465
G1 X113.03 Y65.21 E3.2621
G1 X113.033 Y65.219 E3.2625
G1 X113.242 Y65.97 E3.295
G1 X113.244 Y65.979 E3.2953
G1 X113.319 Y66.348 E3.311
G1 X113.32 Y66.357 E3.3114
G1 X113.404 Y67.031 E3.3396
G1 X113.405 Y67.039 E3.3399
G1 X113.425 Y67.358 E3.3532
G1 X113.425 Y67.365 E3.3535
G1 X113.425 Y82.635 E3.9884
G1 X113.425 Y82.642 E3.9887
G1 X113.405 Y82.961 E4.002
G1 X113.404 Y82.969 E4.0023
G1 X113.32 Y83.643 E4.0305
G1 X113.319 Y83.652 E4.0309
G1 X113.244 Y84.021 E4.0466
G1 X113.242 Y84.03 E4.047
G1 X113.033 Y84.781 E4.0794
G1 X113.03 Y84.79 E4.0798
G1 X112.903 Y85.144 E4.0954
G1 X112.9 Y85.153 E4.0958
G1 X112.583 Y85.866 E4.1282
G1 X112.579 Y85.874 E4.1286
G1 X112.401 Y86.206 E4.1442
G1 X112.397 Y86.213 E4.1446
G1 X111.978 Y86.874 E4.1771
G1 X111.972 Y86.882 E4.1775
G1 X111.745 Y87.188 E4.1934
G1 X111.739 Y87.195 E4.1938
G1 X111.224 Y87.79 E4.2265
G1 X111.217 Y87.797 E4.2269
G1 X110.951 Y88.062 E4.2425
G1 X110.944 Y88.069 E4.2429
G1 X110.354 Y88.575 E4.2752
G1 X110.347 Y88.581 E4.2756
G1 X110.049 Y88.802 E4.2911
G1 X110.041 Y88.808 E4.2914
G1 X109.387 Y89.222 E4.3236
G1 X109.379 Y89.227 E4.324
G1 X109.043 Y89.407 E4.3399
G1 X109.034 Y89.411 E4.3403
G1 X108.315 Y89.729 E4.373
G1 X108.306 Y89.733 E4.3734
G1 X107.953 Y89.859 E4.389
G1 X107.944 Y89.862 E4.3894
G1 X107.195 Y90.069 E4.4216
G1 X107.187 Y90.071 E4.422
G1 X106.821 Y90.144 E4.4375
G1 X106.812 Y90.145 E4.4379
G1 X106.144 Y90.229 E4.4659
G1 X106.136 Y90.23 E4.4662
G1 X105.817 Y90.25 E4.4795
G1 X105.809 Y90.25 E4.4798
G1 X102.033 Y90.249 E4.6368
G1 X102.025 Y90.249 E4.6372
G1 X101.701 Y90.229 E4.6507
G1 X101.693 Y90.228 E4.651
G1 X101.016 Y90.141 E4.6794
G1 X101.007 Y90.14 E4.6797
G1 X100.639 Y90.065 E4.6953
G1 X100.631 Y90.063 E4.6957
G1 X99.88 Y89.853 E4.7281
G1 X99.871 Y89.85 E4.7285
G1 X99.517 Y89.722 E4.7442
G1 X99.509 Y89.719 E4.7445
G1 X98.797 Y89.401 E4.777
G1 X98.789 Y89.397 E4.7773
G1 X98.457 Y89.218 E4.793
G1 X98.449 Y89.214 E4.7934
G1 X97.793 Y88.796 E4.8257
G1 X97.786 Y88.791 E4.8261
G1 X97.488 Y88.569 E4.8415
G1 X97.481 Y88.563 E4.8419
G1 X96.896 Y88.059 E4.874
G1 X96.889 Y88.053 E4.8744
G1 X96.623 Y87.786 E4.8901
G1 X96.617 Y87.78 E4.8904
G1 X96.107 Y87.189 E4.9229
G1 X96.101 Y87.182 E4.9232
G1 X95.877 Y86.88 E4.9389
G1 X95.872 Y86.872 E4.9393
G1 X95.454 Y86.214 E4.9717
G1 X95.449 Y86.206 E4.9721
G1 X95.272 Y85.874 E4.9877
G1 X95.268 Y85.866 E4.9881
G1 X94.951 Y85.153 E5.0205
G1 X94.947 Y85.144 E5.0209
G1 X94.82 Y84.79 E5.0366
G1 X94.817 Y84.781 E5.0369
G1 X94.608 Y84.027 E5.0695
G1 X94.605 Y84.018 E5.0699
G1 X94.531 Y83.644 E5.0858
G1 X94.529 Y83.634 E5.0861
G1 X94.482 Y83.25 E5.1022
G1 X50.253 Y83.25 E6.9411
G1 X48.688 Y83.898 E7.0115
G1 X48.672 Y83.904 E7.0122
G1 X48.023 Y84.078 E7.0401
