; G-Code generated by Simplify3D(R) Version 2.2.2
; Apr 6, 2015 at 4:08:48 
; Settings Summary
;   processName,NEO
;   applyToModels,013_soportemotor_(repaired)
;   profileLabel,Robotica.fff
;   printMaterial,PLA
;   printQuality,High
;   extruderName,Primary Extruder
;   extruderToolheadNumber,0
;   extruderDiameter,0.5
;   extruderAutoWidth,0
;   extruderWidth,0.5
;   extrusionMultiplier,1
;   extruderUseRetract,1
;   extruderRetractionDistance,5
;   extruderExtraRestartDistance,0
;   extruderRetractionZLift,0
;   extruderRetractionSpeed,4998
;   extruderUseCoasting,0
;   extruderCoastingDistance,0.2
;   extruderUseWipe,0
;   extruderWipeDistance,5
;   primaryExtruder,0
;   layerHeight,0.2
;   topSolidLayers,6
;   bottomSolidLayers,6
;   perimeterOutlines,2
;   printPerimetersInsideOut,1
;   startPointOption,2
;   startPointOriginX,0
;   startPointOriginY,0
;   startPointOriginZ,300
;   sequentialIslands,0
;   spiralVaseMode,0
;   firstLayerHeightPercentage,100
;   firstLayerWidthPercentage,100
;   firstLayerUnderspeed,0.5
;   useRaft,0
;   raftExtruder,0
;   raftLayers,3
;   raftOffset,3
;   raftSeparationDistance,0.1
;   raftInfill,85
;   disableRaftBaseLayers,0
;   useSkirt,1
;   skirtExtruder,0
;   skirtLayers,1
;   skirtOutlines,2
;   skirtOffset,5
;   infillExtruder,0
;   externalInfillPattern,Rectilinear
;   infillPercentage,15
;   outlineOverlapPercentage,15
;   infillExtrusionWidthPercentage,100
;   minInfillLength,3
;   infillLayerInterval,1
;   randomInfillStartPoint,0
;   infillAngles,45,-45
;   generateSupport,1
;   supportExtruder,0
;   supportInfill,20
;   supportExtraInflation,0
;   denseSupportLayers,0
;   denseSupportInfill,50
;   supportLayerInterval,1
;   supportHorizontalPartOffset,0.6
;   supportUpperSeparationLayers,1
;   supportLowerSeparationLayers,1
;   supportGridSpacing,1.5
;   maxOverhangAngle,45
;   supportAngles,45
;   temperatureName,Primary Extruder
;   temperatureNumber,0
;   temperatureSetpointCount,1
;   temperatureSetpointLayers,1
;   temperatureSetpointTemperatures,190
;   temperatureStabilizeAtStartup,1
;   temperatureHeatedBed,0
;   temperatureRelayBetweenLayers,0
;   temperatureRelayBetweenLoops,0
;   fanLayers,1,3
;   fanSpeeds,0,100
;   blipFanToFullPower,0
;   adjustSpeedForCooling,1
;   minSpeedLayerTime,15
;   minCoolingSpeedSlowdown,20
;   increaseFanForCooling,0
;   minFanLayerTime,45
;   maxCoolingFanSpeed,100
;   increaseFanForBridging,0
;   bridgingFanSpeed,100
;   use5D,1
;   relativeEdistances,0
;   allowEaxisZeroing,1
;   independentExtruderAxes,0
;   includeM10123,0
;   stickySupport,1
;   detectArcs,0
;   arcReplaceG2G3,0
;   arcRadialCompensation,1
;   gcodeXoffset,0
;   gcodeYoffset,0
;   gcodeZoffset,0
;   overrideMachineDefinition,1
;   machineTypeOverride,0
;   strokeXoverride,150
;   strokeYoverride,150
;   strokeZoverride,150
;   originOffsetXoverride,0
;   originOffsetYoverride,0
;   originOffsetZoverride,0
;   homeXdirOverride,-1
;   homeYdirOverride,-1
;   homeZdirOverride,-1
;   flipXoverride,1
;   flipYoverride,-1
;   flipZoverride,1
;   startingGcode,G28 ; home all axes
;   layerChangeGcode,
;   toolChangeGcode,
;   endingGcode,M104 S0 ; turn off extruder,G28 X0  ; home X axis,G28 Y0  ; home Y axis,M84 ; disable motors
;   createX3G,0
;   celebration,0
;   celebrationSong,Random Song
;   createMB5G,0
;   postProcessing,
;   defaultSpeed,1800
;   outlineUnderspeed,0.5
;   solidInfillUnderspeed,0.8
;   supportUnderspeed,1
;   rapidXYspeed,9000
;   rapidZspeed,1200
;   minBridgingArea,50
;   bridgingExtrusionMultiplier,1
;   bridgingSpeedMultiplier,1
;   filamentDiameter,1.75
;   filamentPricePerKg,34.6
;   useMinPrintHeight,0
;   minPrintHeight,0
;   useMaxPrintHeight,0
;   maxPrintHeight,0
;   useDiaphragm,0
;   diaphragmLayerInterval,20
;   robustSlicing,1
;   mergeAllIntoSolid,0
;   onlyRetractWhenCrossingOutline,1
;   retractBetweenLayers,1
;   useRetractionMinTravel,0
;   retractionMinTravel,3
;   useRetractionOozeRate,0
;   retractionOozeRate,100
;   onlyWipeOutlines,1
;   toolChangeRetractionDistance,12
;   toolChangeExtraRestartDistance,-0.5
;   toolChangeRetractionSpeed,600
;   allowThinWallGapFill,1
;   thinWallAllowedOverlapPercentage,10
;   horizontalSizeCompensation,0
G90
M82
M106 S0
M104 S190 T0
M109 S190 T0
G28 ; home all axes
G92 E0
G1 E-5 F4998
G1 Z0.2 F1200
; layer 1, Z = 0.2
T0
; tool H0.2 W0.5
G1 X50.252 Y53.216 F9000
G1 E0 F1499
G92 E0
G1 X53.116 Y50.352 E0.1684 F900
G1 X53.127 Y50.341 E0.169
G1 X53.284 Y50.197 E0.1779
G1 X53.295 Y50.187 E0.1785
G1 X53.658 Y49.877 E0.1983
G1 X53.681 Y49.859 E0.1996
G1 X54.027 Y49.609 E0.2173
G1 X54.052 Y49.592 E0.2185
G1 X54.548 Y49.29 E0.2427
G1 X54.573 Y49.275 E0.2439
G1 X54.947 Y49.086 E0.2614
G1 X54.974 Y49.074 E0.2626
G1 X55.509 Y48.852 E0.2866
G1 X55.537 Y48.842 E0.2879
G1 X55.944 Y48.711 E0.3057
G1 X55.972 Y48.703 E0.3069
G1 X56.537 Y48.569 E0.331
G1 X56.565 Y48.564 E0.3322
G1 X56.975 Y48.499 E0.3494
G1 X57.003 Y48.496 E0.3506
G1 X57.468 Y48.459 E0.37
G1 X57.483 Y48.459 E0.3706
G1 X57.694 Y48.45 E0.3794
G1 X57.709 Y48.45 E0.38
G1 X92.284 Y48.45 E1.8175
G1 X92.3 Y48.451 E1.8182
G1 X92.522 Y48.46 E1.8274
G1 X92.537 Y48.461 E1.828
G1 X93.031 Y48.502 E1.8486
G1 X93.062 Y48.506 E1.8499
G1 X93.506 Y48.58 E1.8686
G1 X93.536 Y48.587 E1.8699
G1 X94.125 Y48.737 E1.8952
G1 X94.153 Y48.745 E1.8964
G1 X94.561 Y48.885 E1.9143
G1 X94.589 Y48.896 E1.9156
G1 X95.135 Y49.133 E1.9403
G1 X95.162 Y49.146 E1.9416
G1 X95.551 Y49.355 E1.96
G1 X95.578 Y49.371 E1.9612
G1 X96.08 Y49.696 E1.9861
G1 X96.105 Y49.713 E1.9874
G1 X96.444 Y49.973 E2.0052
G1 X96.467 Y49.992 E2.0064
G1 X96.826 Y50.315 E2.0265
G1 X96.837 Y50.326 E2.0271
G1 X96.994 Y50.479 E2.0362
G1 X97.005 Y50.49 E2.0369
G1 X99.886 Y53.546 E2.2115
G1 X99.896 Y53.557 E2.2121
G1 X100.032 Y53.714 E2.2207
G1 X100.042 Y53.725 E2.2213
G1 X100.33 Y54.082 E2.2404
G1 X100.347 Y54.105 E2.2416
G1 X100.581 Y54.446 E2.2588
G1 X100.596 Y54.47 E2.26
G1 X100.881 Y54.962 E2.2836
G1 X100.894 Y54.987 E2.2848
G1 X101.074 Y55.361 E2.302
G1 X101.085 Y55.387 E2.3032
G1 X101.286 Y55.904 E2.3263
G1 X101.295 Y55.93 E2.3274
G1 X101.409 Y56.299 E2.3435
G1 X101.416 Y56.325 E2.3446
G1 X101.537 Y56.852 E2.3671
G1 X101.542 Y56.879 E2.3682
G1 X101.604 Y57.282 E2.3852
G1 X101.607 Y57.31 E2.3863
G1 X101.641 Y57.764 E2.4053
G1 X101.642 Y57.779 E2.4059
G1 X101.65 Y57.981 E2.4143
G1 X101.65 Y57.996 E2.4149
G1 X101.649 Y92.481 E3.8487
G1 X101.649 Y92.498 E3.8493
G1 X101.639 Y92.732 E3.8591
G1 X101.638 Y92.749 E3.8598
G1 X101.594 Y93.249 E3.8807
G1 X101.59 Y93.28 E3.882
G1 X101.515 Y93.715 E3.9003
G1 X101.509 Y93.745 E3.9016
G1 X101.356 Y94.34 E3.9271
G1 X101.347 Y94.37 E3.9284
G1 X101.196 Y94.802 E3.9475
G1 X101.184 Y94.832 E3.9488
G1 X100.93 Y95.397 E3.9745
G1 X100.917 Y95.424 E3.9758
G1 X100.703 Y95.811 E3.9942
G1 X100.688 Y95.837 E3.9955
G1 X100.353 Y96.341 E4.0206
G1 X100.335 Y96.366 E4.0219
G1 X100.062 Y96.712 E4.0402
G1 X100.042 Y96.735 E4.0415
G1 X99.705 Y97.098 E4.0621
G1 X99.694 Y97.109 E4.0627
G1 X99.534 Y97.266 E4.072
G1 X99.523 Y97.277 E4.0727
G1 X96.674 Y99.867 E4.2327
G1 X96.663 Y99.876 E4.2333
G1 X96.507 Y100.008 E4.2418
G1 X96.496 Y100.017 E4.2424
G1 X96.142 Y100.292 E4.2611
G1 X96.119 Y100.309 E4.2622
G1 X95.784 Y100.531 E4.279
G1 X95.76 Y100.546 E4.2801
G1 X95.279 Y100.817 E4.3031
G1 X95.253 Y100.83 E4.3043
G1 X94.887 Y101.001 E4.3211
G1 X94.861 Y101.012 E4.3223
G1 X94.355 Y101.203 E4.3448
G1 X94.33 Y101.212 E4.3459
G1 X93.969 Y101.32 E4.3615
G1 X93.944 Y101.327 E4.3626
G1 X93.43 Y101.442 E4.3845
G1 X93.402 Y101.447 E4.3857
G1 X93.01 Y101.506 E4.4022
G1 X92.982 Y101.509 E4.4033
G1 X92.538 Y101.542 E4.4218
G1 X92.525 Y101.542 E4.4224
G1 X92.326 Y101.55 E4.4307
G1 X92.313 Y101.55 E4.4312
G1 X57.703 Y101.55 E5.8701
G1 X57.688 Y101.549 E5.8708
G1 X57.473 Y101.541 E5.8797
G1 X57.458 Y101.54 E5.8803
G1 X56.983 Y101.502 E5.9001
G1 X56.953 Y101.498 E5.9014
G1 X56.526 Y101.429 E5.9194
G1 X56.497 Y101.423 E5.9206
G1 X55.924 Y101.283 E5.9451
G1 X55.895 Y101.275 E5.9464
G1 X55.491 Y101.141 E5.9641
G1 X55.463 Y101.13 E5.9653
G1 X54.93 Y100.905 E5.9894
G1 X54.904 Y100.893 E5.9906
G1 X54.535 Y100.703 E6.0078
G1 X54.51 Y100.689 E6.009
G1 X54.027 Y100.391 E6.0326
G1 X54.003 Y100.375 E6.0338
G1 X53.669 Y100.131 E6.051
G1 X53.647 Y100.113 E6.0522
G1 X53.293 Y99.811 E6.0715
G1 X53.282 Y99.801 E6.0722
G1 X53.127 Y99.658 E6.0809
G1 X53.116 Y99.648 E6.0815
G1 X50.247 Y96.779 E6.2502
G1 X50.237 Y96.768 E6.2509
G1 X50.084 Y96.602 E6.2602
G1 X50.074 Y96.591 E6.2609
G1 X49.763 Y96.222 E6.2809
G1 X49.745 Y96.2 E6.2821
G1 X49.503 Y95.863 E6.2993
G1 X49.487 Y95.839 E6.3005
G1 X49.186 Y95.347 E6.3245
G1 X49.172 Y95.32 E6.3258
G1 X48.977 Y94.935 E6.3437
G1 X48.965 Y94.908 E6.345
G1 X48.744 Y94.367 E6.3692
G1 X48.735 Y94.34 E6.3704
G1 X48.608 Y93.944 E6.3877
G1 X48.6 Y93.916 E6.3889
G1 X48.469 Y93.363 E6.4126
G1 X48.464 Y93.334 E6.4138
G1 X48.399 Y92.926 E6.431
G1 X48.396 Y92.897 E6.4322
G1 X48.359 Y92.432 E6.4516
G1 X48.359 Y92.417 E6.4522
G1 X48.35 Y92.206 E6.461
G1 X48.35 Y92.191 E6.4616
G1 X48.35 Y86.734 E6.6885
G1 X48.35 Y86.718 E6.6891
G1 X48.36 Y86.486 E6.6988
G1 X48.361 Y86.47 E6.6995
G1 X48.406 Y85.956 E6.7209
G1 X48.41 Y85.925 E6.7222
G1 X48.488 Y85.472 E6.7413
G1 X48.495 Y85.441 E6.7426
G1 X48.656 Y84.831 E6.7689
G1 X48.665 Y84.8 E6.7702
G1 X48.82 Y84.366 E6.7894
G1 X48.832 Y84.336 E6.7907
G1 X49.094 Y83.761 E6.817
G1 X49.109 Y83.733 E6.8183
G1 X49.336 Y83.332 E6.8375
G1 X49.353 Y83.304 E6.8388
G1 X49.709 Y82.783 E6.8651
G1 X49.728 Y82.757 E6.8664
G1 X50.02 Y82.4 E6.8856
G1 X50.041 Y82.376 E6.8869
G1 X50.482 Y81.923 E6.9132
G1 X50.505 Y81.901 E6.9145
G1 X50.854 Y81.599 E6.9337
G1 X50.879 Y81.579 E6.935
G1 X51.39 Y81.208 E6.9613
G1 X51.417 Y81.19 E6.9626
G1 X51.811 Y80.952 E6.9818
G1 X51.839 Y80.937 E6.9831
G1 X52.407 Y80.658 E7.0094
G1 X52.436 Y80.645 E7.0107
G1 X52.866 Y80.477 E7.0299
G1 X52.896 Y80.467 E7.0312
G1 X53.503 Y80.289 E7.0575
G1 X53.534 Y80.281 E7.0589
G1 X53.985 Y80.19 E7.078
G1 X54.017 Y80.185 E7.0793
G1 X54.521 Y80.127 E7.1004
G1 X54.537 Y80.125 E7.1011
G1 X54.767 Y80.109 E7.1107
G1 X54.783 Y80.108 E7.1113
G1 X70.49 Y79.657 E7.7646
G1 X70.564 Y79.662 E7.7677
G1 X71.611 Y79.84 E7.8118
G1 X71.682 Y79.859 E7.8149
G1 X73.331 Y80.49 E7.8883
G1 X74.133 Y80.671 E7.9225
G1 X74.952 Y80.735 E7.9567
G1 X75.772 Y80.682 E7.9908
G1 X76.576 Y80.512 E8.025
G1 X77.348 Y80.228 E8.0592
G1 X78.071 Y79.838 E8.0933
G1 X78.73 Y79.348 E8.1275
G1 X79.313 Y78.769 E8.1616
G1 X79.808 Y78.112 E8.1958
G1 X80.203 Y77.392 E8.23
G1 X80.491 Y76.622 E8.2641
G1 X80.667 Y75.82 E8.2983
G1 X80.726 Y75 E8.3325
G1 X80.667 Y74.18 E8.3666
G1 X80.491 Y73.378 E8.4008
G1 X80.203 Y72.608 E8.435
G1 X79.808 Y71.888 E8.4691
G1 X79.313 Y71.231 E8.5033
G1 X78.73 Y70.652 E8.5375
G1 X78.071 Y70.162 E8.5716
G1 X77.347 Y69.772 E8.6058
G1 X76.576 Y69.488 E8.64
G1 X75.772 Y69.318 E8.6741
G1 X74.952 Y69.265 E8.7083
G1 X74.133 Y69.329 E8.7425
G1 X73.331 Y69.51 E8.7766
G1 X71.682 Y70.141 E8.85
G1 X71.611 Y70.16 E8.8531
G1 X70.564 Y70.338 E8.8973
G1 X70.49 Y70.343 E8.9003
G1 X54.783 Y69.892 E9.5536
G1 X54.767 Y69.891 E9.5543
G1 X54.537 Y69.874 E9.5639
G1 X54.521 Y69.873 E9.5645
G1 X54.016 Y69.815 E9.5857
G1 X53.984 Y69.81 E9.587
G1 X53.533 Y69.718 E9.6062
G1 X53.501 Y69.711 E9.6075
G1 X52.895 Y69.532 E9.6338
G1 X52.865 Y69.522 E9.6351
G1 X52.436 Y69.355 E9.6542
G1 X52.406 Y69.342 E9.6556
G1 X51.84 Y69.063 E9.6818
G1 X51.811 Y69.048 E9.6832
G1 X51.417 Y68.81 E9.7023
G1 X51.39 Y68.792 E9.7037
G1 X50.879 Y68.421 E9.7299
G1 X50.854 Y68.401 E9.7313
G1 X50.505 Y68.099 E9.7504
G1 X50.482 Y68.077 E9.7518
G1 X50.042 Y67.624 E9.7781
G1 X50.02 Y67.6 E9.7794
G1 X49.728 Y67.243 E9.7985
G1 X49.709 Y67.217 E9.7999
G1 X49.353 Y66.696 E9.8262
G1 X49.336 Y66.668 E9.8275
G1 X49.109 Y66.267 E9.8466
G1 X49.094 Y66.239 E9.848
G1 X48.832 Y65.664 E9.8742
G1 X48.82 Y65.634 E9.8756
G1 X48.665 Y65.2 E9.8947
G1 X48.656 Y65.169 E9.8961
G1 X48.495 Y64.558 E9.9223
G1 X48.488 Y64.527 E9.9237
G1 X48.41 Y64.073 E9.9428
G1 X48.405 Y64.041 E9.9442
G1 X48.361 Y63.526 E9.9657
G1 X48.36 Y63.51 E9.9663
G1 X48.35 Y63.28 E9.9759
G1 X48.35 Y63.264 E9.9766
G1 X48.35 Y57.796 E10.2039
G1 X48.351 Y57.78 E10.2046
G1 X48.36 Y57.553 E10.214
G1 X48.361 Y57.538 E10.2146
G1 X48.402 Y57.058 E10.2347
G1 X48.406 Y57.028 E10.2359
G1 X48.473 Y56.614 E10.2534
G1 X48.479 Y56.585 E10.2546
G1 X48.616 Y56.029 E10.2784
G1 X48.624 Y56.002 E10.2796
G1 X48.753 Y55.608 E10.2968
G1 X48.763 Y55.581 E10.298
G1 X48.984 Y55.052 E10.3218
G1 X48.996 Y55.025 E10.3231
G1 X49.191 Y54.645 E10.3408
G1 X49.205 Y54.62 E10.342
G1 X49.509 Y54.127 E10.3661
G1 X49.525 Y54.104 E10.3673
G1 X49.769 Y53.769 E10.3845
G1 X49.787 Y53.747 E10.3857
G1 X50.089 Y53.392 E10.405
G1 X50.099 Y53.381 E10.4056
G1 X50.242 Y53.226 E10.4144
G1 X50.252 Y53.216 E10.415
G1 X50.609 Y53.566 F9000
G92 E0
G1 X53.467 Y50.709 E0.168 F900
G1 X53.47 Y50.705 E0.1682
G1 X53.619 Y50.568 E0.1766
G1 X53.623 Y50.564 E0.1768
G1 X53.975 Y50.264 E0.1961
G1 X53.983 Y50.258 E0.1965
G1 X54.312 Y50.019 E0.2134
G1 X54.32 Y50.014 E0.2138
G1 X54.8 Y49.722 E0.2372
G1 X54.808 Y49.717 E0.2376
G1 X55.165 Y49.536 E0.2542
G1 X55.174 Y49.532 E0.2546
G1 X55.691 Y49.318 E0.2778
G1 X55.7 Y49.315 E0.2782
G1 X56.088 Y49.19 E0.2952
G1 X56.097 Y49.187 E0.2956
G1 X56.643 Y49.058 E0.3189
G1 X56.652 Y49.056 E0.3193
G1 X57.042 Y48.995 E0.3357
G1 X57.052 Y48.994 E0.3361
G1 X57.503 Y48.958 E0.3549
G1 X57.508 Y48.958 E0.3551
G1 X57.709 Y48.95 E0.3635
G1 X57.714 Y48.95 E0.3637
G1 X92.279 Y48.95 E1.8008
G1 X92.284 Y48.95 E1.801
G1 X92.496 Y48.959 E1.8098
G1 X92.501 Y48.96 E1.81
G1 X92.979 Y48.999 E1.83
G1 X92.99 Y49.001 E1.8304
G1 X93.413 Y49.072 E1.8482
G1 X93.423 Y49.074 E1.8487
G1 X93.991 Y49.219 E1.873
G1 X94.001 Y49.222 E1.8735
G1 X94.389 Y49.355 E1.8905
G1 X94.398 Y49.358 E1.8909
G1 X94.926 Y49.588 E1.9149
G1 X94.935 Y49.592 E1.9153
G1 X95.306 Y49.791 E1.9328
G1 X95.315 Y49.796 E1.9332
G1 X95.801 Y50.11 E1.9572
G1 X95.809 Y50.116 E1.9577
G1 X96.132 Y50.364 E1.9746
G1 X96.14 Y50.37 E1.975
G1 X96.488 Y50.683 E1.9945
G1 X96.491 Y50.687 E1.9947
G1 X96.641 Y50.833 E2.0034
G1 X96.644 Y50.837 E2.0036
G1 X99.519 Y53.886 E2.1778
G1 X99.522 Y53.889 E2.178
G1 X99.652 Y54.039 E2.1862
G1 X99.655 Y54.042 E2.1864
G1 X99.934 Y54.388 E2.2049
G1 X99.94 Y54.396 E2.2053
G1 X100.163 Y54.721 E2.2217
G1 X100.168 Y54.729 E2.2221
G1 X100.443 Y55.204 E2.2449
G1 X100.448 Y55.212 E2.2453
G1 X100.619 Y55.568 E2.2617
G1 X100.622 Y55.577 E2.2621
G1 X100.817 Y56.077 E2.2844
G1 X100.82 Y56.085 E2.2848
G1 X100.928 Y56.438 E2.3001
G1 X100.93 Y56.446 E2.3005
G1 X101.048 Y56.955 E2.3222
G1 X101.049 Y56.964 E2.3226
G1 X101.108 Y57.347 E2.3387
G1 X101.109 Y57.357 E2.3391
G1 X101.142 Y57.797 E2.3575
G1 X101.143 Y57.802 E2.3577
G1 X101.15 Y57.996 E2.3657
G1 X101.15 Y58 E2.3659
G1 X101.149 Y92.476 E3.7992
G1 X101.149 Y92.481 E3.7995
G1 X101.14 Y92.705 E3.8088
G1 X101.139 Y92.71 E3.809
G1 X101.097 Y93.195 E3.8292
G1 X101.095 Y93.206 E3.8297
G1 X101.024 Y93.621 E3.8472
G1 X101.022 Y93.631 E3.8476
G1 X100.875 Y94.205 E3.8723
G1 X100.871 Y94.215 E3.8727
G1 X100.727 Y94.627 E3.8908
G1 X100.723 Y94.637 E3.8913
G1 X100.478 Y95.183 E3.9162
G1 X100.474 Y95.192 E3.9166
G1 X100.271 Y95.561 E3.9341
G1 X100.265 Y95.569 E3.9345
G1 X99.942 Y96.056 E3.9588
G1 X99.936 Y96.064 E3.9592
G1 X99.676 Y96.394 E3.9767
G1 X99.67 Y96.402 E3.9771
G1 X99.342 Y96.753 E3.9971
G1 X99.339 Y96.757 E3.9973
G1 X99.187 Y96.907 E4.0062
G1 X99.183 Y96.911 E4.0064
G1 X96.341 Y99.494 E4.166
G1 X96.338 Y99.497 E4.1662
G1 X96.188 Y99.622 E4.1744
G1 X96.185 Y99.625 E4.1745
G1 X95.842 Y99.892 E4.1926
G1 X95.834 Y99.898 E4.193
G1 X95.515 Y100.11 E4.2089
G1 X95.507 Y100.115 E4.2093
G1 X95.042 Y100.376 E4.2315
G1 X95.033 Y100.381 E4.2319
G1 X94.684 Y100.544 E4.2479
G1 X94.675 Y100.547 E4.2483
G1 X94.186 Y100.732 E4.2701
G1 X94.178 Y100.735 E4.2704
G1 X93.834 Y100.838 E4.2854
G1 X93.825 Y100.841 E4.2857
G1 X93.329 Y100.953 E4.3069
G1 X93.32 Y100.954 E4.3073
G1 X92.945 Y101.01 E4.323
G1 X92.936 Y101.011 E4.3234
G1 X92.506 Y101.043 E4.3413
G1 X92.502 Y101.043 E4.3415
G1 X92.313 Y101.05 E4.3494
G1 X92.308 Y101.05 E4.3496
G1 X57.708 Y101.05 E5.7881
