; G-Code generated by Simplify3D(R) Version 2.2.2
; Apr 6, 2015 at 4:09:12 
; Settings Summary
;   processName,NEO
;   applyToModels,014_soporteVarillas_Z
;   profileLabel,Robotica.fff
;   printMaterial,PLA
;   printQuality,High
;   extruderName,Primary Extruder
;   extruderToolheadNumber,0
;   extruderDiameter,0.5
;   extruderAutoWidth,0
;   extruderWidth,0.5
;   extrusionMultiplier,1
;   extruderUseRetract,1
;   extruderRetractionDistance,5
;   extruderExtraRestartDistance,0
;   extruderRetractionZLift,0
;   extruderRetractionSpeed,4998
;   extruderUseCoasting,0
;   extruderCoastingDistance,0.2
;   extruderUseWipe,0
;   extruderWipeDistance,5
;   primaryExtruder,0
;   layerHeight,0.2
;   topSolidLayers,6
;   bottomSolidLayers,6
;   perimeterOutlines,2
;   printPerimetersInsideOut,1
;   startPointOption,2
;   startPointOriginX,0
;   startPointOriginY,0
;   startPointOriginZ,300
;   sequentialIslands,0
;   spiralVaseMode,0
;   firstLayerHeightPercentage,100
;   firstLayerWidthPercentage,100
;   firstLayerUnderspeed,0.5
;   useRaft,0
;   raftExtruder,0
;   raftLayers,3
;   raftOffset,3
;   raftSeparationDistance,0.1
;   raftInfill,85
;   disableRaftBaseLayers,0
;   useSkirt,1
;   skirtExtruder,0
;   skirtLayers,1
;   skirtOutlines,2
;   skirtOffset,5
;   infillExtruder,0
;   externalInfillPattern,Rectilinear
;   infillPercentage,15
;   outlineOverlapPercentage,15
;   infillExtrusionWidthPercentage,100
;   minInfillLength,3
;   infillLayerInterval,1
;   randomInfillStartPoint,0
;   infillAngles,45,-45
;   generateSupport,1
;   supportExtruder,0
;   supportInfill,20
;   supportExtraInflation,0
;   denseSupportLayers,0
;   denseSupportInfill,50
;   supportLayerInterval,1
;   supportHorizontalPartOffset,0.6
;   supportUpperSeparationLayers,1
;   supportLowerSeparationLayers,1
;   supportGridSpacing,1.5
;   maxOverhangAngle,45
;   supportAngles,45
;   temperatureName,Primary Extruder
;   temperatureNumber,0
;   temperatureSetpointCount,1
;   temperatureSetpointLayers,1
;   temperatureSetpointTemperatures,190
;   temperatureStabilizeAtStartup,1
;   temperatureHeatedBed,0
;   temperatureRelayBetweenLayers,0
;   temperatureRelayBetweenLoops,0
;   fanLayers,1,3
;   fanSpeeds,0,100
;   blipFanToFullPower,0
;   adjustSpeedForCooling,1
;   minSpeedLayerTime,15
;   minCoolingSpeedSlowdown,20
;   increaseFanForCooling,0
;   minFanLayerTime,45
;   maxCoolingFanSpeed,100
;   increaseFanForBridging,0
;   bridgingFanSpeed,100
;   use5D,1
;   relativeEdistances,0
;   allowEaxisZeroing,1
;   independentExtruderAxes,0
;   includeM10123,0
;   stickySupport,1
;   detectArcs,0
;   arcReplaceG2G3,0
;   arcRadialCompensation,1
;   gcodeXoffset,0
;   gcodeYoffset,0
;   gcodeZoffset,0
;   overrideMachineDefinition,1
;   machineTypeOverride,0
;   strokeXoverride,150
;   strokeYoverride,150
;   strokeZoverride,150
;   originOffsetXoverride,0
;   originOffsetYoverride,0
;   originOffsetZoverride,0
;   homeXdirOverride,-1
;   homeYdirOverride,-1
;   homeZdirOverride,-1
;   flipXoverride,1
;   flipYoverride,-1
;   flipZoverride,1
;   startingGcode,G28 ; home all axes
;   layerChangeGcode,
;   toolChangeGcode,
;   endingGcode,M104 S0 ; turn off extruder,G28 X0  ; home X axis,G28 Y0  ; home Y axis,M84 ; disable motors
;   createX3G,0
;   celebration,0
;   celebrationSong,Random Song
;   createMB5G,0
;   postProcessing,
;   defaultSpeed,1800
;   outlineUnderspeed,0.5
;   solidInfillUnderspeed,0.8
;   supportUnderspeed,1
;   rapidXYspeed,9000
;   rapidZspeed,1200
;   minBridgingArea,50
;   bridgingExtrusionMultiplier,1
;   bridgingSpeedMultiplier,1
;   filamentDiameter,1.75
;   filamentPricePerKg,34.6
;   useMinPrintHeight,0
;   minPrintHeight,0
;   useMaxPrintHeight,0
;   maxPrintHeight,0
;   useDiaphragm,0
;   diaphragmLayerInterval,20
;   robustSlicing,1
;   mergeAllIntoSolid,0
;   onlyRetractWhenCrossingOutline,1
;   retractBetweenLayers,1
;   useRetractionMinTravel,0
;   retractionMinTravel,3
;   useRetractionOozeRate,0
;   retractionOozeRate,100
;   onlyWipeOutlines,1
;   toolChangeRetractionDistance,12
;   toolChangeExtraRestartDistance,-0.5
;   toolChangeRetractionSpeed,600
;   allowThinWallGapFill,1
;   thinWallAllowedOverlapPercentage,10
;   horizontalSizeCompensation,0
G90
M82
M106 S0
M104 S190 T0
M109 S190 T0
G28 ; home all axes
G92 E0
G1 E-5 F4998
G1 Z0.2 F1200
; layer 1, Z = 0.2
T0
; tool H0.2 W0.5
G1 X48.848 Y65.505 F9000
G1 E0 F1499
G92 E0
G1 X49.532 Y65.007 E0.0352 F900
G1 X49.583 Y64.976 E0.0376
G1 X50.446 Y64.537 E0.0779
G1 X50.486 Y64.519 E0.0798
G1 X51.081 Y64.3 E0.1061
G1 X51.123 Y64.287 E0.1079
G1 X51.851 Y64.112 E0.139
G1 X51.894 Y64.104 E0.1409
G1 X52.523 Y64.03 E0.1672
G1 X52.568 Y64.027 E0.1691
G1 X97.21 Y64.018 E2.0251
G1 X97.24 Y64.019 E2.0263
G1 X97.661 Y64.052 E2.0439
G1 X97.691 Y64.056 E2.0451
G1 X98.543 Y64.191 E2.081
G1 X98.601 Y64.205 E2.0835
G1 X99.405 Y64.466 E2.1186
G1 X99.46 Y64.488 E2.1211
G1 X100.417 Y64.976 E2.1658
G1 X100.468 Y65.007 E2.1682
G1 X101.152 Y65.505 E2.2034
G1 X101.197 Y65.543 E2.2059
G1 X101.957 Y66.303 E2.2506
G1 X101.996 Y66.348 E2.253
G1 X102.493 Y67.032 E2.2882
G1 X102.523 Y67.082 E2.2906
G1 X103.011 Y68.04 E2.3353
G1 X103.034 Y68.095 E2.3378
G1 X103.295 Y68.899 E2.3729
G1 X103.309 Y68.957 E2.3754
G1 X103.444 Y69.809 E2.4113
G1 X103.448 Y69.838 E2.4125
G1 X103.481 Y70.259 E2.4301
G1 X103.482 Y70.289 E2.4313
G1 X103.482 Y79.711 E2.823
G1 X103.481 Y79.741 E2.8242
G1 X103.448 Y80.162 E2.8418
G1 X103.444 Y80.191 E2.843
G1 X103.326 Y80.939 E2.8745
G1 X103.316 Y80.982 E2.8763
G1 X103.144 Y81.592 E2.9027
G1 X103.13 Y81.634 E2.9045
G1 X102.843 Y82.326 E2.9357
G1 X102.824 Y82.365 E2.9375
G1 X102.514 Y82.918 E2.9639
G1 X102.49 Y82.956 E2.9657
G1 X101.921 Y83.74 E3.006
G1 X101.883 Y83.784 E3.0084
G1 X101.284 Y84.383 E3.0436
G1 X101.239 Y84.421 E3.0461
G1 X100.37 Y85.053 E3.0907
G1 X100.32 Y85.084 E3.0932
G1 X99.566 Y85.467 E3.1284
G1 X99.512 Y85.49 E3.1308
G1 X98.49 Y85.822 E3.1755
G1 X98.432 Y85.836 E3.1779
G1 X97.597 Y85.968 E3.2131
G1 X97.538 Y85.973 E3.2155
G1 X52.79 Y85.982 E5.076
G1 X52.76 Y85.981 E5.0772
G1 X52.339 Y85.948 E5.0948
G1 X52.31 Y85.944 E5.096
G1 X51.457 Y85.809 E5.1319
G1 X51.4 Y85.796 E5.1343
G1 X50.595 Y85.534 E5.1695
G1 X50.54 Y85.512 E5.172
G1 X49.582 Y85.023 E5.2167
G1 X49.532 Y84.993 E5.2191
G1 X48.848 Y84.495 E5.2543
G1 X48.803 Y84.457 E5.2567
G1 X48.043 Y83.697 E5.3014
G1 X48.005 Y83.652 E5.3039
G1 X47.507 Y82.968 E5.339
G1 X47.477 Y82.918 E5.3415
G1 X47.037 Y82.054 E5.3818
G1 X47.019 Y82.014 E5.3836
G1 X46.799 Y81.419 E5.41
G1 X46.787 Y81.377 E5.4118
G1 X46.612 Y80.65 E5.4429
G1 X46.604 Y80.606 E5.4447
G1 X46.53 Y79.98 E5.471
G1 X46.527 Y79.936 E5.4728
G1 X46.518 Y70.293 E5.8737
G1 X46.519 Y70.264 E5.8749
G1 X46.552 Y69.84 E5.8926
G1 X46.556 Y69.811 E5.8938
G1 X46.691 Y68.957 E5.9298
G1 X46.705 Y68.899 E5.9322
G1 X46.966 Y68.095 E5.9674
G1 X46.989 Y68.04 E5.9698
G1 X47.477 Y67.082 E6.0145
G1 X47.507 Y67.032 E6.017
G1 X48.005 Y66.348 E6.0521
G1 X48.043 Y66.303 E6.0546
G1 X48.803 Y65.543 E6.0993
G1 X48.848 Y65.505 E6.1017
G1 X49.158 Y65.898 F9000
G92 E0
G1 X49.81 Y65.423 E0.0335 F900
G1 X49.827 Y65.413 E0.0344
G1 X50.66 Y64.989 E0.0732
G1 X50.673 Y64.983 E0.0738
G1 X51.24 Y64.774 E0.0989
G1 X51.254 Y64.769 E0.0996
G1 X51.953 Y64.602 E0.1295
G1 X51.968 Y64.599 E0.1301
G1 X52.568 Y64.528 E0.1552
G1 X52.582 Y64.527 E0.1558
G1 X97.201 Y64.518 E2.0108
G1 X97.21 Y64.518 E2.0112
G1 X97.612 Y64.55 E2.028
G1 X97.622 Y64.551 E2.0284
G1 X98.446 Y64.682 E2.063
G1 X98.465 Y64.686 E2.0639
G1 X99.232 Y64.935 E2.0974
G1 X99.25 Y64.943 E2.0982
G1 X100.173 Y65.413 E2.1413
G1 X100.19 Y65.423 E2.1421
G1 X100.843 Y65.898 E2.1756
G1 X100.858 Y65.91 E2.1765
G1 X101.59 Y66.643 E2.2195
G1 X101.603 Y66.658 E2.2203
G1 X102.077 Y67.31 E2.2539
G1 X102.087 Y67.327 E2.2547
G1 X102.557 Y68.25 E2.2977
G1 X102.565 Y68.268 E2.2986
G1 X102.814 Y69.035 E2.3321
G1 X102.818 Y69.054 E2.3329
G1 X102.949 Y69.878 E2.3676
G1 X102.95 Y69.887 E2.368
G1 X102.982 Y70.289 E2.3847
G1 X102.982 Y70.299 E2.3851
G1 X102.982 Y79.701 E2.7761
G1 X102.982 Y79.711 E2.7765
G1 X102.95 Y80.113 E2.7932
G1 X102.949 Y80.122 E2.7936
G1 X102.834 Y80.846 E2.8241
G1 X102.831 Y80.86 E2.8247
G1 X102.667 Y81.442 E2.8498
G1 X102.662 Y81.456 E2.8504
G1 X102.387 Y82.121 E2.8803
G1 X102.38 Y82.134 E2.8809
G1 X102.085 Y82.661 E2.9061
G1 X102.077 Y82.674 E2.9067
G1 X101.528 Y83.43 E2.9455
G1 X101.515 Y83.445 E2.9464
G1 X100.945 Y84.015 E2.9799
G1 X100.93 Y84.028 E2.9807
G1 X100.092 Y84.637 E3.0238
G1 X100.075 Y84.647 E3.0246
G1 X99.356 Y85.013 E3.0581
G1 X99.338 Y85.021 E3.0589
G1 X98.354 Y85.341 E3.102
G1 X98.335 Y85.345 E3.1028
G1 X97.538 Y85.471 E3.1363
G1 X97.519 Y85.473 E3.1371
G1 X52.8 Y85.482 E4.9963
G1 X52.79 Y85.482 E4.9968
G1 X52.388 Y85.45 E5.0135
G1 X52.378 Y85.449 E5.0139
G1 X51.554 Y85.319 E5.0486
G1 X51.535 Y85.314 E5.0494
G1 X50.768 Y85.065 E5.0829
G1 X50.75 Y85.057 E5.0838
G1 X49.827 Y84.587 E5.1268
G1 X49.81 Y84.577 E5.1276
G1 X49.158 Y84.102 E5.1612
G1 X49.143 Y84.09 E5.162
G1 X48.41 Y83.357 E5.2051
G1 X48.398 Y83.342 E5.2059
G1 X47.923 Y82.69 E5.2394
G1 X47.913 Y82.673 E5.2402
G1 X47.489 Y81.84 E5.2791
G1 X47.483 Y81.827 E5.2797
G1 X47.274 Y81.26 E5.3048
G1 X47.269 Y81.246 E5.3054
G1 X47.102 Y80.547 E5.3353
G1 X47.099 Y80.533 E5.3359
G1 X47.028 Y79.935 E5.3609
G1 X47.027 Y79.921 E5.3615
G1 X47.018 Y70.303 E5.7614
G1 X47.018 Y70.293 E5.7618
G1 X47.05 Y69.889 E5.7787
G1 X47.051 Y69.879 E5.7791
G1 X47.182 Y69.054 E5.8138
G1 X47.186 Y69.035 E5.8146
G1 X47.435 Y68.268 E5.8481
G1 X47.443 Y68.25 E5.849
G1 X47.913 Y67.327 E5.892
G1 X47.923 Y67.31 E5.8928
G1 X48.397 Y66.658 E5.9264
G1 X48.41 Y66.643 E5.9272
G1 X49.143 Y65.91 E5.9703
G1 X49.158 Y65.898 E5.9711
G92 E0
G1 E-5 F4998
G1 X53.018 Y70.527 F9000
G1 E0 F4998
G92 E0
G1 X96.982 Y70.518 E1.8278 F675
G1 X96.982 Y74.297 E1.9849
G1 X95.194 Y71.2 E2.1336
G1 X90.806 Y71.2 E2.316
G1 X88.612 Y75 E2.4985
G1 X90.806 Y78.8 E2.6809
G1 X95.194 Y78.8 E2.8633
G1 X96.982 Y75.703 E3.012
G1 X96.982 Y79.473 E3.1687
G1 X53.027 Y79.482 E4.9962
G1 X53.023 Y75.712 E5.1529
G1 X54.806 Y78.8 E5.3011
G1 X59.194 Y78.8 E5.4836
G1 X61.388 Y75 E5.666
G1 X59.194 Y71.2 E5.8484
G1 X54.806 Y71.2 E6.0309
G1 X53.022 Y74.291 E6.1792
G1 X53.018 Y70.527 E6.3357
G1 X52.718 Y70.113 F9000
G92 E0
G1 X52.861 Y70.04 E0.0066 F450
G1 X52.915 Y70.027 E0.009
G1 X96.98 Y70.018 E1.841
G1 X97.148 Y70.045 E1.848
G1 X97.29 Y70.117 E1.8547
G1 X97.34 Y70.16 E1.8574
G1 X97.383 Y70.21 E1.8601
G1 X97.455 Y70.352 E1.8668
G1 X97.482 Y70.52 E1.8738
G1 X97.482 Y79.48 E2.2464
G1 X97.454 Y79.658 E2.2539
G1 X97.433 Y79.709 E2.2562
G1 X97.339 Y79.839 E2.2628
G1 X97.217 Y79.927 E2.269
G1 X97.075 Y79.973 E2.2753
G1 X53.02 Y79.982 E4.1069
G1 X52.852 Y79.955 E4.1139
G1 X52.719 Y79.887 E4.1202
G1 X52.613 Y79.781 E4.1264
G1 X52.54 Y79.639 E4.133
G1 X52.527 Y79.585 E4.1354
G1 X52.518 Y70.52 E4.5122
G1 X52.545 Y70.352 E4.5193
G1 X52.613 Y70.219 E4.5255
G1 X52.718 Y70.113 E4.5318
G1 X55.095 Y71.7 F9000
G92 E0
G1 X53.189 Y75 E0.1584 F450
G1 X55.095 Y78.3 E0.3168
G1 X58.905 Y78.3 E0.4753
G1 X60.811 Y75 E0.6337
G1 X58.905 Y71.7 E0.7921
G1 X55.095 Y71.7 E0.9505
G92 E0
G1 E-5 F4998
G1 X89.189 Y75 F9000
G1 E0 F4998
G92 E0
G1 X91.095 Y78.3 E0.1584 F450
G1 X94.905 Y78.3 E0.3168
G1 X96.811 Y75 E0.4753
G1 X94.905 Y71.7 E0.6337
G1 X91.095 Y71.7 E0.7921
G1 X89.189 Y75 E0.9505
G1 X90.222 Y79.049 F9000
G92 E0
G1 X90.459 Y79.049 E0.0099 F720
G1 X90.372 Y78.899 E0.0171
G1 X90.222 Y79.049 E0.0259
G1 X89.515 Y79.05 E0.0553
G1 X90.114 Y78.451 E0.0905
G1 X89.855 Y78.002 E0.1121
G1 X88.807 Y79.05 E0.1736
G1 X88.1 Y79.05 E0.2031
G1 X89.596 Y77.554 E0.291
G1 X89.337 Y77.106 E0.3125
G1 X87.393 Y79.05 E0.4268
G1 X86.686 Y79.05 E0.4562
G1 X89.078 Y76.657 E0.5969
G1 X88.82 Y76.209 E0.6184
G1 X85.978 Y79.05 E0.7855
G1 X85.271 Y79.05 E0.8149
G1 X88.561 Y75.761 E1.0083
G1 X88.302 Y75.313 E1.0298
G1 X84.564 Y79.051 E1.2496
G1 X83.857 Y79.051 E1.279
G1 X88.414 Y74.494 E1.5469
G1 X89.38 Y72.821 E1.6272
G1 X83.149 Y79.051 E1.9936
G1 X82.442 Y79.051 E2.023
G1 X90.346 Y71.148 E2.4876
G1 X90.463 Y70.944 E2.4974
G1 X89.842 Y70.944 E2.5232
G1 X81.735 Y79.051 E2.9999
G1 X81.028 Y79.051 E3.0293
G1 X89.134 Y70.945 E3.5059
G1 X88.427 Y70.945 E3.5353
G1 X80.32 Y79.051 E4.012
G1 X79.613 Y79.052 E4.0414
G1 X87.72 Y70.945 E4.518
G1 X87.013 Y70.945 E4.5474
G1 X78.906 Y79.052 E5.024
G1 X78.199 Y79.052 E5.0535
G1 X86.305 Y70.945 E5.5301
G1 X85.598 Y70.945 E5.5595
G1 X77.491 Y79.052 E6.0361
G1 X76.784 Y79.052 E6.0655
G1 X84.891 Y70.945 E6.5422
G1 X84.184 Y70.946 E6.5716
G1 X76.077 Y79.052 E7.0482
G1 X75.37 Y79.052 E7.0776
G1 X83.476 Y70.946 E7.5543
G1 X82.769 Y70.946 E7.5837
G1 X74.662 Y79.053 E8.0603
G1 X73.955 Y79.053 E8.0897
G1 X82.062 Y70.946 E8.5664
G1 X81.355 Y70.946 E8.5958
G1 X73.248 Y79.053 E9.0724
G1 X72.541 Y79.053 E9.1018
G1 X80.647 Y70.946 E9.5784
G1 X79.94 Y70.946 E9.6078
G1 X71.833 Y79.053 E10.0845
G1 X71.126 Y79.053 E10.1139
G1 X79.233 Y70.947 E10.5905
G1 X78.526 Y70.947 E10.6199
G1 X70.419 Y79.053 E11.0966
G1 X69.712 Y79.054 E11.126
G1 X77.818 Y70.947 E11.6026
G1 X77.111 Y70.947 E11.632
G1 X69.004 Y79.054 E12.1087
G1 X68.297 Y79.054 E12.1381
G1 X76.404 Y70.947 E12.6147
G1 X75.697 Y70.947 E12.6441
G1 X67.59 Y79.054 E13.1207
G1 X66.883 Y79.054 E13.1501
G1 X74.989 Y70.947 E13.6268
G1 X74.282 Y70.948 E13.6562
G1 X66.175 Y79.054 E14.1328
G1 X65.468 Y79.054 E14.1622
G1 X73.575 Y70.948 E14.6389
G1 X72.868 Y70.948 E14.6683
G1 X64.761 Y79.055 E15.1449
G1 X64.054 Y79.055 E15.1743
G1 X72.16 Y70.948 E15.651
G1 X71.453 Y70.948 E15.6804
G1 X63.346 Y79.055 E16.157
G1 X62.639 Y79.055 E16.1864
G1 X70.746 Y70.948 E16.6631
G1 X70.039 Y70.949 E16.6925
G1 X61.932 Y79.055 E17.1691
G1 X61.225 Y79.055 E17.1985
G1 X69.331 Y70.949 E17.6751
G1 X68.624 Y70.949 E17.7045
G1 X60.517 Y79.055 E18.1812
G1 X59.81 Y79.056 E18.2106
G1 X67.917 Y70.949 E18.6872
G1 X67.21 Y70.949 E18.7166
G1 X60.13 Y78.029 E19.1329
G1 X61.096 Y76.356 E19.2132
G1 X66.502 Y70.949 E19.5311
G1 X65.795 Y70.949 E19.5605
G1 X61.829 Y74.915 E19.7936
G1 X61.571 Y74.467 E19.8151
G1 X65.088 Y70.95 E20.0219
G1 X64.381 Y70.95 E20.0513
G1 X61.312 Y74.018 E20.2318
G1 X61.053 Y73.57 E20.2533
G1 X63.673 Y70.95 E20.4074
G1 X62.966 Y70.95 E20.4368
G1 X60.794 Y73.122 E20.5645
G1 X60.535 Y72.673 E20.586
G1 X62.259 Y70.95 E20.6873
G1 X61.552 Y70.95 E20.7167
G1 X60.277 Y72.225 E20.7917
G1 X60.018 Y71.777 E20.8132
G1 X60.844 Y70.95 E20.8618
G1 X60.137 Y70.951 E20.8912
G1 X59.759 Y71.329 E20.9134
G1 X53.444 Y71.28 F9000
G92 E0
G1 X53.772 Y70.952 E0.0193 F720
G1 X54.459 Y70.952 E0.0478
G1 X54.431 Y71 E0.0502
G1 X53.444 Y71.986 E0.1081
G1 X53.445 Y72.693 E0.1375
G1 X53.465 Y72.673 E0.1387
G1 X53.445 Y72.707 E0.1403
G1 X53.445 Y72.693 E0.1409
G1 X53.45 Y77.637 F9000
G92 E0
G1 X53.573 Y77.514 E0.0072 F720
G1 X53.832 Y77.963 E0.0288
G1 X53.451 Y78.344 E0.0512
G1 X53.451 Y79.05 E0.0805
G1 X54.091 Y78.411 E0.1181
G1 X54.35 Y78.859 E0.1396
G1 X54.152 Y79.057 E0.1513
G1 X54.464 Y79.057 E0.1642
G1 X54.35 Y78.859 E0.1737
G1 X96.045 Y78.176 F9000
G92 E0
G1 X96.557 Y77.664 E0.0301 F720
G1 X96.557 Y78.371 E0.0595
G1 X95.88 Y79.048 E0.0993
G1 X96.557 Y79.048 E0.1275
G1 X96.557 Y78.371 E0.1556
G92 E0
G1 E-5 F4998
G1 X96.299 Y72.265 F9000
G1 E0 F4998
G92 E0
G1 X96.557 Y72.711 E0.0214 F720
G1 X96.557 Y72.007 E0.0507
G1 X96.299 Y72.265 E0.0658
G1 X96.041 Y71.817 E0.0873
G1 X96.557 Y71.3 E0.1177
G1 X96.557 Y70.943 E0.1325
G1 X96.207 Y70.943 E0.1471
G1 X95.782 Y71.368 E0.1721
G92 E0
G1 E-5 F4998
G1 X93.643 Y72.8 F9000
G1 E0 F4998
G92 E0
G1 X91.73 Y72.8 E0.0795 F900
G1 X91.262 Y73.61 E0.1184
G1 X92.833 Y73.61 E0.1837
G1 X94.738 Y73.61 E0.2629
G1 X94.27 Y72.8 E0.3018
G1 X93.643 Y72.8 E0.3279
G1 X92.833 Y73.61 E0.3755
G92 E0
G1 E-5 F4998
G1 X95.14 Y74.838 F9000
G1 E0 F4998
G92 E0
G1 X95.335 Y74.644 E0.0114 F900
G1 X95.54 Y75 E0.0285
G1 X95.14 Y75.693 E0.0618
G1 X95.14 Y74.838 E0.0974
G1 X95.14 Y74.307 E0.1195
G1 X95.335 Y74.644 E0.1357
G92 E0
G1 E-5 F4998
G1 X93.588 Y76.39 F9000
G1 E0 F4998
G92 E0
G1 X91.262 Y76.39 E0.0967 F900
G1 X91.73 Y77.2 E0.1356
G1 X92.778 Y77.2 E0.1792
G1 X94.27 Y77.2 E0.2412
G1 X94.738 Y76.39 E0.2801
G1 X93.588 Y76.39 E0.3279
G1 X92.778 Y77.2 E0.3755
