; G-Code generated by Simplify3D(R) Version 2.2.2
; Apr 6, 2015 at 3:44:39 
; Settings Summary
;   processName,NEO
;   applyToModels,015_Tapas Carros laterales - XYSlidingBlockBeltFastener
;   profileLabel,Robotica.fff
;   printMaterial,PLA
;   printQuality,High
;   extruderName,Primary Extruder
;   extruderToolheadNumber,0
;   extruderDiameter,0.5
;   extruderAutoWidth,0
;   extruderWidth,0.5
;   extrusionMultiplier,1
;   extruderUseRetract,1
;   extruderRetractionDistance,5
;   extruderExtraRestartDistance,0
;   extruderRetractionZLift,0
;   extruderRetractionSpeed,4998
;   extruderUseCoasting,0
;   extruderCoastingDistance,0.2
;   extruderUseWipe,0
;   extruderWipeDistance,5
;   primaryExtruder,0
;   layerHeight,0.2
;   topSolidLayers,6
;   bottomSolidLayers,6
;   perimeterOutlines,2
;   printPerimetersInsideOut,1
;   startPointOption,2
;   startPointOriginX,0
;   startPointOriginY,0
;   startPointOriginZ,300
;   sequentialIslands,0
;   spiralVaseMode,0
;   firstLayerHeightPercentage,100
;   firstLayerWidthPercentage,100
;   firstLayerUnderspeed,0.5
;   useRaft,0
;   raftExtruder,0
;   raftLayers,3
;   raftOffset,3
;   raftSeparationDistance,0.1
;   raftInfill,85
;   disableRaftBaseLayers,0
;   useSkirt,1
;   skirtExtruder,0
;   skirtLayers,1
;   skirtOutlines,2
;   skirtOffset,5
;   infillExtruder,0
;   externalInfillPattern,Rectilinear
;   infillPercentage,15
;   outlineOverlapPercentage,15
;   infillExtrusionWidthPercentage,100
;   minInfillLength,3
;   infillLayerInterval,1
;   randomInfillStartPoint,0
;   infillAngles,45,-45
;   generateSupport,1
;   supportExtruder,0
;   supportInfill,20
;   supportExtraInflation,0
;   denseSupportLayers,0
;   denseSupportInfill,50
;   supportLayerInterval,1
;   supportHorizontalPartOffset,0.6
;   supportUpperSeparationLayers,1
;   supportLowerSeparationLayers,1
;   supportGridSpacing,1.5
;   maxOverhangAngle,45
;   supportAngles,45
;   temperatureName,Primary Extruder
;   temperatureNumber,0
;   temperatureSetpointCount,1
;   temperatureSetpointLayers,1
;   temperatureSetpointTemperatures,190
;   temperatureStabilizeAtStartup,1
;   temperatureHeatedBed,0
;   temperatureRelayBetweenLayers,0
;   temperatureRelayBetweenLoops,0
;   fanLayers,1,3
;   fanSpeeds,0,100
;   blipFanToFullPower,0
;   adjustSpeedForCooling,1
;   minSpeedLayerTime,15
;   minCoolingSpeedSlowdown,20
;   increaseFanForCooling,0
;   minFanLayerTime,45
;   maxCoolingFanSpeed,100
;   increaseFanForBridging,0
;   bridgingFanSpeed,100
;   use5D,1
;   relativeEdistances,0
;   allowEaxisZeroing,1
;   independentExtruderAxes,0
;   includeM10123,0
;   stickySupport,1
;   detectArcs,0
;   arcReplaceG2G3,0
;   arcRadialCompensation,1
;   gcodeXoffset,0
;   gcodeYoffset,0
;   gcodeZoffset,0
;   overrideMachineDefinition,1
;   machineTypeOverride,0
;   strokeXoverride,150
;   strokeYoverride,150
;   strokeZoverride,150
;   originOffsetXoverride,0
;   originOffsetYoverride,0
;   originOffsetZoverride,0
;   homeXdirOverride,-1
;   homeYdirOverride,-1
;   homeZdirOverride,-1
;   flipXoverride,1
;   flipYoverride,-1
;   flipZoverride,1
;   startingGcode,G28 ; home all axes
;   layerChangeGcode,
;   toolChangeGcode,
;   endingGcode,M104 S0 ; turn off extruder,G28 X0  ; home X axis,G28 Y0  ; home Y axis,M84 ; disable motors
;   createX3G,0
;   celebration,0
;   celebrationSong,Random Song
;   createMB5G,0
;   postProcessing,
;   defaultSpeed,1800
;   outlineUnderspeed,0.5
;   solidInfillUnderspeed,0.8
;   supportUnderspeed,1
;   rapidXYspeed,9000
;   rapidZspeed,1200
;   minBridgingArea,50
;   bridgingExtrusionMultiplier,1
;   bridgingSpeedMultiplier,1
;   filamentDiameter,1.75
;   filamentPricePerKg,34.6
;   useMinPrintHeight,0
;   minPrintHeight,0
;   useMaxPrintHeight,0
;   maxPrintHeight,0
;   useDiaphragm,0
;   diaphragmLayerInterval,20
;   robustSlicing,1
;   mergeAllIntoSolid,0
;   onlyRetractWhenCrossingOutline,1
;   retractBetweenLayers,1
;   useRetractionMinTravel,0
;   retractionMinTravel,3
;   useRetractionOozeRate,0
;   retractionOozeRate,100
;   onlyWipeOutlines,1
;   toolChangeRetractionDistance,12
;   toolChangeExtraRestartDistance,-0.5
;   toolChangeRetractionSpeed,600
;   allowThinWallGapFill,1
;   thinWallAllowedOverlapPercentage,10
;   horizontalSizeCompensation,0
G90
M82
M106 S0
M104 S190 T0
M109 S190 T0
G28 ; home all axes
G92 E0
G1 E-5 F4998
G1 Z0.2 F1200
; layer 1, Z = 0.2
T0
; tool H0.2 W0.5
G1 X66.549 Y61.408 F9000
G1 E0 F1499
G92 E0
G1 X66.847 Y61.106 E0.0176 F900
G1 X66.868 Y61.086 E0.0188
G1 X67.307 Y60.707 E0.0429
G1 X67.33 Y60.689 E0.0442
G1 X67.669 Y60.439 E0.0617
G1 X67.694 Y60.422 E0.0629
G1 X68.192 Y60.113 E0.0873
G1 X68.218 Y60.098 E0.0885
G1 X68.602 Y59.9 E0.1065
G1 X68.629 Y59.887 E0.1078
G1 X69.169 Y59.662 E0.132
G1 X69.196 Y59.652 E0.1333
G1 X69.597 Y59.52 E0.1508
G1 X69.626 Y59.512 E0.1521
G1 X70.189 Y59.375 E0.1761
G1 X70.218 Y59.37 E0.1774
G1 X70.635 Y59.302 E0.1949
G1 X70.664 Y59.299 E0.1962
G1 X71.14 Y59.26 E0.216
G1 X71.155 Y59.259 E0.2166
G1 X71.373 Y59.25 E0.2257
G1 X71.388 Y59.25 E0.2263
G1 X81.72 Y59.25 E0.6559
G1 X81.996 Y59.364 E0.6683
G1 X85.136 Y62.504 E0.8529
G1 X85.25 Y62.78 E0.8653
G1 X85.25 Y73.72 E1.3202
G1 X85.136 Y73.996 E1.3326
G1 X84.132 Y75 E1.3916
G1 X85.136 Y76.004 E1.4507
G1 X85.25 Y76.28 E1.4631
G1 X85.25 Y87.22 E1.9179
G1 X85.136 Y87.496 E1.9303
G1 X81.996 Y90.636 E2.1149
G1 X81.72 Y90.75 E2.1273
G1 X71.388 Y90.75 E2.5569
G1 X71.373 Y90.75 E2.5575
G1 X71.155 Y90.741 E2.5666
G1 X71.14 Y90.74 E2.5672
G1 X70.664 Y90.701 E2.5871
G1 X70.635 Y90.698 E2.5883
G1 X70.218 Y90.63 E2.6059
G1 X70.189 Y90.625 E2.6071
G1 X69.626 Y90.488 E2.6312
G1 X69.597 Y90.48 E2.6324
G1 X69.196 Y90.348 E2.65
G1 X69.169 Y90.338 E2.6512
G1 X68.637 Y90.116 E2.6751
G1 X68.611 Y90.104 E2.6763
G1 X68.242 Y89.915 E2.6936
G1 X68.216 Y89.901 E2.6948
G1 X67.733 Y89.605 E2.7184
G1 X67.708 Y89.588 E2.7196
G1 X67.371 Y89.344 E2.7369
G1 X67.348 Y89.326 E2.7381
G1 X66.904 Y88.948 E2.7623
G1 X66.882 Y88.928 E2.7636
G1 X66.58 Y88.626 E2.7814
G1 X66.559 Y88.604 E2.7826
G1 X66.181 Y88.161 E2.8068
G1 X66.163 Y88.138 E2.808
G1 X65.915 Y87.797 E2.8256
G1 X65.899 Y87.772 E2.8268
G1 X65.596 Y87.278 E2.8509
G1 X65.582 Y87.253 E2.8521
G1 X65.39 Y86.876 E2.8697
G1 X65.377 Y86.849 E2.8709
G1 X65.156 Y86.314 E2.895
G1 X65.146 Y86.287 E2.8962
G1 X65.015 Y85.885 E2.9137
G1 X65.007 Y85.857 E2.915
G1 X64.872 Y85.294 E2.9391
G1 X64.866 Y85.265 E2.9403
G1 X64.8 Y84.847 E2.9579
G1 X64.796 Y84.817 E2.9591
G1 X64.759 Y84.345 E2.9788
G1 X64.759 Y84.33 E2.9794
G1 X64.75 Y84.12 E2.9882
G1 X64.75 Y84.105 E2.9888
G1 X64.75 Y76.28 E3.3141
G1 X64.864 Y76.004 E3.3265
G1 X65.868 Y75 E3.3856
G1 X64.864 Y73.996 E3.4446
G1 X64.75 Y73.72 E3.457
G1 X64.75 Y65.895 E3.7824
G1 X64.75 Y65.88 E3.783
G1 X64.759 Y65.67 E3.7917
G1 X64.759 Y65.655 E3.7923
G1 X64.796 Y65.183 E3.812
G1 X64.8 Y65.153 E3.8133
G1 X64.866 Y64.735 E3.8308
G1 X64.872 Y64.706 E3.8321
G1 X65.007 Y64.143 E3.8562
G1 X65.015 Y64.115 E3.8574
G1 X65.146 Y63.713 E3.8749
G1 X65.156 Y63.686 E3.8762
G1 X65.377 Y63.151 E3.9002
G1 X65.39 Y63.124 E3.9015
G1 X65.582 Y62.747 E3.919
G1 X65.596 Y62.722 E3.9203
G1 X65.891 Y62.241 E3.9437
G1 X65.906 Y62.217 E3.9449
G1 X66.143 Y61.889 E3.9617
G1 X66.161 Y61.866 E3.9629
G1 X66.529 Y61.429 E3.9867
G1 X66.549 Y61.408 E3.9879
G1 X66.912 Y61.752 F9000
G92 E0
G1 X67.196 Y61.465 E0.0168 F900
G1 X67.203 Y61.458 E0.0172
G1 X67.626 Y61.092 E0.0405
G1 X67.634 Y61.086 E0.0409
G1 X67.958 Y60.847 E0.0576
G1 X67.966 Y60.842 E0.058
G1 X68.447 Y60.543 E0.0816
G1 X68.456 Y60.538 E0.082
G1 X68.822 Y60.349 E0.0991
G1 X68.831 Y60.345 E0.0995
G1 X69.352 Y60.127 E0.123
G1 X69.361 Y60.124 E0.1234
G1 X69.744 Y59.998 E0.1401
G1 X69.753 Y59.996 E0.1406
G1 X70.297 Y59.864 E0.1638
G1 X70.307 Y59.862 E0.1642
G1 X70.705 Y59.798 E0.181
G1 X70.715 Y59.796 E0.1814
G1 X71.175 Y59.759 E0.2006
G1 X71.181 Y59.759 E0.2008
G1 X71.388 Y59.75 E0.2095
G1 X71.393 Y59.75 E0.2097
G1 X81.621 Y59.75 E0.6349
G1 X81.713 Y59.788 E0.639
G1 X84.712 Y62.787 E0.8154
G1 X84.75 Y62.879 E0.8195
G1 X84.75 Y73.621 E1.2661
G1 X84.712 Y73.713 E1.2702
G1 X83.425 Y75 E1.3459
G1 X84.712 Y76.287 E1.4216
G1 X84.75 Y76.379 E1.4257
G1 X84.75 Y87.121 E1.8723
G1 X84.712 Y87.213 E1.8765
G1 X81.713 Y90.212 E2.0528
G1 X81.621 Y90.25 E2.0569
G1 X71.393 Y90.25 E2.4821
G1 X71.388 Y90.25 E2.4824
G1 X71.181 Y90.241 E2.491
G1 X71.175 Y90.241 E2.4912
G1 X70.715 Y90.204 E2.5104
G1 X70.705 Y90.202 E2.5108
G1 X70.307 Y90.138 E2.5276
G1 X70.297 Y90.136 E2.528
G1 X69.753 Y90.004 E2.5513
G1 X69.744 Y90.001 E2.5517
G1 X69.361 Y89.876 E2.5684
G1 X69.352 Y89.873 E2.5688
G1 X68.839 Y89.658 E2.592
G1 X68.83 Y89.654 E2.5924
G1 X68.478 Y89.474 E2.6088
G1 X68.469 Y89.47 E2.6092
G1 X68.002 Y89.183 E2.632
G1 X67.994 Y89.178 E2.6324
G1 X67.672 Y88.944 E2.6489
G1 X67.664 Y88.938 E2.6493
G1 X67.236 Y88.574 E2.6727
G1 X67.229 Y88.567 E2.6731
G1 X66.94 Y88.279 E2.6901
G1 X66.933 Y88.272 E2.6905
G1 X66.568 Y87.844 E2.7139
G1 X66.562 Y87.836 E2.7143
G1 X66.325 Y87.511 E2.731
G1 X66.32 Y87.503 E2.7314
G1 X66.027 Y87.025 E2.7547
G1 X66.023 Y87.017 E2.7551
G1 X65.84 Y86.658 E2.7719
G1 X65.836 Y86.649 E2.7723
G1 X65.621 Y86.132 E2.7955
G1 X65.618 Y86.123 E2.796
G1 X65.494 Y85.74 E2.8127
G1 X65.491 Y85.731 E2.8131
G1 X65.36 Y85.186 E2.8364
G1 X65.358 Y85.177 E2.8368
G1 X65.295 Y84.778 E2.8535
G1 X65.294 Y84.768 E2.854
G1 X65.258 Y84.311 E2.873
G1 X65.258 Y84.306 E2.8732
G1 X65.25 Y84.105 E2.8816
G1 X65.25 Y84.1 E2.8818
G1 X65.25 Y76.379 E3.2028
G1 X65.288 Y76.287 E3.2069
G1 X66.575 Y75 E3.2826
G1 X65.288 Y73.713 E3.3583
G1 X65.25 Y73.621 E3.3624
G1 X65.25 Y65.9 E3.6835
G1 X65.25 Y65.895 E3.6837
G1 X65.258 Y65.694 E3.692
G1 X65.258 Y65.689 E3.6922
G1 X65.294 Y65.232 E3.7113
G1 X65.295 Y65.222 E3.7117
G1 X65.358 Y64.823 E3.7285
G1 X65.36 Y64.814 E3.7289
G1 X65.491 Y64.269 E3.7522
G1 X65.494 Y64.26 E3.7526
G1 X65.618 Y63.877 E3.7693
G1 X65.622 Y63.868 E3.7697
G1 X65.836 Y63.351 E3.793
G1 X65.84 Y63.342 E3.7934
G1 X66.023 Y62.983 E3.8101
G1 X66.027 Y62.975 E3.8105
G1 X66.312 Y62.51 E3.8332
G1 X66.317 Y62.502 E3.8336
G1 X66.543 Y62.189 E3.8496
G1 X66.549 Y62.181 E3.85
G1 X66.905 Y61.759 E3.873
G1 X66.912 Y61.752 E3.8734
G92 E0
G1 E-5 F4998
G1 X70.967 Y65.474 F9000
G1 E0 F4998
G92 E0
G1 X71.056 Y65.397 E0.0049 F450
G1 X71.158 Y65.333 E0.0099
G1 X71.267 Y65.288 E0.0148
G1 X71.381 Y65.26 E0.0196
G1 X71.508 Y65.25 E0.0249
G1 X79.25 Y65.25 E0.3468
G1 X79.25 Y71.25 E0.5963
G1 X70.75 Y71.25 E0.9497
G1 X70.75 Y66.01 E1.1675
G1 X70.76 Y65.883 E1.1728
G1 X70.787 Y65.768 E1.1777
G1 X70.832 Y65.66 E1.1826
G1 X70.891 Y65.564 E1.1873
G1 X70.967 Y65.474 E1.1922
G1 X71.324 Y65.826 F9000
G92 E0
G1 X71.354 Y65.801 E0.0016 F675
G1 X71.388 Y65.779 E0.0033
G1 X71.423 Y65.765 E0.0049
G1 X71.461 Y65.756 E0.0065
G1 X71.528 Y65.75 E0.0093
G1 X73.561 Y65.75 E0.0938
G1 X73.318 Y66.146 E0.1132
G1 X73.163 Y66.532 E0.1305
G1 X73.075 Y66.938 E0.1477
G1 X73.057 Y67.354 E0.165
G1 X73.11 Y67.767 E0.1823
G1 X73.232 Y68.165 E0.1996
G1 X73.419 Y68.536 E0.2169
G1 X73.667 Y68.87 E0.2342
G1 X73.967 Y69.158 E0.2515
G1 X74.312 Y69.391 E0.2688
G1 X74.691 Y69.563 E0.2861
G1 X75.093 Y69.667 E0.3034
G1 X75.508 Y69.703 E0.3207
G1 X75.922 Y69.667 E0.338
G1 X76.325 Y69.563 E0.3553
G1 X76.704 Y69.391 E0.3726
G1 X77.049 Y69.158 E0.3899
G1 X77.349 Y68.87 E0.4072
G1 X77.596 Y68.536 E0.4245
G1 X77.784 Y68.165 E0.4418
G1 X77.906 Y67.767 E0.4591
G1 X77.958 Y67.354 E0.4764
G1 X77.941 Y66.938 E0.4937
G1 X77.853 Y66.532 E0.511
G1 X77.698 Y66.146 E0.5283
G1 X77.454 Y65.75 E0.5476
G1 X78.75 Y65.75 E0.6014
G1 X78.75 Y70.75 E0.8093
G1 X71.25 Y70.75 E1.1211
G1 X71.25 Y66.029 E1.3174
G1 X71.255 Y65.961 E1.3202
G1 X71.264 Y65.923 E1.3219
G1 X71.279 Y65.887 E1.3235
G1 X71.298 Y65.858 E1.3249
G1 X71.324 Y65.826 E1.3266
G1 X73.939 Y66.09 F9000
G92 E0
G1 X73.766 Y66.372 E0.0138 F450
G1 X73.642 Y66.679 E0.0275
G1 X73.573 Y67.002 E0.0413
G1 X73.559 Y67.333 E0.055
G1 X73.601 Y67.661 E0.0688
G1 X73.698 Y67.977 E0.0825
G1 X73.847 Y68.273 E0.0963
G1 X74.043 Y68.539 E0.1101
G1 X74.282 Y68.768 E0.1238
G1 X74.556 Y68.953 E0.1376
G1 X74.858 Y69.089 E0.1513
G1 X75.178 Y69.173 E0.1651
G1 X75.508 Y69.201 E0.1788
G1 X75.838 Y69.173 E0.1926
G1 X76.158 Y69.089 E0.2064
G1 X76.459 Y68.953 E0.2201
G1 X76.733 Y68.768 E0.2339
G1 X76.972 Y68.539 E0.2476
G1 X77.169 Y68.273 E0.2614
G1 X77.318 Y67.977 E0.2751
G1 X77.415 Y67.661 E0.2889
G1 X77.457 Y67.333 E0.3027
G1 X77.443 Y67.002 E0.3164
G1 X77.373 Y66.679 E0.3302
G1 X77.25 Y66.372 E0.3439
G1 X77.076 Y66.09 E0.3577
G1 X76.858 Y65.842 E0.3714
G1 X76.6 Y65.634 E0.3852
G1 X76.311 Y65.472 E0.399
G1 X75.999 Y65.362 E0.4127
G1 X75.673 Y65.306 E0.4265
G1 X75.342 Y65.306 E0.4402
G1 X75.016 Y65.362 E0.454
G1 X74.704 Y65.472 E0.4677
G1 X74.415 Y65.634 E0.4815
G1 X74.158 Y65.842 E0.4953
G1 X73.939 Y66.09 E0.509
G1 X71.675 Y66.806 F9000
G92 E0
G1 X72.306 Y66.175 E0.0371 F720
G1 X72.848 Y66.175 E0.0596
G1 X72.755 Y66.407 E0.07
G1 X72.748 Y66.441 E0.0714
G1 X71.675 Y67.513 E0.1345
G1 X71.675 Y68.22 E0.1639
G1 X72.636 Y67.259 E0.2204
G1 X72.631 Y67.372 E0.2251
G1 X72.693 Y67.857 E0.2454
G1 X72.706 Y67.897 E0.2472
G1 X71.675 Y68.927 E0.3078
G1 X71.675 Y69.634 E0.3372
G1 X72.886 Y68.423 E0.4084
G1 X73.056 Y68.76 E0.424
G1 X73.141 Y68.875 E0.43
G1 X71.692 Y70.325 E0.5153
G1 X72.399 Y70.325 E0.5447
G1 X73.461 Y69.262 E0.6072
G1 X73.699 Y69.49 E0.6208
G1 X73.843 Y69.588 E0.6281
G1 X73.106 Y70.325 E0.6714
G1 X73.813 Y70.325 E0.7008
G1 X74.29 Y69.848 E0.7289
G1 X74.549 Y69.965 E0.7407
G1 X74.812 Y70.033 E0.752
G1 X74.52 Y70.325 E0.7691
G1 X75.227 Y70.325 E0.7985
G1 X75.429 Y70.123 E0.8104
G1 X75.508 Y70.129 E0.8137
G1 X75.994 Y70.088 E0.834
G1 X76.234 Y70.026 E0.8443
G1 X75.934 Y70.325 E0.8619
G1 X76.641 Y70.325 E0.8913
G1 X78.325 Y68.641 E0.9903
G1 X78.325 Y69.348 E1.0197
G1 X77.348 Y70.325 E1.0771
G1 X78.055 Y70.325 E1.1065
G1 X78.325 Y70.055 E1.1224
G1 X78.325 Y70.325 E1.1336
G1 X78.055 Y70.325 E1.1448
G1 X78.325 Y68.641 F9000
G92 E0
G1 X78.325 Y67.934 E0.0294 F720
G1 X78.287 Y67.972 E0.0316
G1 X78.292 Y66.553 F9000
G92 E0
G1 X78.325 Y66.52 E0.0019 F720
G1 X78.325 Y66.704 E0.0096
G1 X78.292 Y66.553 E0.016
G1 X78.261 Y66.407 E0.0222
G1 X78.168 Y66.175 E0.0326
G1 X78.325 Y66.175 E0.0392
G1 X78.325 Y66.52 E0.0535
G92 E0
G1 E-5 F4998
G1 X79.25 Y78.75 F9000
G1 E0 F4998
G92 E0
G1 X79.25 Y84.75 E0.2495 F450
G1 X71.508 Y84.75 E0.5713
G1 X71.381 Y84.74 E0.5766
G1 X71.267 Y84.712 E0.5815
G1 X71.158 Y84.666 E0.5864
G1 X71.062 Y84.608 E0.5911
G1 X70.97 Y84.53 E0.5961
G1 X70.894 Y84.44 E0.601
G1 X70.832 Y84.34 E0.6059
G1 X70.787 Y84.232 E0.6108
G1 X70.76 Y84.117 E0.6157
G1 X70.75 Y83.99 E0.6209
G1 X70.75 Y78.75 E0.8388
G1 X79.25 Y78.75 E1.1922
G1 X78.75 Y79.25 F9000
G92 E0
G1 X78.75 Y84.25 E0.2079 F675
G1 X77.488 Y84.25 E0.2603
G1 X77.784 Y83.665 E0.2876
G1 X77.906 Y83.267 E0.3049
G1 X77.958 Y82.854 E0.3222
G1 X77.941 Y82.438 E0.3395
G1 X77.853 Y82.032 E0.3568
G1 X77.698 Y81.646 E0.3741
G1 X77.48 Y81.292 E0.3914
G1 X77.205 Y80.979 E0.4087
G1 X76.881 Y80.718 E0.426
G1 X76.518 Y80.515 E0.4432
G1 X76.126 Y80.376 E0.4605
G1 X75.716 Y80.306 E0.4778
G1 X75.3 Y80.306 E0.4951
G1 X74.89 Y80.376 E0.5124
G1 X74.498 Y80.515 E0.5297
G1 X74.134 Y80.718 E0.547
G1 X73.811 Y80.979 E0.5643
G1 X73.536 Y81.291 E0.5816
G1 X73.318 Y81.646 E0.5989
G1 X73.163 Y82.032 E0.6162
G1 X73.075 Y82.438 E0.6335
G1 X73.057 Y82.854 E0.6508
G1 X73.11 Y83.267 E0.6681
G1 X73.232 Y83.665 E0.6854
G1 X73.527 Y84.25 E0.7126
G1 X71.528 Y84.25 E0.7958
G1 X71.461 Y84.244 E0.7986
G1 X71.423 Y84.235 E0.8002
G1 X71.386 Y84.22 E0.8018
G1 X71.356 Y84.202 E0.8033
G1 X71.324 Y84.175 E0.805
G1 X71.3 Y84.146 E0.8066
G1 X71.279 Y84.112 E0.8082
G1 X71.264 Y84.077 E0.8098
G1 X71.255 Y84.039 E0.8115
G1 X71.25 Y83.971 E0.8143
G1 X71.25 Y79.25 E1.0106
G1 X78.75 Y79.25 E1.3224
G1 X75.999 Y80.862 F9000
G92 E0
G1 X75.673 Y80.806 E0.0138 F450
G1 X75.342 Y80.806 E0.0275
G1 X75.016 Y80.862 E0.0413
G1 X74.704 Y80.972 E0.055
G1 X74.415 Y81.134 E0.0688
G1 X74.158 Y81.342 E0.0825
G1 X73.939 Y81.59 E0.0963
G1 X73.766 Y81.872 E0.1101
G1 X73.642 Y82.179 E0.1238
G1 X73.573 Y82.502 E0.1376
G1 X73.559 Y82.833 E0.1513
G1 X73.601 Y83.161 E0.1651
G1 X73.698 Y83.477 E0.1788
